; generated by Slic3r 1.2.9 on 2016-03-30 at 13:13:04

; external perimeters extrusion width = 0.50mm
; perimeters extrusion width = 0.84mm
; infill extrusion width = 0.84mm
; solid infill extrusion width = 0.84mm
; top infill extrusion width = 0.84mm

M107
M190 S56 ; set bed temperature
M104 S230 ; set temperature
G28 ; home all axes
G1 Z5 F5000 ; lift nozzle

M109 S230 ; wait for temperature to be reached
G21 ; set units to millimeters
G90 ; use absolute coordinates
M82 ; use absolute distances for extrusion
G92 E0
G1 Z0.250 F5400.000
G1 E-2.00000 F2400.00000
G92 E0
G1 X-0.000 Y-26.196 F5400.000
G1 E2.00000 F2400.00000
G1 X20.000 Y-26.196 E2.25375 F1350.000
G1 X22.182 Y-25.800 E2.28189
G1 X24.084 Y-24.660 E2.31002 F1350.000
G1 X25.463 Y-22.924 E2.33816
G1 X26.196 Y-20.000 E2.37640
G1 X26.196 Y20.000 E2.88391
G1 X25.800 Y22.182 E2.91204
G1 X24.660 Y24.084 E2.94018
G1 X22.924 Y25.463 E2.96831
G1 X20.000 Y26.196 E3.00656
G1 X-20.000 Y26.196 E3.51406
G1 X-22.182 Y25.800 E3.54220
G1 X-24.084 Y24.660 E3.57033
G1 X-25.463 Y22.924 E3.59847
G1 X-26.196 Y20.000 E3.63671
G1 X-26.196 Y-20.000 E4.14422
G1 X-25.800 Y-22.182 E4.17235
G1 X-24.660 Y-24.084 E4.20049
G1 X-22.924 Y-25.463 E4.22862
G1 X-20.000 Y-26.196 E4.26687
G1 X-0.075 Y-26.196 E4.51967
G1 E2.51967 F2400.00000
G92 E0
G1 X-19.679 Y-19.679 F5400.000
G1 E2.00000 F2400.00000
G1 X19.679 Y-19.679 E2.49935 F1350.000
G1 X19.679 Y19.679 E2.99871
G1 X-19.679 Y19.679 E3.49806
G1 X-19.679 Y-19.604 E3.99646
G1 X-19.875 Y-19.875 F5400.000
G1 X19.875 Y-19.875 E4.50080 F1012.500
G1 X19.875 Y19.875 E5.00513
G1 X-19.875 Y19.875 E5.50947
G1 X-19.875 Y-19.800 E6.01285
G1 X-19.442 Y-19.625 F5400.000
G1 X-19.573 Y19.173 F5400.000
G1 X-19.173 Y19.573 E6.02005 F1800.000
G1 X-18.895 Y19.573 E6.02357
G1 X-19.573 Y18.895 E6.03575
G1 X-19.573 Y18.617 E6.03927
G1 X-18.617 Y19.573 E6.05644
G1 X-18.339 Y19.573 E6.05996
G1 X-19.573 Y18.339 E6.08211
G1 X-19.573 Y18.062 E6.08564
G1 X-18.062 Y19.573 E6.11277
G1 X-17.784 Y19.573 E6.11629
G1 X-19.573 Y17.784 E6.14841
G1 X-19.573 Y17.506 E6.15194
G1 X-17.506 Y19.573 E6.18904
G1 X-17.228 Y19.573 E6.19257
G1 X-19.573 Y17.228 E6.23465
G1 X-19.573 Y16.951 E6.23818
G1 X-16.951 Y19.573 E6.28525
G1 X-16.673 Y19.573 E6.28878
G1 X-19.573 Y16.673 E6.34084
G1 X-19.573 Y16.395 E6.34436
G1 X-16.395 Y19.573 E6.40140
G1 X-16.117 Y19.573 E6.40493
G1 X-19.573 Y16.117 E6.46696
G1 X-19.573 Y15.840 E6.47048
G1 X-15.840 Y19.573 E6.53749
G1 X-15.562 Y19.573 E6.54102
G1 X-19.573 Y15.562 E6.61302
G1 X-19.573 Y15.284 E6.61654
G1 X-15.284 Y19.573 E6.69352
G1 X-15.006 Y19.573 E6.69705
G1 X-19.573 Y15.006 E6.77902
G1 X-19.573 Y14.729 E6.78254
G1 X-14.729 Y19.573 E6.86949
G1 X-14.451 Y19.573 E6.87302
G1 X-19.573 Y14.451 E6.96495
G1 X-19.573 Y14.173 E6.96848
G1 X-14.173 Y19.573 E7.06540
G1 X-13.895 Y19.573 E7.06893
G1 X-19.573 Y13.895 E7.17083
G1 X-19.573 Y13.618 E7.17436
G1 X-13.618 Y19.573 E7.28125
G1 X-13.340 Y19.573 E7.28477
G1 X-19.573 Y13.340 E7.39665
G1 X-19.573 Y13.062 E7.40018
G1 X-13.062 Y19.573 E7.51704
G1 X-12.784 Y19.573 E7.52056
G1 X-19.573 Y12.784 E7.64241
G1 X-19.573 Y12.507 E7.64593
G1 X-12.507 Y19.573 E7.77276
G1 X-12.229 Y19.573 E7.77629
G1 X-19.573 Y12.229 E7.90811
G1 X-19.573 Y11.951 E7.91163
G1 X-11.951 Y19.573 E8.04843
G1 X-11.673 Y19.573 E8.05196
G1 X-19.573 Y11.673 E8.19374
G1 X-19.573 Y11.396 E8.19727
G1 X-11.396 Y19.573 E8.34404
G1 X-11.118 Y19.573 E8.34756
G1 X-19.573 Y11.118 E8.49932
G1 X-19.573 Y10.840 E8.50284
G1 X-10.840 Y19.573 E8.65958
G1 X-10.562 Y19.573 E8.66311
G1 X-19.573 Y10.562 E8.82484
G1 X-19.573 Y10.285 E8.82836
G1 X-10.285 Y19.573 E8.99507
G1 X-10.007 Y19.573 E8.99860
G1 X-19.573 Y10.007 E9.17029
G1 X-19.573 Y9.729 E9.17382
G1 X-9.729 Y19.573 E9.35050
G1 X-9.451 Y19.573 E9.35402
G1 X-19.573 Y9.451 E9.53569
G1 X-19.573 Y9.174 E9.53921
G1 X-9.174 Y19.573 E9.72586
G1 X-8.896 Y19.573 E9.72939
G1 X-19.573 Y8.896 E9.92102
G1 X-19.573 Y8.618 E9.92455
G1 X-8.618 Y19.573 E10.12116
G1 X-8.340 Y19.573 E10.12469
G1 X-19.573 Y8.340 E10.32629
G1 X-19.573 Y8.063 E10.32982
G1 X-8.063 Y19.573 E10.53641
G1 X-7.785 Y19.573 E10.53993
G1 X-19.573 Y7.785 E10.75151
G1 X-19.573 Y7.507 E10.75503
G1 X-7.507 Y19.573 E10.97159
G1 X-7.229 Y19.573 E10.97512
G1 X-19.573 Y7.229 E11.19666
G1 X-19.573 Y6.952 E11.20019
G1 X-6.952 Y19.573 E11.42672
G1 X-6.674 Y19.573 E11.43024
G1 X-19.573 Y6.674 E11.66175
G1 X-19.573 Y6.396 E11.66528
G1 X-6.396 Y19.573 E11.90178
G1 X-6.118 Y19.573 E11.90530
G1 X-19.573 Y6.118 E12.14679
G1 X-19.573 Y5.841 E12.15031
G1 X-5.841 Y19.573 E12.39678
G1 X-5.563 Y19.573 E12.40031
G1 X-19.573 Y5.563 E12.65176
G1 X-19.573 Y5.285 E12.65528
G1 X-5.285 Y19.573 E12.91172
G1 X-5.007 Y19.573 E12.91525
G1 X-19.573 Y5.007 E13.17667
G1 X-19.573 Y4.730 E13.18020
G1 X-4.730 Y19.573 E13.44660
G1 X-4.452 Y19.573 E13.45013
G1 X-19.573 Y4.452 E13.72152
G1 X-19.573 Y4.174 E13.72505
G1 X-4.174 Y19.573 E14.00142
G1 X-3.896 Y19.573 E14.00495
G1 X-19.573 Y3.896 E14.28631
G1 X-19.573 Y3.619 E14.28984
G1 X-3.619 Y19.573 E14.57619
G1 X-3.341 Y19.573 E14.57971
G1 X-19.573 Y3.341 E14.87104
G1 X-19.573 Y3.063 E14.87457
G1 X-3.063 Y19.573 E15.17089
G1 X-2.785 Y19.573 E15.17441
G1 X-19.573 Y2.785 E15.47571
G1 X-19.573 Y2.508 E15.47924
G1 X-2.508 Y19.573 E15.78552
G1 X-2.230 Y19.573 E15.78905
G1 X-19.573 Y2.230 E16.10032
G1 X-19.573 Y1.952 E16.10385
G1 X-1.952 Y19.573 E16.42010
G1 X-1.674 Y19.573 E16.42363
G1 X-19.573 Y1.674 E16.74487
G1 X-19.573 Y1.397 E16.74840
G1 X-1.397 Y19.573 E17.07462
G1 X-1.119 Y19.573 E17.07815
G1 X-19.573 Y1.119 E17.40936
G1 X-19.573 Y0.841 E17.41288
G1 X-0.841 Y19.573 E17.74908
G1 X-0.563 Y19.573 E17.75261
G1 X-19.573 Y0.563 E18.09379
G1 X-19.573 Y0.286 E18.09731
G1 X-0.286 Y19.573 E18.44348
G1 X-0.008 Y19.573 E18.44700
G1 X-19.573 Y0.008 E18.79816
G1 X-19.573 Y-0.270 E18.80168
G1 X0.270 Y19.573 E19.15782
G1 X0.548 Y19.573 E19.16134
G1 X-19.573 Y-0.548 E19.52246
G1 X-19.573 Y-0.825 E19.52599
G1 X0.825 Y19.573 E19.89209
G1 X1.103 Y19.573 E19.89562
G1 X-19.573 Y-1.103 E20.26671
G1 X-19.573 Y-1.381 E20.27023
G1 X1.381 Y19.573 E20.64631
G1 X1.659 Y19.573 E20.64983
G1 X-19.573 Y-1.659 E21.03090
G1 X-19.573 Y-1.936 E21.03442
G1 X1.936 Y19.573 E21.42047
G1 X2.214 Y19.573 E21.42399
G1 X-19.573 Y-2.214 E21.81502
G1 X-19.573 Y-2.492 E21.81855
G1 X2.492 Y19.573 E22.21456
G1 X2.770 Y19.573 E22.21809
G1 X-19.573 Y-2.770 E22.61909
G1 X-19.573 Y-3.047 E22.62261
G1 X3.047 Y19.573 E23.02860
G1 X3.325 Y19.573 E23.03212
G1 X-19.573 Y-3.325 E23.44309
G1 X-19.573 Y-3.603 E23.44662
G1 X3.603 Y19.573 E23.86257
G1 X3.881 Y19.573 E23.86610
G1 X-19.573 Y-3.881 E24.28704
G1 X-19.573 Y-4.158 E24.29056
G1 X4.158 Y19.573 E24.71649
G1 X4.436 Y19.573 E24.72001
G1 X-19.573 Y-4.436 E25.15092
G1 X-19.573 Y-4.714 E25.15445
G1 X4.714 Y19.573 E25.59034
G1 X4.992 Y19.573 E25.59386
G1 X-19.573 Y-4.992 E26.03474
G1 X-19.573 Y-5.269 E26.03827
G1 X5.269 Y19.573 E26.48413
G1 X5.547 Y19.573 E26.48766
G1 X-19.573 Y-5.547 E26.93851
G1 X-19.573 Y-5.825 E26.94203
G1 X5.825 Y19.573 E27.39787
G1 X6.103 Y19.573 E27.40139
G1 X-19.573 Y-6.103 E27.86221
G1 X-19.573 Y-6.380 E27.86573
G1 X6.380 Y19.573 E28.33154
G1 X6.658 Y19.573 E28.33506
G1 X-19.573 Y-6.658 E28.80585
G1 X-19.573 Y-6.936 E28.80938
G1 X6.936 Y19.573 E29.28515
G1 X7.214 Y19.573 E29.28868
G1 X-19.573 Y-7.214 E29.76943
G1 X-19.573 Y-7.491 E29.77296
G1 X7.491 Y19.573 E30.25870
G1 X7.769 Y19.573 E30.26223
G1 X-19.573 Y-7.769 E30.75296
G1 X-19.573 Y-8.047 E30.75648
G1 X8.047 Y19.573 E31.25219
G1 X8.324 Y19.573 E31.25572
G1 X-19.573 Y-8.324 E31.75642
G1 X-19.573 Y-8.602 E31.75994
G1 X8.602 Y19.573 E32.26562
G1 X8.880 Y19.573 E32.26915
G1 X-19.573 Y-8.880 E32.77982
G1 X-19.573 Y-9.158 E32.78334
G1 X9.158 Y19.573 E33.29900
G1 X9.435 Y19.573 E33.30252
G1 X-19.573 Y-9.435 E33.82316
G1 X-19.573 Y-9.713 E33.82668
G1 X9.713 Y19.573 E34.35231
G1 X9.991 Y19.573 E34.35583
G1 X-19.573 Y-9.991 E34.88644
G1 X-19.573 Y-10.269 E34.88996
G1 X10.269 Y19.573 E35.42555
G1 X10.546 Y19.573 E35.42908
G1 X-19.573 Y-10.546 E35.96966
G1 X-19.573 Y-10.824 E35.97318
G1 X10.824 Y19.573 E36.51874
G1 X11.102 Y19.573 E36.52227
G1 X-19.573 Y-11.102 E37.07282
G1 X-19.573 Y-11.380 E37.07634
G1 X11.380 Y19.573 E37.63187
G1 X11.657 Y19.573 E37.63540
G1 X-19.573 Y-11.657 E38.19591
G1 X-19.573 Y-11.935 E38.19944
G1 X11.935 Y19.573 E38.76494
G1 X12.213 Y19.573 E38.76847
G1 X-19.573 Y-12.213 E39.33895
G1 X-19.573 Y-12.491 E39.34248
G1 X12.491 Y19.573 E39.91795
G1 X12.768 Y19.573 E39.92147
G1 X-19.573 Y-12.768 E40.50193
G1 X-19.573 Y-13.046 E40.50545
G1 X13.046 Y19.573 E41.09090
G1 X13.324 Y19.573 E41.09442
G1 X-19.573 Y-13.324 E41.68485
G1 X-19.573 Y-13.602 E41.68837
G1 X13.602 Y19.573 E42.28378
G1 X13.879 Y19.573 E42.28731
G1 X-19.573 Y-13.879 E42.88770
G1 X-19.573 Y-14.157 E42.89123
G1 X14.157 Y19.573 E43.49661
G1 X14.435 Y19.573 E43.50013
G1 X-19.573 Y-14.435 E44.11050
G1 X-19.573 Y-14.713 E44.11402
G1 X14.713 Y19.573 E44.72938
G1 X14.990 Y19.573 E44.73290
G1 X-19.573 Y-14.990 E45.35324
G1 X-19.573 Y-15.268 E45.35676
G1 X15.268 Y19.573 E45.98208
G1 X15.546 Y19.573 E45.98561
G1 X-19.573 Y-15.546 E46.61591
G1 X-19.573 Y-15.824 E46.61944
G1 X15.824 Y19.573 E47.25473
G1 X16.101 Y19.573 E47.25825
G1 X-19.573 Y-16.101 E47.89853
G1 X-19.573 Y-16.379 E47.90205
G1 X16.379 Y19.573 E48.54731
G1 X16.657 Y19.573 E48.55084
G1 X-19.573 Y-16.657 E49.20108
G1 X-19.573 Y-16.935 E49.20460
G1 X16.935 Y19.573 E49.85983
G1 X17.212 Y19.573 E49.86336
G1 X-19.573 Y-17.212 E50.52357
G1 X-19.573 Y-17.490 E50.52710
G1 X17.490 Y19.573 E51.19230
G1 X17.768 Y19.573 E51.19582
G1 X-19.573 Y-17.768 E51.86601
G1 X-19.573 Y-18.046 E51.86953
G1 X18.046 Y19.573 E52.54470
G1 X18.323 Y19.573 E52.54823
G1 X-19.573 Y-18.323 E53.22838
G1 X-19.573 Y-18.601 E53.23191
G1 X18.601 Y19.573 E53.91704
G1 X18.879 Y19.573 E53.92057
G1 X-19.573 Y-18.879 E54.61069
G1 X-19.573 Y-19.157 E54.61422
G1 X19.157 Y19.573 E55.30933
G1 X19.434 Y19.573 E55.31285
G1 X-19.573 Y-19.434 E56.01295
G1 X-19.435 Y-19.573 E56.01544
G1 X19.573 Y19.435 E56.71554
G1 X19.573 Y19.157 E56.71906
G1 X-19.157 Y-19.573 E57.41417
G1 X-18.879 Y-19.573 E57.41770
G1 X19.573 Y18.879 E58.10783
G1 X19.573 Y18.601 E58.11135
G1 X-18.601 Y-19.573 E58.79649
G1 X-18.324 Y-19.573 E58.80002
G1 X19.573 Y18.324 E59.48018
G1 X19.573 Y18.046 E59.48370
G1 X-18.046 Y-19.573 E60.15887
G1 X-17.768 Y-19.573 E60.16240
G1 X19.573 Y17.768 E60.83259
G1 X19.573 Y17.490 E60.83611
G1 X-17.490 Y-19.573 E61.50132
G1 X-17.213 Y-19.573 E61.50484
G1 X19.573 Y17.213 E62.16506
G1 X19.573 Y16.935 E62.16858
G1 X-16.935 Y-19.573 E62.82382
G1 X-16.657 Y-19.573 E62.82734
G1 X19.573 Y16.657 E63.47759
G1 X19.573 Y16.379 E63.48112
G1 X-16.379 Y-19.573 E64.12638
G1 X-16.102 Y-19.573 E64.12991
G1 X19.573 Y16.102 E64.77018
G1 X19.573 Y15.824 E64.77371
G1 X-15.824 Y-19.573 E65.40900
G1 X-15.546 Y-19.573 E65.41253
G1 X19.573 Y15.546 E66.04284
G1 X19.573 Y15.268 E66.04636
G1 X-15.268 Y-19.573 E66.67169
G1 X-14.991 Y-19.573 E66.67521
G1 X19.573 Y14.991 E67.29555
G1 X19.573 Y14.713 E67.29908
G1 X-14.713 Y-19.573 E67.91443
G1 X-14.435 Y-19.573 E67.91795
G1 X19.573 Y14.435 E68.52832
G1 X19.573 Y14.157 E68.53185
G1 X-14.157 Y-19.573 E69.13723
G1 X-13.880 Y-19.573 E69.14076
G1 X19.573 Y13.880 E69.74116
G1 X19.573 Y13.602 E69.74468
G1 X-13.602 Y-19.573 E70.34010
G1 X-13.324 Y-19.573 E70.34362
G1 X19.573 Y13.324 E70.93405
G1 X19.573 Y13.046 E70.93758
G1 X-13.046 Y-19.573 E71.52302
G1 X-12.769 Y-19.573 E71.52655
G1 X19.573 Y12.769 E72.10701
G1 X19.573 Y12.491 E72.11053
G1 X-12.491 Y-19.573 E72.68601
G1 X-12.213 Y-19.573 E72.68953
G1 X19.573 Y12.213 E73.26002
G1 X19.573 Y11.935 E73.26355
G1 X-11.935 Y-19.573 E73.82905
G1 X-11.658 Y-19.573 E73.83258
G1 X19.573 Y11.658 E74.39310
G1 X19.573 Y11.380 E74.39662
G1 X-11.380 Y-19.573 E74.95216
G1 X-11.102 Y-19.573 E74.95568
G1 X19.573 Y11.102 E75.50624
G1 X19.573 Y10.824 E75.50976
G1 X-10.824 Y-19.573 E76.05533
G1 X-10.547 Y-19.573 E76.05885
G1 X19.573 Y10.547 E76.59943
G1 X19.573 Y10.269 E76.60296
G1 X-10.269 Y-19.573 E77.13855
G1 X-9.991 Y-19.573 E77.14208
G1 X19.573 Y9.991 E77.67269
G1 X19.573 Y9.713 E77.67621
G1 X-9.713 Y-19.573 E78.20184
G1 X-9.436 Y-19.573 E78.20537
G1 X19.573 Y9.436 E78.72601
G1 X19.573 Y9.158 E78.72953
G1 X-9.158 Y-19.573 E79.24519
G1 X-8.880 Y-19.573 E79.24871
G1 X19.573 Y8.880 E79.75939
G1 X19.573 Y8.602 E79.76291
G1 X-8.602 Y-19.573 E80.26860
G1 X-8.325 Y-19.573 E80.27212
G1 X19.573 Y8.325 E80.77282
G1 X19.573 Y8.047 E80.77635
G1 X-8.047 Y-19.573 E81.27207
G1 X-7.769 Y-19.573 E81.27559
G1 X19.573 Y7.769 E81.76632
G1 X19.573 Y7.491 E81.76985
G1 X-7.491 Y-19.573 E82.25560
G1 X-7.214 Y-19.573 E82.25912
G1 X19.573 Y7.214 E82.73988
G1 X19.573 Y6.936 E82.74341
G1 X-6.936 Y-19.573 E83.21919
G1 X-6.658 Y-19.573 E83.22271
G1 X19.573 Y6.658 E83.69350
G1 X19.573 Y6.380 E83.69703
G1 X-6.380 Y-19.573 E84.16284
G1 X-6.103 Y-19.573 E84.16636
G1 X19.573 Y6.103 E84.62718
G1 X19.573 Y5.825 E84.63071
G1 X-5.825 Y-19.573 E85.08655
G1 X-5.547 Y-19.573 E85.09007
G1 X19.573 Y5.547 E85.54092
G1 X19.573 Y5.269 E85.54445
G1 X-5.269 Y-19.573 E85.99032
G1 X-4.992 Y-19.573 E85.99384
G1 X19.573 Y4.992 E86.43473
G1 X19.573 Y4.714 E86.43825
G1 X-4.714 Y-19.573 E86.87415
G1 X-4.436 Y-19.573 E86.87767
G1 X19.573 Y4.436 E87.30859
G1 X19.573 Y4.158 E87.31211
G1 X-4.158 Y-19.573 E87.73804
G1 X-3.881 Y-19.573 E87.74157
G1 X19.573 Y3.881 E88.16251
G1 X19.573 Y3.603 E88.16603
G1 X-3.603 Y-19.573 E88.58199
G1 X-3.325 Y-19.573 E88.58552
G1 X19.573 Y3.325 E88.99649
G1 X19.573 Y3.048 E89.00002
G1 X-3.048 Y-19.573 E89.40601
G1 X-2.770 Y-19.573 E89.40953
G1 X19.573 Y2.770 E89.81053
G1 X19.573 Y2.492 E89.81406
G1 X-2.492 Y-19.573 E90.21008
G1 X-2.214 Y-19.573 E90.21360
G1 X19.573 Y2.214 E90.60464
G1 X19.573 Y1.937 E90.60816
G1 X-1.937 Y-19.573 E90.99421
G1 X-1.659 Y-19.573 E90.99774
G1 X19.573 Y1.659 E91.37880
G1 X19.573 Y1.381 E91.38233
G1 X-1.381 Y-19.573 E91.75841
G1 X-1.103 Y-19.573 E91.76193
G1 X19.573 Y1.103 E92.13303
G1 X19.573 Y0.826 E92.13655
G1 X-0.826 Y-19.573 E92.50266
G1 X-0.548 Y-19.573 E92.50619
G1 X19.573 Y0.548 E92.86731
G1 X19.573 Y0.270 E92.87084
G1 X-0.270 Y-19.573 E93.22698
G1 X0.008 Y-19.573 E93.23050
G1 X19.573 Y-0.008 E93.58166
G1 X19.573 Y-0.285 E93.58518
G1 X0.285 Y-19.573 E93.93135
G1 X0.563 Y-19.573 E93.93488
G1 X19.573 Y-0.563 E94.27606
G1 X19.573 Y-0.841 E94.27959
G1 X0.841 Y-19.573 E94.61579
G1 X1.119 Y-19.573 E94.61931
G1 X19.573 Y-1.119 E94.95053
G1 X19.573 Y-1.396 E94.95405
G1 X1.396 Y-19.573 E95.28028
G1 X1.674 Y-19.573 E95.28381
G1 X19.573 Y-1.674 E95.60505
G1 X19.573 Y-1.952 E95.60858
G1 X1.952 Y-19.573 E95.92484
G1 X2.230 Y-19.573 E95.92837
G1 X19.573 Y-2.230 E96.23964
G1 X19.573 Y-2.507 E96.24317
G1 X2.507 Y-19.573 E96.54946
G1 X2.785 Y-19.573 E96.55298
G1 X19.573 Y-2.785 E96.85429
G1 X19.573 Y-3.063 E96.85781
G1 X3.063 Y-19.573 E97.15414
G1 X3.341 Y-19.573 E97.15766
G1 X19.573 Y-3.341 E97.44900
G1 X19.573 Y-3.618 E97.45252
G1 X3.618 Y-19.573 E97.73887
G1 X3.896 Y-19.573 E97.74240
G1 X19.573 Y-3.896 E98.02377
G1 X19.573 Y-4.174 E98.02729
G1 X4.174 Y-19.573 E98.30367
G1 X4.452 Y-19.573 E98.30720
G1 X19.573 Y-4.452 E98.57859
G1 X19.573 Y-4.729 E98.58212
G1 X4.729 Y-19.573 E98.84853
G1 X5.007 Y-19.573 E98.85206
G1 X19.573 Y-5.007 E99.11348
G1 X19.573 Y-5.285 E99.11701
G1 X5.285 Y-19.573 E99.37345
G1 X5.563 Y-19.573 E99.37698
G1 X19.573 Y-5.563 E99.62843
G1 X19.573 Y-5.840 E99.63196
G1 X5.840 Y-19.573 E99.87843
G1 X6.118 Y-19.573 E99.88196
G1 X19.573 Y-6.118 E100.12344
G1 X19.573 Y-6.396 E100.12697
G1 X6.396 Y-19.573 E100.36347
G1 X6.674 Y-19.573 E100.36700
G1 X19.573 Y-6.674 E100.59851
G1 X19.573 Y-6.951 E100.60204
G1 X6.951 Y-19.573 E100.82857
G1 X7.229 Y-19.573 E100.83210
G1 X19.573 Y-7.229 E101.05364
G1 X19.573 Y-7.507 E101.05717
G1 X7.507 Y-19.573 E101.27373
G1 X7.785 Y-19.573 E101.27726
G1 X19.573 Y-7.785 E101.48884
G1 X19.573 Y-8.062 E101.49236
G1 X8.062 Y-19.573 E101.69895
G1 X8.340 Y-19.573 E101.70248
G1 X19.573 Y-8.340 E101.90409
G1 X19.573 Y-8.618 E101.90761
G1 X8.618 Y-19.573 E102.10424
G1 X8.896 Y-19.573 E102.10776
G1 X19.573 Y-8.896 E102.29940
G1 X19.573 Y-9.173 E102.30292
G1 X9.173 Y-19.573 E102.48958
