; generated by Slic3r 1.2.9 on 2016-04-01 at 17:15:35

; external perimeters extrusion width = 0.50mm
; perimeters extrusion width = 0.84mm
; infill extrusion width = 0.84mm
; solid infill extrusion width = 0.84mm
; top infill extrusion width = 0.84mm

M107
M190 S56 ; set bed temperature
M104 S230 ; set temperature
G1 Z5 F5000 ; lift nozzle

M109 S230 ; wait for temperature to be reached
G21 ; set units to millimeters
G90 ; use absolute coordinates
M82 ; use absolute distances for extrusion
G92 E0
G1 Z0.250 F5400.000
G1 X13.821 Y9.679 F5400.000
G1 X-13.821 Y9.679 E0.36824 F1350.000
G1 X-13.821 Y-9.679 E0.62612
G1 X13.821 Y-9.679 E0.99437
G1 X13.821 Y9.604 E1.25125
G1 X14.017 Y9.875 F5400.000
G1 X-14.017 Y9.875 E1.62472 F1012.500
G1 X-14.017 Y-9.875 E1.88783
G1 X14.017 Y-9.875 E2.26131
G1 X14.017 Y9.800 E2.52342
G1 X13.584 Y9.625 F5400.000
G1 X13.716 Y-9.450 F5400.000
G1 X13.592 Y-9.573 E2.52575 F1800.000
G1 X13.313 Y-9.573 E2.52949
G1 X13.716 Y-9.171 E2.53711
G1 X13.716 Y-8.892 E2.54085
G1 X13.034 Y-9.573 E2.55376
G1 X12.755 Y-9.573 E2.55749
G1 X13.716 Y-8.613 E2.57568
G1 X13.716 Y-8.334 E2.57942
G1 X12.476 Y-9.573 E2.60290
G1 X12.197 Y-9.573 E2.60664
G1 X13.716 Y-8.055 E2.63540
G1 X13.716 Y-7.775 E2.63913
G1 X11.918 Y-9.573 E2.67318
G1 X11.639 Y-9.573 E2.67692
G1 X13.716 Y-7.496 E2.71625
G1 X13.716 Y-7.217 E2.71999
G1 X11.359 Y-9.573 E2.76461
G1 X11.080 Y-9.573 E2.76835
G1 X13.716 Y-6.938 E2.81825
G1 X13.716 Y-6.659 E2.82199
G1 X10.801 Y-9.573 E2.87718
G1 X10.522 Y-9.573 E2.88091
G1 X13.716 Y-6.380 E2.94139
G1 X13.716 Y-6.101 E2.94512
G1 X10.243 Y-9.573 E3.01088
G1 X9.964 Y-9.573 E3.01462
G1 X13.716 Y-5.822 E3.08567
G1 X13.716 Y-5.543 E3.08940
G1 X9.685 Y-9.573 E3.16574
G1 X9.406 Y-9.573 E3.16947
G1 X13.716 Y-5.264 E3.25109
G1 X13.716 Y-4.984 E3.25483
G1 X9.127 Y-9.573 E3.34173
G1 X8.847 Y-9.573 E3.34547
G1 X13.716 Y-4.705 E3.43765
G1 X13.716 Y-4.426 E3.44139
G1 X8.568 Y-9.573 E3.53886
G1 X8.289 Y-9.573 E3.54260
G1 X13.716 Y-4.147 E3.64536
G1 X13.716 Y-3.868 E3.64909
G1 X8.010 Y-9.573 E3.75714
G1 X7.731 Y-9.573 E3.76088
G1 X13.716 Y-3.589 E3.87420
G1 X13.716 Y-3.310 E3.87794
G1 X7.452 Y-9.573 E3.99656
G1 X7.173 Y-9.573 E4.00029
G1 X13.716 Y-3.031 E4.12419
G1 X13.716 Y-2.752 E4.12793
G1 X6.894 Y-9.573 E4.25711
G1 X6.615 Y-9.573 E4.26085
G1 X13.716 Y-2.472 E4.39532
G1 X13.716 Y-2.193 E4.39906
G1 X6.336 Y-9.573 E4.53881
G1 X6.056 Y-9.573 E4.54255
G1 X13.716 Y-1.914 E4.68759
G1 X13.716 Y-1.635 E4.69133
G1 X5.777 Y-9.573 E4.84166
G1 X5.498 Y-9.573 E4.84539
G1 X13.716 Y-1.356 E5.00101
G1 X13.716 Y-1.077 E5.00474
G1 X5.219 Y-9.573 E5.16564
G1 X4.940 Y-9.573 E5.16938
G1 X13.716 Y-0.798 E5.33556
G1 X13.716 Y-0.519 E5.33930
G1 X4.661 Y-9.573 E5.51077
G1 X4.382 Y-9.573 E5.51450
G1 X13.716 Y-0.240 E5.69126
G1 X13.716 Y0.039 E5.69499
G1 X4.103 Y-9.573 E5.87703
G1 X3.824 Y-9.573 E5.88077
G1 X13.716 Y0.319 E6.06810
G1 X13.716 Y0.598 E6.07183
G1 X3.544 Y-9.573 E6.26444
G1 X3.265 Y-9.573 E6.26818
G1 X13.716 Y0.877 E6.46608
G1 X13.716 Y1.156 E6.46981
G1 X2.986 Y-9.573 E6.67299
G1 X2.707 Y-9.573 E6.67673
G1 X13.716 Y1.435 E6.88520
G1 X13.716 Y1.714 E6.88893
G1 X2.428 Y-9.573 E7.10269
G1 X2.149 Y-9.573 E7.10642
G1 X13.716 Y1.993 E7.32546
G1 X13.716 Y2.272 E7.32920
G1 X1.870 Y-9.573 E7.55352
G1 X1.591 Y-9.573 E7.55726
G1 X13.716 Y2.551 E7.78686
G1 X13.716 Y2.831 E7.79060
G1 X1.312 Y-9.573 E8.02549
G1 X1.033 Y-9.573 E8.02923
G1 X13.716 Y3.110 E8.26941
G1 X13.716 Y3.389 E8.27315
G1 X0.753 Y-9.573 E8.51861
G1 X0.474 Y-9.573 E8.52235
G1 X13.716 Y3.668 E8.77310
G1 X13.716 Y3.947 E8.77684
G1 X0.195 Y-9.573 E9.03287
G1 X-0.084 Y-9.573 E9.03661
G1 X13.716 Y4.226 E9.29793
G1 X13.716 Y4.505 E9.30167
G1 X-0.363 Y-9.573 E9.56827
G1 X-0.642 Y-9.573 E9.57201
G1 X13.716 Y4.784 E9.84390
G1 X13.716 Y5.063 E9.84764
G1 X-0.921 Y-9.573 E10.12481
G1 X-1.200 Y-9.573 E10.12855
G1 X13.716 Y5.342 E10.41101
G1 X13.716 Y5.622 E10.41475
G1 X-1.479 Y-9.573 E10.70250
G1 X-1.759 Y-9.573 E10.70623
G1 X13.716 Y5.901 E10.99927
G1 X13.716 Y6.180 E11.00300
G1 X-2.038 Y-9.573 E11.30132
G1 X-2.317 Y-9.573 E11.30506
G1 X13.716 Y6.459 E11.60866
G1 X13.716 Y6.738 E11.61240
G1 X-2.596 Y-9.573 E11.92129
G1 X-2.875 Y-9.573 E11.92503
G1 X13.716 Y7.017 E12.23920
G1 X13.716 Y7.296 E12.24294
G1 X-3.154 Y-9.573 E12.56240
G1 X-3.433 Y-9.573 E12.56613
G1 X13.716 Y7.575 E12.89088
G1 X13.716 Y7.854 E12.89462
G1 X-3.712 Y-9.573 E13.22465
G1 X-3.991 Y-9.573 E13.22838
G1 X13.716 Y8.134 E13.56370
G1 X13.716 Y8.413 E13.56744
G1 X-4.270 Y-9.573 E13.90804
G1 X-4.550 Y-9.573 E13.91178
G1 X13.716 Y8.692 E14.25766
G1 X13.716 Y8.971 E14.26140
G1 X-4.829 Y-9.573 E14.61257
G1 X-5.108 Y-9.573 E14.61631
G1 X13.716 Y9.250 E14.97277
G1 X13.716 Y9.529 E14.97650
G1 X-5.387 Y-9.573 E15.33825
G1 X-5.666 Y-9.573 E15.34198
G1 X13.481 Y9.573 E15.70457
G1 X13.202 Y9.573 E15.70831
G1 X-5.945 Y-9.573 E16.07089
G1 X-6.224 Y-9.573 E16.07463
G1 X12.923 Y9.573 E16.43721
G1 X12.644 Y9.573 E16.44095
G1 X-6.503 Y-9.573 E16.80353
G1 X-6.782 Y-9.573 E16.80727
G1 X12.364 Y9.573 E17.16985
G1 X12.085 Y9.573 E17.17359
G1 X-7.062 Y-9.573 E17.53617
G1 X-7.341 Y-9.573 E17.53991
G1 X11.806 Y9.573 E17.90249
G1 X11.527 Y9.573 E17.90623
G1 X-7.620 Y-9.573 E18.26881
G1 X-7.899 Y-9.573 E18.27255
G1 X11.248 Y9.573 E18.63513
G1 X10.969 Y9.573 E18.63887
G1 X-8.178 Y-9.573 E19.00145
G1 X-8.457 Y-9.573 E19.00519
G1 X10.690 Y9.573 E19.36777
G1 X10.411 Y9.573 E19.37151
G1 X-8.736 Y-9.573 E19.73410
G1 X-9.015 Y-9.573 E19.73783
G1 X10.132 Y9.573 E20.10042
G1 X9.852 Y9.573 E20.10415
G1 X-9.294 Y-9.573 E20.46674
G1 X-9.573 Y-9.573 E20.47047
G1 X9.573 Y9.573 E20.83306
G1 X9.294 Y9.573 E20.83680
G1 X-9.853 Y-9.573 E21.19938
G1 X-10.132 Y-9.573 E21.20312
G1 X9.015 Y9.573 E21.56570
G1 X8.736 Y9.573 E21.56944
G1 X-10.411 Y-9.573 E21.93202
G1 X-10.690 Y-9.573 E21.93576
G1 X8.457 Y9.573 E22.29834
G1 X8.178 Y9.573 E22.30208
G1 X-10.969 Y-9.573 E22.66466
G1 X-11.248 Y-9.573 E22.66840
G1 X7.899 Y9.573 E23.03098
G1 X7.620 Y9.573 E23.03472
G1 X-11.527 Y-9.573 E23.39730
G1 X-11.806 Y-9.573 E23.40104
G1 X7.341 Y9.573 E23.76362
G1 X7.061 Y9.573 E23.76736
G1 X-12.085 Y-9.573 E24.12994
G1 X-12.365 Y-9.573 E24.13368
G1 X6.782 Y9.573 E24.49626
G1 X6.503 Y9.573 E24.50000
G1 X-12.644 Y-9.573 E24.86259
G1 X-12.923 Y-9.573 E24.86632
G1 X6.224 Y9.573 E25.22891
G1 X5.945 Y9.573 E25.23264
G1 X-13.202 Y-9.573 E25.59523
G1 X-13.481 Y-9.573 E25.59896
G1 X5.666 Y9.573 E25.96155
G1 X5.387 Y9.573 E25.96528
G1 X-13.716 Y-9.529 E26.32703
G1 X-13.716 Y-9.250 E26.33076
G1 X5.108 Y9.573 E26.68722
G1 X4.829 Y9.573 E26.69096
G1 X-13.716 Y-8.971 E27.04212
G1 X-13.716 Y-8.692 E27.04586
G1 X4.549 Y9.573 E27.39175
G1 X4.270 Y9.573 E27.39548
G1 X-13.716 Y-8.412 E27.73608
G1 X-13.716 Y-8.133 E27.73982
G1 X3.991 Y9.573 E28.07513
G1 X3.712 Y9.573 E28.07887
G1 X-13.716 Y-7.854 E28.40890
G1 X-13.716 Y-7.575 E28.41264
G1 X3.433 Y9.573 E28.73738
G1 X3.154 Y9.573 E28.74112
G1 X-13.716 Y-7.296 E29.06057
G1 X-13.716 Y-7.017 E29.06431
G1 X2.875 Y9.573 E29.37848
G1 X2.596 Y9.573 E29.38222
G1 X-13.716 Y-6.738 E29.69111
G1 X-13.716 Y-6.459 E29.69484
G1 X2.317 Y9.573 E29.99844
G1 X2.038 Y9.573 E30.00218
G1 X-13.716 Y-6.180 E30.30050
G1 X-13.716 Y-5.901 E30.30423
G1 X1.758 Y9.573 E30.59726
G1 X1.479 Y9.573 E30.60100
G1 X-13.716 Y-5.621 E30.88875
G1 X-13.716 Y-5.342 E30.89248
G1 X1.200 Y9.573 E31.17494
G1 X0.921 Y9.573 E31.17868
G1 X-13.716 Y-5.063 E31.45585
G1 X-13.716 Y-4.784 E31.45959
G1 X0.642 Y9.573 E31.73148
G1 X0.363 Y9.573 E31.73522
G1 X-13.716 Y-4.505 E32.00182
G1 X-13.716 Y-4.226 E32.00556
G1 X0.084 Y9.573 E32.26688
G1 X-0.195 Y9.573 E32.27061
G1 X-13.716 Y-3.947 E32.52665
G1 X-13.716 Y-3.668 E32.53038
G1 X-0.474 Y9.573 E32.78113
G1 X-0.754 Y9.573 E32.78487
G1 X-13.716 Y-3.389 E33.03033
G1 X-13.716 Y-3.109 E33.03407
G1 X-1.033 Y9.573 E33.27424
G1 X-1.312 Y9.573 E33.27798
G1 X-13.716 Y-2.830 E33.51287
G1 X-13.716 Y-2.551 E33.51661
G1 X-1.591 Y9.573 E33.74621
G1 X-1.870 Y9.573 E33.74995
G1 X-13.716 Y-2.272 E33.97427
G1 X-13.716 Y-1.993 E33.97801
G1 X-2.149 Y9.573 E34.19704
G1 X-2.428 Y9.573 E34.20078
G1 X-13.716 Y-1.714 E34.41453
G1 X-13.716 Y-1.435 E34.41826
G1 X-2.707 Y9.573 E34.62673
G1 X-2.986 Y9.573 E34.63047
G1 X-13.716 Y-1.156 E34.83364
G1 X-13.716 Y-0.877 E34.83738
G1 X-3.265 Y9.573 E35.03527
G1 X-3.545 Y9.573 E35.03901
G1 X-13.716 Y-0.598 E35.23162
G1 X-13.716 Y-0.318 E35.23536
G1 X-3.824 Y9.573 E35.42268
G1 X-4.103 Y9.573 E35.42642
G1 X-13.716 Y-0.039 E35.60845
G1 X-13.716 Y0.240 E35.61219
G1 X-4.382 Y9.573 E35.78894
G1 X-4.661 Y9.573 E35.79268
G1 X-13.716 Y0.519 E35.96414
G1 X-13.716 Y0.798 E35.96788
G1 X-4.940 Y9.573 E36.13406
G1 X-5.219 Y9.573 E36.13780
G1 X-13.716 Y1.077 E36.29869
G1 X-13.716 Y1.356 E36.30243
G1 X-5.498 Y9.573 E36.45804
G1 X-5.777 Y9.573 E36.46178
G1 X-13.716 Y1.635 E36.61210
G1 X-13.716 Y1.914 E36.61584
G1 X-6.057 Y9.573 E36.76088
G1 X-6.336 Y9.573 E36.76461
G1 X-13.716 Y2.194 E36.90437
G1 X-13.716 Y2.473 E36.90810
G1 X-6.615 Y9.573 E37.04257
G1 X-6.894 Y9.573 E37.04631
G1 X-13.716 Y2.752 E37.17549
G1 X-13.716 Y3.031 E37.17923
G1 X-7.173 Y9.573 E37.30313
G1 X-7.452 Y9.573 E37.30686
G1 X-13.716 Y3.310 E37.42548
G1 X-13.716 Y3.589 E37.42921
G1 X-7.731 Y9.573 E37.54254
G1 X-8.010 Y9.573 E37.54628
G1 X-13.716 Y3.868 E37.65432
G1 X-13.716 Y4.147 E37.65805
G1 X-8.289 Y9.573 E37.76081
G1 X-8.568 Y9.573 E37.76455
G1 X-13.716 Y4.426 E37.86202
G1 X-13.716 Y4.705 E37.86575
G1 X-8.848 Y9.573 E37.95794
G1 X-9.127 Y9.573 E37.96168
G1 X-13.716 Y4.985 E38.04858
G1 X-13.716 Y5.264 E38.05231
G1 X-9.406 Y9.573 E38.13393
G1 X-9.685 Y9.573 E38.13766
G1 X-13.716 Y5.543 E38.21399
G1 X-13.716 Y5.822 E38.21773
G1 X-9.964 Y9.573 E38.28877
G1 X-10.243 Y9.573 E38.29251
G1 X-13.716 Y6.101 E38.35827
G1 X-13.716 Y6.380 E38.36200
G1 X-10.522 Y9.573 E38.42248
G1 X-10.801 Y9.573 E38.42621
G1 X-13.716 Y6.659 E38.48140
G1 X-13.716 Y6.938 E38.48514
G1 X-11.080 Y9.573 E38.53504
G1 X-11.360 Y9.573 E38.53878
G1 X-13.716 Y7.217 E38.58339
G1 X-13.716 Y7.497 E38.58713
G1 X-11.639 Y9.573 E38.62646
G1 X-11.918 Y9.573 E38.63020
G1 X-13.716 Y7.776 E38.66424
G1 X-13.716 Y8.055 E38.66798
G1 X-12.197 Y9.573 E38.69674
G1 X-12.476 Y9.573 E38.70048
G1 X-13.716 Y8.334 E38.72395
G1 X-13.716 Y8.613 E38.72769
G1 X-12.755 Y9.573 E38.74588
G1 X-13.034 Y9.573 E38.74961
G1 X-13.716 Y8.892 E38.76252
G1 X-13.716 Y9.171 E38.76626
G1 X-13.313 Y9.573 E38.77387
G1 X-13.592 Y9.573 E38.77761
G1 X-13.716 Y9.450 E38.77994
G1 Z0.500 F5400.000
G1 X13.276 Y9.134 F5400.000
G1 X-13.276 Y9.134 E40.19488 F2638.131
G1 X-13.276 Y-9.134 E41.16837
G1 X13.276 Y-9.134 E42.58331
G1 X13.276 Y9.059 E43.55280
G1 X13.892 Y9.750 F5400.000
G1 X-13.892 Y9.750 E44.39422 F1978.599
G1 X-13.892 Y-9.750 E44.98477
G1 X13.892 Y-9.750 E45.82619
G1 X13.892 Y9.675 E46.41446
G1 X13.459 Y9.500 F5400.000
G1 X12.422 Y8.653 F5400.000
G1 X12.795 Y8.280 E46.44331 F3517.509
G1 X12.795 Y7.141 E46.50557
G1 X11.283 Y8.653 E46.62248
G1 X10.144 Y8.653 E46.68474
G1 X12.795 Y6.002 E46.88969
G1 X12.795 Y4.862 E46.95195
G1 X9.004 Y8.653 E47.24496
G1 X7.865 Y8.653 E47.30722
G1 X12.795 Y3.723 E47.68828
G1 X12.795 Y2.584 E47.75055
G1 X6.726 Y8.653 E48.21966
G1 X5.587 Y8.653 E48.28192
G1 X12.795 Y1.445 E48.83909
G1 X12.795 Y0.306 E48.90135
G1 X4.448 Y8.653 E49.54657
G1 X3.308 Y8.653 E49.60883
G1 X12.795 Y-0.834 E50.34210
G1 X12.795 Y-1.973 E50.40437
G1 X2.169 Y8.653 E51.22569
G1 X1.030 Y8.653 E51.28795
G1 X12.795 Y-3.112 E52.19733
G1 X12.795 Y-4.251 E52.25960
G1 X-0.109 Y8.653 E53.25703
G1 X-1.248 Y8.653 E53.31929
G1 X12.795 Y-5.390 E54.40477
G1 X12.795 Y-6.530 E54.46704
G1 X-2.388 Y8.653 E55.64057
G1 X-3.527 Y8.653 E55.70284
G1 X12.795 Y-7.669 E56.96443
G1 X12.640 Y-8.653 E57.01888
G1 X-4.666 Y8.653 E58.35655
G1 X-5.805 Y8.653 E58.41881
G1 X11.501 Y-8.653 E59.75648
G1 X10.362 Y-8.653 E59.81875
G1 X-6.944 Y8.653 E61.15641
G1 X-8.084 Y8.653 E61.21868
G1 X9.223 Y-8.653 E62.55634
G1 X8.084 Y-8.653 E62.61861
G1 X-9.223 Y8.653 E63.95628
G1 X-10.362 Y8.653 E64.01854
G1 X6.944 Y-8.653 E65.35621
G1 X5.805 Y-8.653 E65.41847
G1 X-11.501 Y8.653 E66.75614
G1 X-12.640 Y8.653 E66.81840
G1 X4.666 Y-8.653 E68.15607
G1 X3.527 Y-8.653 E68.21833
G1 X-12.795 Y7.669 E69.47992
G1 X-12.795 Y6.530 E69.54218
G1 X2.388 Y-8.653 E70.71572
G1 X1.248 Y-8.653 E70.77798
G1 X-12.795 Y5.390 E71.86347
G1 X-12.795 Y4.251 E71.92573
G1 X0.109 Y-8.653 E72.92316
G1 X-1.030 Y-8.653 E72.98542
G1 X-12.795 Y3.112 E73.89480
G1 X-12.795 Y1.973 E73.95706
G1 X-2.169 Y-8.653 E74.77838
G1 X-3.308 Y-8.653 E74.84065
G1 X-12.795 Y0.834 E75.57392
G1 X-12.795 Y-0.306 E75.63618
G1 X-4.448 Y-8.653 E76.28140
G1 X-5.587 Y-8.653 E76.34366
G1 X-12.795 Y-1.445 E76.90083
G1 X-12.795 Y-2.584 E76.96309
G1 X-6.726 Y-8.653 E77.43220
G1 X-7.865 Y-8.653 E77.49446
G1 X-12.795 Y-3.723 E77.87552
G1 X-12.795 Y-4.862 E77.93779
G1 X-9.004 Y-8.653 E78.23079
G1 X-10.144 Y-8.653 E78.29305
G1 X-12.795 Y-6.002 E78.49801
G1 X-12.795 Y-7.141 E78.56027
G1 X-11.283 Y-8.653 E78.67717
G1 X-12.422 Y-8.653 E78.73943
G1 X-12.795 Y-8.280 E78.76828
G1 Z0.750 F5400.000
G1 X13.276 Y9.134 F5400.000
G1 X-13.276 Y9.134 E80.18322 F2638.131
G1 X-13.276 Y-9.134 E81.15670
G1 X13.276 Y-9.134 E82.57164
G1 X13.276 Y9.059 E83.54113
G1 X13.892 Y9.750 F5400.000
G1 X-13.892 Y9.750 E84.38256 F1978.599
G1 X-13.892 Y-9.750 E84.97310
G1 X13.892 Y-9.750 E85.81453
G1 X13.892 Y9.675 E86.40280
G1 X13.459 Y9.500 F5400.000
G1 X12.795 Y-8.280 F5400.000
G1 X12.422 Y-8.653 E86.43165 F3517.509
G1 X11.283 Y-8.653 E86.49391
G1 X12.795 Y-7.141 E86.61081
G1 X12.795 Y-6.002 E86.67307
G1 X10.144 Y-8.653 E86.87803
G1 X9.004 Y-8.653 E86.94029
G1 X12.795 Y-4.862 E87.23330
G1 X12.795 Y-3.723 E87.29556
G1 X7.865 Y-8.653 E87.67662
G1 X6.726 Y-8.653 E87.73888
G1 X12.795 Y-2.584 E88.20799
G1 X12.795 Y-1.445 E88.27026
G1 X5.587 Y-8.653 E88.82742
G1 X4.448 Y-8.653 E88.88969
G1 X12.795 Y-0.306 E89.53490
G1 X12.795 Y0.834 E89.59717
G1 X3.308 Y-8.653 E90.33044
G1 X2.169 Y-8.653 E90.39270
G1 X12.795 Y1.973 E91.21403
G1 X12.795 Y3.112 E91.27629
G1 X1.030 Y-8.653 E92.18567
G1 X-0.109 Y-8.653 E92.24793
G1 X12.795 Y4.251 E93.24536
G1 X12.795 Y5.390 E93.30762
G1 X-1.248 Y-8.653 E94.39311
G1 X-2.388 Y-8.653 E94.45537
G1 X12.795 Y6.530 E95.62891
G1 X12.795 Y7.669 E95.69117
G1 X-3.527 Y-8.653 E96.95276
G1 X-4.666 Y-8.653 E97.01502
G1 X12.640 Y8.653 E98.35269
G1 X11.501 Y8.653 E98.41495
G1 X-5.805 Y-8.653 E99.75262
G1 X-6.944 Y-8.653 E99.81488
G1 X10.362 Y8.653 E101.15255
G1 X9.223 Y8.653 E101.21482
G1 X-8.084 Y-8.653 E102.55248
G1 X-9.223 Y-8.653 E102.61475
G1 X8.084 Y8.653 E103.95241
G1 X6.944 Y8.653 E104.01468
G1 X-10.362 Y-8.653 E105.35235
G1 X-11.501 Y-8.653 E105.41461
G1 X5.805 Y8.653 E106.75228
G1 X4.666 Y8.653 E106.81454
G1 X-12.640 Y-8.653 E108.15221
G1 X-12.795 Y-7.669 E108.20667
G1 X3.527 Y8.653 E109.46825
G1 X2.388 Y8.653 E109.53052
G1 X-12.795 Y-6.530 E110.70405
G1 X-12.795 Y-5.390 E110.76632
G1 X1.248 Y8.653 E111.85180
G1 X0.109 Y8.653 E111.91406
G1 X-12.795 Y-4.251 E112.91149
G1 X-12.795 Y-3.112 E112.97376
G1 X-1.030 Y8.653 E113.88313
G1 X-2.169 Y8.653 E113.94540
G1 X-12.795 Y-1.973 E114.76672
G1 X-12.795 Y-0.834 E114.82898
G1 X-3.308 Y8.653 E115.56225
G1 X-4.448 Y8.653 E115.62452
G1 X-12.795 Y0.306 E116.26973
G1 X-12.795 Y1.445 E116.33200
G1 X-5.587 Y8.653 E116.88916
G1 X-6.726 Y8.653 E116.95142
G1 X-12.795 Y2.584 E117.42054
G1 X-12.795 Y3.723 E117.48280
G1 X-7.865 Y8.653 E117.86386
G1 X-9.004 Y8.653 E117.92612
G1 X-12.795 Y4.862 E118.21913
G1 X-12.795 Y6.002 E118.28139
G1 X-10.144 Y8.653 E118.48634
G1 X-11.283 Y8.653 E118.54861
G1 X-12.795 Y7.141 E118.66550
G1 X-12.795 Y8.280 E118.72777
G1 X-12.422 Y8.653 E118.75661
M106 S255
G1 Z1.000 F5400.000
G1 X13.276 Y9.134 F5400.000
G1 X-13.276 Y9.134 E120.17155 F1293.194
G1 X-13.276 Y-9.134 E121.14504
G1 X13.276 Y-9.134 E122.55998
G1 X13.276 Y9.059 E123.52947
G1 X13.892 Y9.750 F5400.000
G1 X-13.892 Y9.750 E124.37089 F969.895
G1 X-13.892 Y-9.750 E124.96144
G1 X13.892 Y-9.750 E125.80286
G1 X13.892 Y9.675 E126.39114
G1 X13.459 Y9.500 F5400.000
G1 X9.132 Y8.653 F5400.000
G1 X12.795 Y4.990 E126.66717 F1724.258
G1 X12.795 Y-0.563 E126.96311
G1 X3.579 Y8.653 E127.65768
G1 X-1.975 Y8.653 E127.95362
G1 X12.795 Y-6.117 E129.06671
G1 X9.778 Y-8.653 E129.27675
