; generated by Slic3r 1.2.9 on 2016-04-01 at 13:32:16

; external perimeters extrusion width = 0.50mm
; perimeters extrusion width = 0.84mm
; infill extrusion width = 0.84mm
; solid infill extrusion width = 0.84mm
; top infill extrusion width = 0.84mm

M107
M190 S56 ; set bed temperature
M104 S230 ; set temperature
G28 ; home all axes
G1 Z5 F5000 ; lift nozzle

M109 S230 ; wait for temperature to be reached
G21 ; set units to millimeters
G90 ; use absolute coordinates
M82 ; use absolute distances for extrusion
G92 E0
G1 Z0.250 F5400.000
G1 E-2.00000 F2400.00000
G92 E0
G1 X85.340 Y85.916 F5400.000
G1 E2.00000 F2400.00000
G1 X87.076 Y84.537 E2.02813 F1350.000
G1 X90.000 Y83.804 E2.06638
G1 X110.000 Y83.804 E2.32013
G1 X112.182 Y84.200 E2.34827
G1 X114.084 Y85.340 E2.37640 F1350.000
G1 X115.463 Y87.076 E2.40454
G1 X116.196 Y90.000 E2.44278
G1 X116.196 Y110.000 E2.69653
G1 X115.800 Y112.182 E2.72467
G1 X114.660 Y114.084 E2.75280
G1 X112.924 Y115.463 E2.78094
G1 X110.000 Y116.196 E2.81918
G1 X90.000 Y116.196 E3.07293
G1 X87.818 Y115.800 E3.10107
G1 X85.916 Y114.660 E3.12920
G1 X84.537 Y112.924 E3.15734
G1 X83.804 Y110.000 E3.19558
G1 X83.804 Y90.000 E3.44934
G1 X84.200 Y87.818 E3.47747
G1 X85.301 Y85.980 E3.50465
G1 E1.50465 F2400.00000
G92 E0
G1 X109.679 Y109.679 F5400.000
G1 E2.00000 F2400.00000
G1 X90.321 Y109.679 E2.24560 F1350.000
G1 X90.321 Y90.321 E2.49120
G1 X109.679 Y90.321 E2.73680
G1 X109.679 Y109.604 E2.98145
G1 X109.875 Y109.875 F5400.000
G1 X90.125 Y109.875 E3.23203 F1012.500
G1 X90.125 Y90.125 E3.48261
G1 X109.875 Y90.125 E3.73319
G1 X109.875 Y109.800 E3.98282
G1 X109.442 Y109.625 F5400.000
G1 X109.573 Y90.550 F5400.000
G1 X109.450 Y90.427 E3.98503 F1800.000
G1 X109.172 Y90.427 E3.98856
G1 X109.573 Y90.828 E3.99576
G1 X109.573 Y91.105 E3.99928
G1 X108.895 Y90.427 E4.01146
G1 X108.617 Y90.427 E4.01498
G1 X109.573 Y91.383 E4.03215
G1 X109.573 Y91.661 E4.03567
G1 X108.339 Y90.427 E4.05782
G1 X108.062 Y90.427 E4.06134
G1 X109.573 Y91.938 E4.08847
G1 X109.573 Y92.216 E4.09200
G1 X107.784 Y90.427 E4.12411
G1 X107.506 Y90.427 E4.12764
G1 X109.573 Y92.494 E4.16474
G1 X109.573 Y92.772 E4.16826
G1 X107.228 Y90.427 E4.21034
G1 X106.951 Y90.427 E4.21387
G1 X109.573 Y93.049 E4.26093
G1 X109.573 Y93.327 E4.26446
G1 X106.673 Y90.427 E4.31651
G1 X106.395 Y90.427 E4.32003
G1 X109.573 Y93.605 E4.37707
G1 X109.573 Y93.882 E4.38059
G1 X106.118 Y90.427 E4.44261
G1 X105.840 Y90.427 E4.44613
G1 X109.573 Y94.160 E4.51313
G1 X109.573 Y94.438 E4.51666
G1 X105.562 Y90.427 E4.58864
G1 X105.284 Y90.427 E4.59217
G1 X109.573 Y94.716 E4.66914
G1 X109.573 Y94.993 E4.67266
G1 X105.007 Y90.427 E4.75461
G1 X104.729 Y90.427 E4.75814
G1 X109.573 Y95.271 E4.84507
G1 X109.573 Y95.549 E4.84860
G1 X104.451 Y90.427 E4.94052
G1 X104.173 Y90.427 E4.94404
G1 X109.573 Y95.826 E5.04095
G1 X109.573 Y96.104 E5.04447
G1 X103.896 Y90.427 E5.14636
G1 X103.618 Y90.427 E5.14988
G1 X109.573 Y96.382 E5.25675
G1 X109.573 Y96.660 E5.26028
G1 X103.340 Y90.427 E5.37213
G1 X103.063 Y90.427 E5.37566
G1 X109.573 Y96.937 E5.49250
G1 X109.573 Y97.215 E5.49602
G1 X102.785 Y90.427 E5.61784
G1 X102.507 Y90.427 E5.62137
G1 X109.573 Y97.493 E5.74817
G1 X109.573 Y97.771 E5.75170
G1 X102.229 Y90.427 E5.88349
G1 X101.952 Y90.427 E5.88701
G1 X109.573 Y98.048 E6.02379
G1 X109.573 Y98.326 E6.02731
G1 X101.674 Y90.427 E6.16907
G1 X101.396 Y90.427 E6.17259
G1 X109.573 Y98.604 E6.31933
G1 X109.573 Y98.881 E6.32286
G1 X101.119 Y90.427 E6.47458
G1 X100.841 Y90.427 E6.47811
G1 X109.573 Y99.159 E6.63482
G1 X109.573 Y99.437 E6.63834
G1 X100.563 Y90.427 E6.80003
G1 X100.285 Y90.427 E6.80356
G1 X109.573 Y99.715 E6.97024
G1 X109.573 Y99.992 E6.97376
G1 X100.008 Y90.427 E7.14542
G1 X99.730 Y90.427 E7.14894
G1 X109.573 Y100.270 E7.32559
G1 X109.573 Y100.548 E7.32911
G1 X99.452 Y90.427 E7.51074
G1 X99.175 Y90.427 E7.51426
G1 X109.573 Y100.825 E7.70088
G1 X109.573 Y101.103 E7.70440
G1 X98.897 Y90.427 E7.89599
G1 X98.619 Y90.427 E7.89952
G1 X109.573 Y101.381 E8.09610
G1 X109.573 Y101.659 E8.09962
G1 X98.341 Y90.427 E8.30119
G1 X98.064 Y90.427 E8.30471
G1 X109.573 Y101.936 E8.51126
G1 X109.573 Y102.214 E8.51478
G1 X97.786 Y90.427 E8.72631
G1 X97.508 Y90.427 E8.72983
G1 X109.573 Y102.492 E8.94635
G1 X109.573 Y102.769 E8.94987
G1 X97.231 Y90.427 E9.17137
G1 X96.953 Y90.427 E9.17489
G1 X109.573 Y103.047 E9.40138
G1 X109.573 Y103.325 E9.40490
G1 X96.675 Y90.427 E9.63637
G1 X96.397 Y90.427 E9.63989
G1 X109.573 Y103.603 E9.87634
G1 X109.573 Y103.880 E9.87986
G1 X96.120 Y90.427 E10.12130
G1 X95.842 Y90.427 E10.12482
G1 X109.573 Y104.158 E10.37124
G1 X109.573 Y104.436 E10.37476
G1 X95.564 Y90.427 E10.62616
G1 X95.287 Y90.427 E10.62969
G1 X109.573 Y104.713 E10.88607
G1 X109.573 Y104.991 E10.88959
G1 X95.009 Y90.427 E11.15096
G1 X94.731 Y90.427 E11.15449
G1 X109.573 Y105.269 E11.42084
G1 X109.573 Y105.547 E11.42436
G1 X94.453 Y90.427 E11.69570
G1 X94.176 Y90.427 E11.69922
G1 X109.573 Y105.824 E11.97554
G1 X109.573 Y106.102 E11.97906
G1 X93.898 Y90.427 E12.26037
G1 X93.620 Y90.427 E12.26389
G1 X109.573 Y106.380 E12.55018
G1 X109.573 Y106.657 E12.55370
G1 X93.343 Y90.427 E12.84497
G1 X93.065 Y90.427 E12.84850
G1 X109.573 Y106.935 E13.14475
G1 X109.573 Y107.213 E13.14828
G1 X92.787 Y90.427 E13.44951
G1 X92.509 Y90.427 E13.45304
G1 X109.573 Y107.491 E13.75926
G1 X109.573 Y107.768 E13.76278
G1 X92.232 Y90.427 E14.07399
G1 X91.954 Y90.427 E14.07751
G1 X109.573 Y108.046 E14.39370
G1 X109.573 Y108.324 E14.39723
G1 X91.676 Y90.427 E14.71840
G1 X91.399 Y90.427 E14.72192
G1 X109.573 Y108.601 E15.04808
G1 X109.573 Y108.879 E15.05160
G1 X91.121 Y90.427 E15.38274
G1 X90.843 Y90.427 E15.38627
G1 X109.573 Y109.157 E15.72239
G1 X109.573 Y109.435 E15.72592
G1 X90.565 Y90.427 E16.06702
G1 X90.427 Y90.565 E16.06952
G1 X109.435 Y109.573 E16.41062
G1 X109.157 Y109.573 E16.41415
G1 X90.427 Y90.843 E16.75027
G1 X90.427 Y91.121 E16.75379
G1 X108.879 Y109.573 E17.08493
G1 X108.601 Y109.573 E17.08846
G1 X90.427 Y91.399 E17.41461
G1 X90.427 Y91.676 E17.41813
G1 X108.324 Y109.573 E17.73931
G1 X108.046 Y109.573 E17.74283
G1 X90.427 Y91.954 E18.05902
G1 X90.427 Y92.232 E18.06254
G1 X107.768 Y109.573 E18.37374
G1 X107.490 Y109.573 E18.37727
G1 X90.427 Y92.510 E18.68349
G1 X90.427 Y92.787 E18.68701
G1 X107.213 Y109.573 E18.98825
G1 X106.935 Y109.573 E18.99177
G1 X90.427 Y93.065 E19.28803
G1 X90.427 Y93.343 E19.29155
G1 X106.657 Y109.573 E19.58282
G1 X106.380 Y109.573 E19.58634
G1 X90.427 Y93.620 E19.87263
G1 X90.427 Y93.898 E19.87615
G1 X106.102 Y109.573 E20.15745
G1 X105.824 Y109.573 E20.16098
G1 X90.427 Y94.176 E20.43729
G1 X90.427 Y94.454 E20.44082
G1 X105.546 Y109.573 E20.71215
G1 X105.269 Y109.573 E20.71567
G1 X90.427 Y94.731 E20.98202
G1 X90.427 Y95.009 E20.98555
G1 X104.991 Y109.573 E21.24691
G1 X104.713 Y109.573 E21.25044
G1 X90.427 Y95.287 E21.50682
G1 X90.427 Y95.564 E21.51035
G1 X104.436 Y109.573 E21.76174
G1 X104.158 Y109.573 E21.76527
G1 X90.427 Y95.842 E22.01168
G1 X90.427 Y96.120 E22.01521
G1 X103.880 Y109.573 E22.25664
G1 X103.602 Y109.573 E22.26016
G1 X90.427 Y96.398 E22.49661
G1 X90.427 Y96.675 E22.50013
G1 X103.325 Y109.573 E22.73160
G1 X103.047 Y109.573 E22.73512
G1 X90.427 Y96.953 E22.96160
G1 X90.427 Y97.231 E22.96512
G1 X102.769 Y109.573 E23.18662
G1 X102.492 Y109.573 E23.19014
G1 X90.427 Y97.508 E23.40666
G1 X90.427 Y97.786 E23.41018
G1 X102.214 Y109.573 E23.62171
G1 X101.936 Y109.573 E23.62523
G1 X90.427 Y98.064 E23.83178
G1 X90.427 Y98.342 E23.83530
G1 X101.658 Y109.573 E24.03686
G1 X101.381 Y109.573 E24.04039
G1 X90.427 Y98.619 E24.23696
G1 X90.427 Y98.897 E24.24049
G1 X101.103 Y109.573 E24.43208
G1 X100.825 Y109.573 E24.43561
G1 X90.427 Y99.175 E24.62222
G1 X90.427 Y99.452 E24.62574
G1 X100.548 Y109.573 E24.80737
G1 X100.270 Y109.573 E24.81089
G1 X90.427 Y99.730 E24.98753
G1 X90.427 Y100.008 E24.99106
G1 X99.992 Y109.573 E25.16271
G1 X99.714 Y109.573 E25.16624
G1 X90.427 Y100.286 E25.33291
G1 X90.427 Y100.563 E25.33644
G1 X99.437 Y109.573 E25.49813
G1 X99.159 Y109.573 E25.50165
G1 X90.427 Y100.841 E25.65836
G1 X90.427 Y101.119 E25.66188
G1 X98.881 Y109.573 E25.81361
G1 X98.604 Y109.573 E25.81713
G1 X90.427 Y101.396 E25.96387
G1 X90.427 Y101.674 E25.96740
G1 X98.326 Y109.573 E26.10915
G1 X98.048 Y109.573 E26.11268
G1 X90.427 Y101.952 E26.24945
G1 X90.427 Y102.230 E26.25297
G1 X97.770 Y109.573 E26.38476
G1 X97.493 Y109.573 E26.38828
G1 X90.427 Y102.507 E26.51509
G1 X90.427 Y102.785 E26.51861
G1 X97.215 Y109.573 E26.64043
G1 X96.937 Y109.573 E26.64396
G1 X90.427 Y103.063 E26.76079
G1 X90.427 Y103.340 E26.76432
G1 X96.660 Y109.573 E26.87617
G1 X96.382 Y109.573 E26.87970
G1 X90.427 Y103.618 E26.98657
G1 X90.427 Y103.896 E26.99009
G1 X96.104 Y109.573 E27.09198
G1 X95.826 Y109.573 E27.09550
G1 X90.427 Y104.174 E27.19240
G1 X90.427 Y104.451 E27.19593
G1 X95.549 Y109.573 E27.28784
G1 X95.271 Y109.573 E27.29137
G1 X90.427 Y104.729 E27.37830
G1 X90.427 Y105.007 E27.38183
G1 X94.993 Y109.573 E27.46378
G1 X94.716 Y109.573 E27.46730
G1 X90.427 Y105.284 E27.54427
G1 X90.427 Y105.562 E27.54779
G1 X94.438 Y109.573 E27.61978
G1 X94.160 Y109.573 E27.62330
G1 X90.427 Y105.840 E27.69030
G1 X90.427 Y106.118 E27.69382
G1 X93.882 Y109.573 E27.75584
G1 X93.605 Y109.573 E27.75936
G1 X90.427 Y106.395 E27.81640
G1 X90.427 Y106.673 E27.81992
G1 X93.327 Y109.573 E27.87197
G1 X93.049 Y109.573 E27.87549
G1 X90.427 Y106.951 E27.92256
G1 X90.427 Y107.228 E27.92608
G1 X92.772 Y109.573 E27.96816
G1 X92.494 Y109.573 E27.97169
G1 X90.427 Y107.506 E28.00878
G1 X90.427 Y107.784 E28.01231
G1 X92.216 Y109.573 E28.04442
G1 X91.938 Y109.573 E28.04795
G1 X90.427 Y108.062 E28.07507
G1 X90.427 Y108.339 E28.07860
G1 X91.661 Y109.573 E28.10074
G1 X91.383 Y109.573 E28.10427
G1 X90.427 Y108.617 E28.12143
G1 X90.427 Y108.895 E28.12495
G1 X91.105 Y109.573 E28.13713
G1 X90.827 Y109.573 E28.14066
G1 X90.427 Y109.173 E28.14785
G1 X90.427 Y109.450 E28.15138
G1 X90.550 Y109.573 E28.15359
G1 Z0.500 F5400.000
G1 X109.134 Y109.134 F5400.000
G1 X90.866 Y109.134 E29.08071 F967.802
G1 X90.866 Y90.866 E30.00784
G1 X109.134 Y90.866 E30.93497
G1 X109.134 Y109.059 E31.85829
G1 X109.750 Y109.750 F5400.000
G1 X90.250 Y109.750 E32.42071 F725.851
G1 X90.250 Y90.250 E32.98313
G1 X109.750 Y90.250 E33.54556
G1 X109.750 Y109.675 E34.10582
G1 X109.317 Y109.500 F5400.000
G1 X108.280 Y108.653 F5400.000
G1 X108.653 Y108.280 E34.13304 F1290.403
G1 X108.653 Y107.151 E34.19127
G1 X107.151 Y108.653 E34.30084
G1 X106.022 Y108.653 E34.35907
G1 X108.653 Y106.022 E34.55098
G1 X108.653 Y104.893 E34.60921
G1 X104.893 Y108.653 E34.88347
G1 X103.764 Y108.653 E34.94170
G1 X108.653 Y103.764 E35.29831
G1 X108.653 Y102.636 E35.35654
G1 X102.636 Y108.653 E35.79549
G1 X101.507 Y108.653 E35.85372
G1 X108.653 Y101.507 E36.37502
G1 X108.653 Y100.378 E36.43325
G1 X100.378 Y108.653 E37.03690
G1 X99.249 Y108.653 E37.09513
G1 X108.653 Y99.249 E37.78112
G1 X108.653 Y98.120 E37.83935
G1 X98.120 Y108.653 E38.60769
G1 X96.991 Y108.653 E38.66592
G1 X108.653 Y96.991 E39.51660
G1 X108.653 Y95.862 E39.57483
G1 X95.862 Y108.653 E40.50786
G1 X94.733 Y108.653 E40.56609
G1 X108.653 Y94.733 E41.58147
G1 X108.653 Y93.605 E41.63970
G1 X93.605 Y108.653 E42.73742
G1 X92.476 Y108.653 E42.79565
G1 X108.653 Y92.476 E43.97572
G1 X108.633 Y91.367 E44.03293
G1 X91.367 Y108.633 E45.29243
G1 X91.347 Y107.524 E45.34963
G1 X107.524 Y91.347 E46.52971
G1 X106.395 Y91.347 E46.58793
G1 X91.347 Y106.395 E47.68566
G1 X91.347 Y105.267 E47.74389
G1 X105.267 Y91.347 E48.75926
G1 X104.138 Y91.347 E48.81749
G1 X91.347 Y104.138 E49.75052
G1 X91.347 Y103.009 E49.80875
G1 X103.009 Y91.347 E50.65944
G1 X101.880 Y91.347 E50.71766
G1 X91.347 Y101.880 E51.48600
G1 X91.347 Y100.751 E51.54423
G1 X100.751 Y91.347 E52.23023
G1 X99.622 Y91.347 E52.28845
G1 X91.347 Y99.622 E52.89210
G1 X91.347 Y98.493 E52.95033
G1 X98.493 Y91.347 E53.47163
G1 X97.364 Y91.347 E53.52986
G1 X91.347 Y97.364 E53.96881
G1 X91.347 Y96.236 E54.02704
G1 X96.236 Y91.347 E54.38365
G1 X95.107 Y91.347 E54.44188
G1 X91.347 Y95.107 E54.71614
G1 X91.347 Y93.978 E54.77437
G1 X93.978 Y91.347 E54.96628
G1 X92.849 Y91.347 E55.02451
G1 X91.347 Y92.849 E55.13408
G1 X91.347 Y91.720 E55.19231
G1 X91.720 Y91.347 E55.21953
G1 Z0.750 F5400.000
G1 X109.134 Y109.134 F5400.000
G1 X90.866 Y109.134 E56.14666 F967.802
G1 X90.866 Y90.866 E57.07379
G1 X109.134 Y90.866 E58.00091
G1 X109.134 Y109.059 E58.92423
G1 X109.750 Y109.750 F5400.000
G1 X90.250 Y109.750 E59.48666 F725.851
G1 X90.250 Y90.250 E60.04908
G1 X109.750 Y90.250 E60.61150
G1 X109.750 Y109.675 E61.17176
G1 X109.317 Y109.500 F5400.000
G1 X108.653 Y91.720 F5400.000
G1 X108.280 Y91.347 E61.19898 F1290.403
G1 X107.151 Y91.347 E61.25721
G1 X108.653 Y92.849 E61.36678
G1 X108.653 Y93.978 E61.42501
G1 X106.022 Y91.347 E61.61693
G1 X104.893 Y91.347 E61.67515
G1 X108.653 Y95.107 E61.94942
G1 X108.653 Y96.236 E62.00764
G1 X103.764 Y91.347 E62.36425
G1 X102.636 Y91.347 E62.42248
G1 X108.653 Y97.364 E62.86144
G1 X108.653 Y98.493 E62.91967
G1 X101.507 Y91.347 E63.44097
G1 X100.378 Y91.347 E63.49919
G1 X108.653 Y99.622 E64.10284
G1 X108.653 Y100.751 E64.16107
G1 X99.249 Y91.347 E64.84706
G1 X98.120 Y91.347 E64.90529
G1 X108.653 Y101.880 E65.67363
G1 X108.653 Y103.009 E65.73186
G1 X96.991 Y91.347 E66.58255
G1 X95.862 Y91.347 E66.64077
G1 X108.653 Y104.138 E67.57381
G1 X108.653 Y105.267 E67.63204
G1 X94.733 Y91.347 E68.64741
G1 X93.605 Y91.347 E68.70564
G1 X108.653 Y106.395 E69.80337
G1 X108.653 Y107.524 E69.86160
G1 X92.476 Y91.347 E71.04167
G1 X91.367 Y91.367 E71.09887
G1 X108.633 Y108.633 E72.35837
G1 X107.524 Y108.653 E72.41558
G1 X91.347 Y92.476 E73.59565
G1 X91.347 Y93.605 E73.65388
G1 X106.395 Y108.653 E74.75160
G1 X105.267 Y108.653 E74.80983
G1 X91.347 Y94.733 E75.82521
G1 X91.347 Y95.862 E75.88343
G1 X104.138 Y108.653 E76.81647
G1 X103.009 Y108.653 E76.87469
G1 X91.347 Y96.991 E77.72538
G1 X91.347 Y98.120 E77.78361
G1 X101.880 Y108.653 E78.55195
G1 X100.751 Y108.653 E78.61018
G1 X91.347 Y99.249 E79.29617
G1 X91.347 Y100.378 E79.35440
G1 X99.622 Y108.653 E79.95804
G1 X98.493 Y108.653 E80.01627
G1 X91.347 Y101.507 E80.53757
G1 X91.347 Y102.636 E80.59580
G1 X97.364 Y108.653 E81.03476
G1 X96.236 Y108.653 E81.09298
G1 X91.347 Y103.764 E81.44959
G1 X91.347 Y104.893 E81.50782
G1 X95.107 Y108.653 E81.78208
G1 X93.978 Y108.653 E81.84031
G1 X91.347 Y106.022 E82.03223
G1 X91.347 Y107.151 E82.09045
G1 X92.849 Y108.653 E82.20002
G1 X91.720 Y108.653 E82.25825
G1 X91.347 Y108.280 E82.28548
M106 S255
G1 Z1.000 F5400.000
G1 X109.134 Y109.134 F5400.000
G1 X90.866 Y109.134 E83.21260 F600.000
G1 X90.866 Y90.866 E84.13973
G1 X109.134 Y90.866 E85.06686
G1 X109.134 Y109.059 E85.99018
G1 X109.750 Y109.750 F5400.000
G1 X90.250 Y109.750 E86.55260 F600.000
G1 X90.250 Y90.250 E87.11502
G1 X109.750 Y90.250 E87.67744
G1 X109.750 Y109.675 E88.23770
G1 X109.317 Y109.500 F5400.000
G1 X102.970 Y108.653 F5400.000
G1 X108.653 Y102.970 E88.64557 F678.610
G1 X108.653 Y97.417 E88.92742
G1 X97.417 Y108.653 E89.73389
G1 X91.863 Y108.653 E90.01574
G1 X108.653 Y91.863 E91.22080
G1 X103.616 Y91.347 E91.47779
G1 X91.347 Y103.616 E92.35836
G1 X91.347 Y98.062 E92.64021
G1 X98.062 Y91.347 E93.12219
G1 X92.509 Y91.347 E93.40404
G1 X91.347 Y92.509 E93.48742
G1 Z1.250 F5400.000
G1 X109.134 Y109.134 F5400.000
G1 X90.866 Y109.134 E94.41455 F600.000
G1 X90.866 Y90.866 E95.34168
G1 X109.134 Y90.866 E96.26881
G1 X109.134 Y109.059 E97.19213
G1 X109.750 Y109.750 F5400.000
G1 X90.250 Y109.750 E97.75455 F600.000
G1 X90.250 Y90.250 E98.31697
G1 X109.750 Y90.250 E98.87939
G1 X109.750 Y109.675 E99.43965
G1 X109.317 Y109.500 F5400.000
G1 X108.653 Y97.030 F5400.000
G1 X102.970 Y91.347 E99.84752 F678.610
G1 X97.417 Y91.347 E100.12937
G1 X108.653 Y102.583 E100.93584
G1 X108.653 Y108.137 E101.21769
G1 X91.863 Y91.347 E102.42275
G1 X91.347 Y96.384 E102.67974
G1 X103.616 Y108.653 E103.56031
G1 X98.062 Y108.653 E103.84216
G1 X91.347 Y101.938 E104.32414
G1 X91.347 Y107.491 E104.60599
G1 X92.509 Y108.653 E104.68937
G1 Z1.500 F5400.000
G1 X109.134 Y109.134 F5400.000
G1 X90.866 Y109.134 E105.61650 F600.000
G1 X90.866 Y90.866 E106.54363
G1 X109.134 Y90.866 E107.47075
G1 X109.134 Y109.059 E108.39407
