; generated by Slic3r 1.2.9 on 2016-04-08 at 14:17:39

; external perimeters extrusion width = 0.50mm
; perimeters extrusion width = 0.84mm
; infill extrusion width = 0.84mm
; solid infill extrusion width = 0.84mm
; top infill extrusion width = 0.84mm

M107
M190 S56 ; set bed temperature
M104 S230 ; set temperature
G28 ; home all axes
G1 Z5 F5000 ; lift nozzle

M109 S230 ; wait for temperature to be reached
G21 ; set units to millimeters
G90 ; use absolute coordinates
M82 ; use absolute distances for extrusion
G92 E0
G1 Z0.250 F5400.000
G1 E-2.00000 F2400.00000
G92 E0
G1 X84.951 Y85.766 F5400.000
G1 E2.00000 F2400.00000
G1 X86.702 Y84.295 E2.03047 F1350.000
G1 X88.851 Y83.512 E2.06094
G1 X90.000 Y83.411 E2.07630
G1 X110.000 Y83.411 E2.34275
G1 X112.252 Y83.808 E2.37322
G1 X114.234 Y84.951 E2.40369 F1350.000
G1 X115.705 Y86.702 E2.43416
G1 X116.488 Y88.851 E2.46463
G1 X116.589 Y90.000 E2.47999
G1 X116.589 Y110.000 E2.74643
G1 X116.192 Y112.252 E2.77690
G1 X115.049 Y114.234 E2.80737
G1 X113.298 Y115.705 E2.83784
G1 X111.149 Y116.488 E2.86831
G1 X110.000 Y116.589 E2.88368
G1 X90.000 Y116.589 E3.15012
G1 X87.748 Y116.192 E3.18059
G1 X85.766 Y115.049 E3.21106
G1 X84.295 Y113.298 E3.24153
G1 X83.512 Y111.149 E3.27200
G1 X83.411 Y110.000 E3.28736
G1 X83.411 Y90.000 E3.55380
G1 X83.808 Y87.748 E3.58427
G1 X84.913 Y85.831 E3.61374
G1 X85.128 Y85.870 F5400.000
G1 X86.890 Y84.415 E3.64419 F1350.000
G1 X90.000 Y83.607 E3.68700
G1 X110.000 Y83.607 E3.95344
G1 X112.217 Y84.004 E3.98345
G1 X114.159 Y85.146 E4.01346 F1350.000
G1 X115.585 Y86.890 E4.04347
G1 X116.393 Y90.000 E4.08628
G1 X116.393 Y110.000 E4.35272
G1 X115.996 Y112.217 E4.38273
G1 X114.854 Y114.159 E4.41274
G1 X113.110 Y115.585 E4.44275
G1 X110.000 Y116.393 E4.48556
G1 X90.000 Y116.393 E4.75200
G1 X87.783 Y115.996 E4.78201
G1 X85.841 Y114.854 E4.81202
G1 X84.415 Y113.110 E4.84203
G1 X83.607 Y110.000 E4.88484
G1 X83.607 Y90.000 E5.15128
G1 X84.004 Y87.783 E5.18129
G1 X85.090 Y85.935 E5.20984
G1 X85.304 Y85.976 F5400.000
G1 X85.340 Y85.916 E5.21077 F1350.000
G1 X87.076 Y84.537 E5.24031
G1 X90.000 Y83.804 E5.28047
G1 X110.000 Y83.804 E5.54691
G1 X112.182 Y84.200 E5.57645
G1 X114.084 Y85.340 E5.60599 F1350.000
G1 X115.463 Y87.076 E5.63553
G1 X116.196 Y90.000 E5.67569
G1 X116.196 Y110.000 E5.94213
G1 X115.800 Y112.182 E5.97167
G1 X114.660 Y114.084 E6.00121
G1 X112.924 Y115.463 E6.03075
G1 X110.000 Y116.196 E6.07091
G1 X90.000 Y116.196 E6.33735
G1 X87.818 Y115.800 E6.36689
G1 X85.916 Y114.660 E6.39643
G1 X84.537 Y112.924 E6.42597
G1 X83.804 Y110.000 E6.46613
G1 X83.804 Y90.000 E6.73257
G1 X84.200 Y87.818 E6.76211
G1 X85.266 Y86.040 E6.78972
G1 E4.78972 F2400.00000
G92 E0
G1 X109.679 Y109.679 F5400.000
G1 E2.00000 F2400.00000
G1 X90.321 Y109.679 E2.25788 F1350.000
G1 X90.321 Y90.321 E2.51576
G1 X109.679 Y90.321 E2.77364
G1 X109.679 Y109.604 E3.03052
G1 X109.875 Y109.875 F5400.000
G1 X90.125 Y109.875 E3.29363 F1012.500
G1 X90.125 Y90.125 E3.55674
G1 X109.875 Y90.125 E3.81985
G1 X109.875 Y109.800 E4.08196
G1 X109.442 Y109.625 F5400.000
G1 X109.573 Y90.550 F5400.000
G1 X109.450 Y90.427 E4.08429 F1800.000
G1 X109.172 Y90.427 E4.08799
G1 X109.573 Y90.828 E4.09554
G1 X109.573 Y91.105 E4.09924
G1 X108.895 Y90.427 E4.11203
G1 X108.617 Y90.427 E4.11573
G1 X109.573 Y91.383 E4.13376
G1 X109.573 Y91.661 E4.13746
G1 X108.339 Y90.427 E4.16071
G1 X108.062 Y90.427 E4.16441
G1 X109.573 Y91.938 E4.19290
G1 X109.573 Y92.216 E4.19660
G1 X107.784 Y90.427 E4.23032
G1 X107.506 Y90.427 E4.23402
G1 X109.573 Y92.494 E4.27297
G1 X109.573 Y92.772 E4.27667
G1 X107.228 Y90.427 E4.32086
G1 X106.951 Y90.427 E4.32456
G1 X109.573 Y93.049 E4.37398
G1 X109.573 Y93.327 E4.37768
G1 X106.673 Y90.427 E4.43234
G1 X106.395 Y90.427 E4.43604
G1 X109.573 Y93.605 E4.49592
G1 X109.573 Y93.882 E4.49962
G1 X106.118 Y90.427 E4.56474
G1 X105.840 Y90.427 E4.56844
G1 X109.573 Y94.160 E4.63879
G1 X109.573 Y94.438 E4.64249
G1 X105.562 Y90.427 E4.71808
G1 X105.284 Y90.427 E4.72178
G1 X109.573 Y94.716 E4.80259
G1 X109.573 Y94.993 E4.80629
G1 X105.007 Y90.427 E4.89235
G1 X104.729 Y90.427 E4.89605
G1 X109.573 Y95.271 E4.98733
G1 X109.573 Y95.549 E4.99103
G1 X104.451 Y90.427 E5.08755
G1 X104.173 Y90.427 E5.09125
G1 X109.573 Y95.826 E5.19300
G1 X109.573 Y96.104 E5.19670
G1 X103.896 Y90.427 E5.30368
G1 X103.618 Y90.427 E5.30738
G1 X109.573 Y96.382 E5.41959
G1 X109.573 Y96.660 E5.42329
G1 X103.340 Y90.427 E5.54074
G1 X103.063 Y90.427 E5.54444
G1 X109.573 Y96.937 E5.66712
G1 X109.573 Y97.215 E5.67082
G1 X102.785 Y90.427 E5.79874
G1 X102.507 Y90.427 E5.80244
G1 X109.573 Y97.493 E5.93558
G1 X109.573 Y97.771 E5.93928
G1 X102.229 Y90.427 E6.07766
G1 X101.952 Y90.427 E6.08136
G1 X109.573 Y98.048 E6.22498
G1 X109.573 Y98.326 E6.22868
G1 X101.674 Y90.427 E6.37752
G1 X101.396 Y90.427 E6.38122
G1 X109.573 Y98.604 E6.53530
G1 X109.573 Y98.881 E6.53900
G1 X101.119 Y90.427 E6.69831
G1 X100.841 Y90.427 E6.70201
G1 X109.573 Y99.159 E6.86656
G1 X109.573 Y99.437 E6.87026
G1 X100.563 Y90.427 E7.04004
G1 X100.285 Y90.427 E7.04374
G1 X109.573 Y99.715 E7.21875
G1 X109.573 Y99.992 E7.22245
G1 X100.008 Y90.427 E7.40269
G1 X99.730 Y90.427 E7.40639
G1 X109.573 Y100.270 E7.59187
G1 X109.573 Y100.548 E7.59557
G1 X99.452 Y90.427 E7.78628
G1 X99.175 Y90.427 E7.78998
G1 X109.573 Y100.825 E7.98592
G1 X109.573 Y101.103 E7.98962
G1 X98.897 Y90.427 E8.19080
G1 X98.619 Y90.427 E8.19450
G1 X109.573 Y101.381 E8.40090
G1 X109.573 Y101.659 E8.40460
G1 X98.341 Y90.427 E8.61625
G1 X98.064 Y90.427 E8.61995
G1 X109.573 Y101.936 E8.83682
G1 X109.573 Y102.214 E8.84052
G1 X97.786 Y90.427 E9.06263
G1 X97.508 Y90.427 E9.06633
G1 X109.573 Y102.492 E9.29367
G1 X109.573 Y102.769 E9.29737
G1 X97.231 Y90.427 E9.52994
G1 X96.953 Y90.427 E9.53364
G1 X109.573 Y103.047 E9.77145
G1 X109.573 Y103.325 E9.77515
G1 X96.675 Y90.427 E10.01819
G1 X96.397 Y90.427 E10.02189
G1 X109.573 Y103.603 E10.27016
G1 X109.573 Y103.880 E10.27386
G1 X96.120 Y90.427 E10.52736
G1 X95.842 Y90.427 E10.53106
G1 X109.573 Y104.158 E10.78980
G1 X109.573 Y104.436 E10.79350
G1 X95.564 Y90.427 E11.05747
G1 X95.287 Y90.427 E11.06117
G1 X109.573 Y104.713 E11.33038
G1 X109.573 Y104.991 E11.33408
G1 X95.009 Y90.427 E11.60851
G1 X94.731 Y90.427 E11.61221
G1 X109.573 Y105.269 E11.89188
G1 X109.573 Y105.547 E11.89558
G1 X94.453 Y90.427 E12.18048
G1 X94.176 Y90.427 E12.18418
G1 X109.573 Y105.824 E12.47432
G1 X109.573 Y106.102 E12.47802
G1 X93.898 Y90.427 E12.77339
G1 X93.620 Y90.427 E12.77709
G1 X109.573 Y106.380 E13.07769
G1 X109.573 Y106.657 E13.08139
G1 X93.343 Y90.427 E13.38722
G1 X93.065 Y90.427 E13.39092
G1 X109.573 Y106.935 E13.70199
G1 X109.573 Y107.213 E13.70569
G1 X92.787 Y90.427 E14.02199
G1 X92.509 Y90.427 E14.02569
G1 X109.573 Y107.491 E14.34722
G1 X109.573 Y107.768 E14.35092
G1 X92.232 Y90.427 E14.67769
G1 X91.954 Y90.427 E14.68139
G1 X109.573 Y108.046 E15.01339
G1 X109.573 Y108.324 E15.01709
G1 X91.676 Y90.427 E15.35432
G1 X91.399 Y90.427 E15.35802
G1 X109.573 Y108.601 E15.70049
G1 X109.573 Y108.879 E15.70419
G1 X91.121 Y90.427 E16.05188
G1 X90.843 Y90.427 E16.05558
G1 X109.573 Y109.157 E16.40852
G1 X109.573 Y109.435 E16.41222
G1 X90.565 Y90.427 E16.77038
G1 X90.427 Y90.565 E16.77300
G1 X109.435 Y109.573 E17.13116
G1 X109.157 Y109.573 E17.13486
G1 X90.427 Y90.843 E17.48779
G1 X90.427 Y91.121 E17.49149
G1 X108.879 Y109.573 E17.83918
G1 X108.601 Y109.573 E17.84288
G1 X90.427 Y91.399 E18.18534
G1 X90.427 Y91.676 E18.18905
G1 X108.324 Y109.573 E18.52627
G1 X108.046 Y109.573 E18.52998
G1 X90.427 Y91.954 E18.86197
G1 X90.427 Y92.232 E18.86567
G1 X107.768 Y109.573 E19.19244
G1 X107.490 Y109.573 E19.19614
G1 X90.427 Y92.510 E19.51767
G1 X90.427 Y92.787 E19.52137
G1 X107.213 Y109.573 E19.83767
G1 X106.935 Y109.573 E19.84137
G1 X90.427 Y93.065 E20.15243
G1 X90.427 Y93.343 E20.15613
G1 X106.657 Y109.573 E20.46196
G1 X106.380 Y109.573 E20.46566
G1 X90.427 Y93.620 E20.76626
G1 X90.427 Y93.898 E20.76996
G1 X106.102 Y109.573 E21.06533
G1 X105.824 Y109.573 E21.06903
G1 X90.427 Y94.176 E21.35916
G1 X90.427 Y94.454 E21.36286
G1 X105.546 Y109.573 E21.64776
G1 X105.269 Y109.573 E21.65146
G1 X90.427 Y94.731 E21.93113
G1 X90.427 Y95.009 E21.93483
G1 X104.991 Y109.573 E22.20927
G1 X104.713 Y109.573 E22.21297
G1 X90.427 Y95.287 E22.48217
G1 X90.427 Y95.564 E22.48587
G1 X104.436 Y109.573 E22.74984
G1 X104.158 Y109.573 E22.75354
G1 X90.427 Y95.842 E23.01227
G1 X90.427 Y96.120 E23.01597
G1 X103.880 Y109.573 E23.26947
G1 X103.602 Y109.573 E23.27317
G1 X90.427 Y96.398 E23.52144
G1 X90.427 Y96.675 E23.52514
G1 X103.325 Y109.573 E23.76818
G1 X103.047 Y109.573 E23.77188
G1 X90.427 Y96.953 E24.00969
G1 X90.427 Y97.231 E24.01339
G1 X102.769 Y109.573 E24.24596
G1 X102.492 Y109.573 E24.24966
G1 X90.427 Y97.508 E24.47699
G1 X90.427 Y97.786 E24.48070
G1 X102.214 Y109.573 E24.70280
G1 X101.936 Y109.573 E24.70650
G1 X90.427 Y98.064 E24.92337
G1 X90.427 Y98.342 E24.92707
G1 X101.658 Y109.573 E25.13871
G1 X101.381 Y109.573 E25.14241
G1 X90.427 Y98.619 E25.34882
G1 X90.427 Y98.897 E25.35252
G1 X101.103 Y109.573 E25.55369
G1 X100.825 Y109.573 E25.55739
G1 X90.427 Y99.175 E25.75333
G1 X90.427 Y99.452 E25.75703
G1 X100.548 Y109.573 E25.94774
G1 X100.270 Y109.573 E25.95144
G1 X90.427 Y99.730 E26.13691
G1 X90.427 Y100.008 E26.14061
G1 X99.992 Y109.573 E26.32086
G1 X99.714 Y109.573 E26.32456
G1 X90.427 Y100.286 E26.49956
G1 X90.427 Y100.563 E26.50327
G1 X99.437 Y109.573 E26.67304
G1 X99.159 Y109.573 E26.67674
G1 X90.427 Y100.841 E26.84128
G1 X90.427 Y101.119 E26.84498
G1 X98.881 Y109.573 E27.00429
G1 X98.604 Y109.573 E27.00799
G1 X90.427 Y101.396 E27.16207
G1 X90.427 Y101.674 E27.16577
G1 X98.326 Y109.573 E27.31461
G1 X98.048 Y109.573 E27.31831
G1 X90.427 Y101.952 E27.46193
G1 X90.427 Y102.230 E27.46563
G1 X97.770 Y109.573 E27.60400
G1 X97.493 Y109.573 E27.60770
G1 X90.427 Y102.507 E27.74085
G1 X90.427 Y102.785 E27.74455
G1 X97.215 Y109.573 E27.87246
G1 X96.937 Y109.573 E27.87616
G1 X90.427 Y103.063 E27.99884
G1 X90.427 Y103.340 E28.00254
G1 X96.660 Y109.573 E28.11999
G1 X96.382 Y109.573 E28.12369
G1 X90.427 Y103.618 E28.23590
G1 X90.427 Y103.896 E28.23960
G1 X96.104 Y109.573 E28.34658
G1 X95.826 Y109.573 E28.35028
G1 X90.427 Y104.174 E28.45203
G1 X90.427 Y104.451 E28.45573
G1 X95.549 Y109.573 E28.55224
G1 X95.271 Y109.573 E28.55594
G1 X90.427 Y104.729 E28.64722
G1 X90.427 Y105.007 E28.65092
G1 X94.993 Y109.573 E28.73697
G1 X94.716 Y109.573 E28.74067
G1 X90.427 Y105.284 E28.82149
G1 X90.427 Y105.562 E28.82519
G1 X94.438 Y109.573 E28.90077
G1 X94.160 Y109.573 E28.90447
G1 X90.427 Y105.840 E28.97482
G1 X90.427 Y106.118 E28.97852
G1 X93.882 Y109.573 E29.04364
G1 X93.605 Y109.573 E29.04734
G1 X90.427 Y106.395 E29.10722
G1 X90.427 Y106.673 E29.11092
G1 X93.327 Y109.573 E29.16557
G1 X93.049 Y109.573 E29.16927
G1 X90.427 Y106.951 E29.21869
G1 X90.427 Y107.228 E29.22239
G1 X92.772 Y109.573 E29.26658
G1 X92.494 Y109.573 E29.27028
G1 X90.427 Y107.506 E29.30923
G1 X90.427 Y107.784 E29.31293
G1 X92.216 Y109.573 E29.34665
G1 X91.938 Y109.573 E29.35035
G1 X90.427 Y108.062 E29.37883
G1 X90.427 Y108.339 E29.38254
G1 X91.661 Y109.573 E29.40579
G1 X91.383 Y109.573 E29.40949
G1 X90.427 Y108.617 E29.42751
G1 X90.427 Y108.895 E29.43121
G1 X91.105 Y109.573 E29.44400
G1 X90.827 Y109.573 E29.44770
G1 X90.427 Y109.173 E29.45525
G1 X90.427 Y109.450 E29.45895
G1 X90.550 Y109.573 E29.46127
G1 Z0.500 F5400.000
G1 X109.134 Y109.134 F5400.000
G1 X90.866 Y109.134 E30.43476 F1935.604
G1 X90.866 Y90.866 E31.40824
G1 X109.134 Y90.866 E32.38172
G1 X109.134 Y109.059 E33.35121
G1 X109.750 Y109.750 F5400.000
G1 X90.250 Y109.750 E33.94176 F1451.703
G1 X90.250 Y90.250 E34.53230
G1 X109.750 Y90.250 E35.12284
G1 X109.750 Y109.675 E35.71111
G1 X109.317 Y109.500 F5400.000
G1 X108.280 Y108.653 F5400.000
G1 X108.653 Y108.280 E35.73970 F2580.805
G1 X108.653 Y107.151 E35.80084
G1 X107.151 Y108.653 E35.91589
G1 X106.022 Y108.653 E35.97703
G1 X108.653 Y106.022 E36.17854
G1 X108.653 Y104.893 E36.23968
G1 X104.893 Y108.653 E36.52766
G1 X103.764 Y108.653 E36.58879
G1 X108.653 Y103.764 E36.96323
G1 X108.653 Y102.636 E37.02437
G1 X102.636 Y108.653 E37.48528
G1 X101.507 Y108.653 E37.54642
G1 X108.653 Y101.507 E38.09378
G1 X108.653 Y100.378 E38.15492
G1 X100.378 Y108.653 E38.78875
G1 X99.249 Y108.653 E38.84989
G1 X108.653 Y99.249 E39.57019
G1 X108.653 Y98.120 E39.63132
G1 X98.120 Y108.653 E40.43808
G1 X96.991 Y108.653 E40.49922
G1 X108.653 Y96.991 E41.39244
G1 X108.653 Y95.862 E41.45358
G1 X95.862 Y108.653 E42.43327
G1 X94.733 Y108.653 E42.49441
G1 X108.653 Y94.733 E43.56055
G1 X108.653 Y93.605 E43.62169
G1 X93.605 Y108.653 E44.77431
G1 X92.476 Y108.653 E44.83544
G1 X108.653 Y92.476 E46.07452
G1 X108.633 Y91.367 E46.13459
G1 X91.367 Y108.633 E47.45706
G1 X91.347 Y107.524 E47.51713
G1 X107.524 Y91.347 E48.75620
G1 X106.395 Y91.347 E48.81734
G1 X91.347 Y106.395 E49.96995
G1 X91.347 Y105.267 E50.03109
G1 X105.267 Y91.347 E51.09724
G1 X104.138 Y91.347 E51.15838
G1 X91.347 Y104.138 E52.13806
G1 X91.347 Y103.009 E52.19920
G1 X103.009 Y91.347 E53.09242
G1 X101.880 Y91.347 E53.15356
G1 X91.347 Y101.880 E53.96032
G1 X91.347 Y100.751 E54.02146
G1 X100.751 Y91.347 E54.74175
G1 X99.622 Y91.347 E54.80289
G1 X91.347 Y99.622 E55.43672
G1 X91.347 Y98.493 E55.49786
G1 X98.493 Y91.347 E56.04522
G1 X97.364 Y91.347 E56.10636
G1 X91.347 Y97.364 E56.56726
G1 X91.347 Y96.236 E56.62840
G1 X96.236 Y91.347 E57.00284
G1 X95.107 Y91.347 E57.06398
G1 X91.347 Y95.107 E57.35196
G1 X91.347 Y93.978 E57.41310
G1 X93.978 Y91.347 E57.61461
G1 X92.849 Y91.347 E57.67575
G1 X91.347 Y92.849 E57.79080
G1 X91.347 Y91.720 E57.85193
G1 X91.720 Y91.347 E57.88052
G1 Z0.750 F5400.000
G1 X109.134 Y109.134 F5400.000
G1 X90.866 Y109.134 E58.85400 F1935.604
G1 X90.866 Y90.866 E59.82749
G1 X109.134 Y90.866 E60.80097
G1 X109.134 Y109.059 E61.77046
G1 X109.750 Y109.750 F5400.000
G1 X90.250 Y109.750 E62.36100 F1451.703
G1 X90.250 Y90.250 E62.95155
G1 X109.750 Y90.250 E63.54209
G1 X109.750 Y109.675 E64.13036
G1 X109.317 Y109.500 F5400.000
G1 X108.653 Y91.720 F5400.000
G1 X108.280 Y91.347 E64.15895 F2580.805
G1 X107.151 Y91.347 E64.22009
G1 X108.653 Y92.849 E64.33514
G1 X108.653 Y93.978 E64.39627
G1 X106.022 Y91.347 E64.59779
G1 X104.893 Y91.347 E64.65893
G1 X108.653 Y95.107 E64.94690
G1 X108.653 Y96.236 E65.00804
G1 X103.764 Y91.347 E65.38248
G1 X102.636 Y91.347 E65.44362
G1 X108.653 Y97.364 E65.90452
G1 X108.653 Y98.493 E65.96566
G1 X101.507 Y91.347 E66.51303
G1 X100.378 Y91.347 E66.57417
G1 X108.653 Y99.622 E67.20800
G1 X108.653 Y100.751 E67.26914
G1 X99.249 Y91.347 E67.98943
G1 X98.120 Y91.347 E68.05057
G1 X108.653 Y101.880 E68.85733
G1 X108.653 Y103.009 E68.91847
G1 X96.991 Y91.347 E69.81169
G1 X95.862 Y91.347 E69.87283
G1 X108.653 Y104.138 E70.85251
G1 X108.653 Y105.267 E70.91365
G1 X94.733 Y91.347 E71.97980
G1 X93.605 Y91.347 E72.04094
G1 X108.653 Y106.395 E73.19355
G1 X108.653 Y107.524 E73.25469
G1 X92.476 Y91.347 E74.49377
G1 X91.367 Y91.367 E74.55383
G1 X108.633 Y108.633 E75.87631
G1 X107.524 Y108.653 E75.93637
G1 X91.347 Y92.476 E77.17545
G1 X91.347 Y93.605 E77.23659
G1 X106.395 Y108.653 E78.38920
G1 X105.267 Y108.653 E78.45034
G1 X91.347 Y94.733 E79.51648
G1 X91.347 Y95.862 E79.57762
G1 X104.138 Y108.653 E80.55731
G1 X103.009 Y108.653 E80.61845
G1 X91.347 Y96.991 E81.51167
G1 X91.347 Y98.120 E81.57281
G1 X101.880 Y108.653 E82.37956
G1 X100.751 Y108.653 E82.44070
G1 X91.347 Y99.249 E83.16100
G1 X91.347 Y100.378 E83.22214
G1 X99.622 Y108.653 E83.85597
G1 X98.493 Y108.653 E83.91710
G1 X91.347 Y101.507 E84.46447
G1 X91.347 Y102.636 E84.52561
G1 X97.364 Y108.653 E84.98651
G1 X96.236 Y108.653 E85.04765
G1 X91.347 Y103.764 E85.42209
G1 X91.347 Y104.893 E85.48323
G1 X95.107 Y108.653 E85.77121
G1 X93.978 Y108.653 E85.83234
G1 X91.347 Y106.022 E86.03386
G1 X91.347 Y107.151 E86.09500
G1 X92.849 Y108.653 E86.21004
G1 X91.720 Y108.653 E86.27118
G1 X91.347 Y108.280 E86.29977
M106 S255
G1 Z1.000 F5400.000
G1 X109.134 Y109.134 F5400.000
G1 X90.866 Y109.134 E87.27325 F1017.915
G1 X90.866 Y90.866 E88.24674
G1 X109.134 Y90.866 E89.22022
G1 X109.134 Y109.059 E90.18971
G1 X109.750 Y109.750 F5400.000
G1 X90.250 Y109.750 E90.78025 F763.436
