M280 P0 S90
G4 S100
M280 P1 S90
G4 S100
; generated by Slic3r 1.2.9 on 2016-04-08 at 14:20:11

; external perimeters extrusion width = 0.50mm
; perimeters extrusion width = 0.84mm
; infill extrusion width = 0.84mm
; solid infill extrusion width = 0.84mm
; top infill extrusion width = 0.84mm

M107
M190 S56 ; set bed temperature
M104 S230 ; set temperature
G1 X100 Y182.248 Z-20 F5000

M109 S230 ; wait for temperature to be reached
G21 ; set units to millimeters
G90 ; use absolute coordinates
M82 ; use absolute distances for extrusion
G92 E0
G1 X100 Y177.498 Z-20 F5400.000
G1 X109.804 Y177.498 Z-29.804 F5400.000
G1 X90.196 Y177.498 Z-29.804 E0.26121
G1 X90.196 Y177.498 Z-10.196 E0.52242
G1 X109.804 Y177.498 Z-10.196 E0.78363
G1 X109.804 Y177.498 Z-29.729 E1.04384
G1 X110 Y177.498 Z-30 F5400.000
G1 X90 Y177.498 Z-30 E1.31028
G1 X90 Y177.498 Z-10 E1.57672
G1 X110 Y177.498 Z-10 E1.84317
G1 X110 Y177.498 Z-29.925 E2.10861
G1 X109.567 Y177.498 Z-29.75 F5400.000
G1 X109.698 Y177.498 Z-10.425 F5400.000
G1 X109.575 Y177.498 Z-10.302 E2.11095
G1 X109.296 Y177.498 Z-10.302 E2.11469
G1 X109.698 Y177.498 Z-10.704 E2.12232
G1 X109.698 Y177.498 Z-10.984 E2.12606
G1 X109.016 Y177.498 Z-10.302 E2.13899
G1 X108.737 Y177.498 Z-10.302 E2.14273
G1 X109.698 Y177.498 Z-11.263 E2.16095
G1 X109.698 Y177.498 Z-11.542 E2.16469
G1 X108.458 Y177.498 Z-10.302 E2.18820
G1 X108.178 Y177.498 Z-10.302 E2.19195
G1 X109.698 Y177.498 Z-11.822 E2.22075
G1 X109.698 Y177.498 Z-12.101 E2.22450
G1 X107.899 Y177.498 Z-10.302 E2.25860
G1 X107.62 Y177.498 Z-10.302 E2.26234
G1 X109.698 Y177.498 Z-12.38 E2.30173
G1 X109.698 Y177.498 Z-12.659 E2.30548
G1 X107.34 Y177.498 Z-10.302 E2.35016
G1 X107.061 Y177.498 Z-10.302 E2.35391
G1 X109.698 Y177.498 Z-12.939 E2.40389
G1 X109.698 Y177.498 Z-13.218 E2.40763
G1 X106.782 Y177.498 Z-10.302 E2.46291
G1 X106.503 Y177.498 Z-10.302 E2.46665
G1 X109.698 Y177.498 Z-13.497 E2.52722
G1 X109.698 Y177.498 Z-13.777 E2.53096
G1 X106.223 Y177.498 Z-10.302 E2.59683
G1 X105.944 Y177.498 Z-10.302 E2.60057
G1 X109.698 Y177.498 Z-14.056 E2.67173
G1 X109.698 Y177.498 Z-14.335 E2.67547
G1 X105.665 Y177.498 Z-10.302 E2.75192
G1 X105.385 Y177.498 Z-10.302 E2.75566
G1 X109.698 Y177.498 Z-14.615 E2.83741
G1 X109.698 Y177.498 Z-14.894 E2.84115
G1 X105.106 Y177.498 Z-10.302 E2.92819
G1 X104.827 Y177.498 Z-10.302 E2.93193
G1 X109.698 Y177.498 Z-15.173 E3.02426
G1 X109.698 Y177.498 Z-15.453 E3.02801
G1 X104.547 Y177.498 Z-10.302 E3.12563
G1 X104.268 Y177.498 Z-10.302 E3.12938
G1 X109.698 Y177.498 Z-15.732 E3.23230
G1 X109.698 Y177.498 Z-16.011 E3.23604
G1 X103.989 Y177.498 Z-10.302 E3.34425
G1 X103.709 Y177.498 Z-10.302 E3.34800
G1 X109.698 Y177.498 Z-16.291 E3.46150
G1 X109.698 Y177.498 Z-16.57 E3.46525
G1 X103.43 Y177.498 Z-10.302 E3.58405
G1 X103.151 Y177.498 Z-10.302 E3.58779
G1 X109.698 Y177.498 Z-16.849 E3.71189
G1 X109.698 Y177.498 Z-17.129 E3.71563
G1 X102.871 Y177.498 Z-10.302 E3.84502
G1 X102.592 Y177.498 Z-10.302 E3.84876
G1 X109.698 Y177.498 Z-17.408 E3.98344
G1 X109.698 Y177.498 Z-17.687 E3.98719
G1 X102.313 Y177.498 Z-10.302 E4.12716
G1 X102.033 Y177.498 Z-10.302 E4.13091
G1 X109.698 Y177.498 Z-17.967 E4.27618
G1 X109.698 Y177.498 Z-18.246 E4.27992
G1 X101.754 Y177.498 Z-10.302 E4.43048
G1 X101.475 Y177.498 Z-10.302 E4.43423
G1 X109.698 Y177.498 Z-18.525 E4.59009
G1 X109.698 Y177.498 Z-18.805 E4.59383
G1 X101.195 Y177.498 Z-10.302 E4.75498
G1 X100.916 Y177.498 Z-10.302 E4.75872
G1 X109.698 Y177.498 Z-19.084 E4.92517
G1 X109.698 Y177.498 Z-19.363 E4.92891
G1 X100.637 Y177.498 Z-10.302 E5.10065
G1 X100.357 Y177.498 Z-10.302 E5.10439
G1 X109.698 Y177.498 Z-19.643 E5.28143
G1 X109.698 Y177.498 Z-19.922 E5.28517
G1 X100.078 Y177.498 Z-10.302 E5.46750
G1 X99.799 Y177.498 Z-10.302 E5.47124
G1 X109.698 Y177.498 Z-20.201 E5.65886
G1 X109.698 Y177.498 Z-20.481 E5.66261
G1 X99.519 Y177.498 Z-10.302 E5.85552
G1 X99.24 Y177.498 Z-10.302 E5.85926
G1 X109.698 Y177.498 Z-20.76 E6.05747
G1 X109.698 Y177.498 Z-21.039 E6.06122
G1 X98.961 Y177.498 Z-10.302 E6.26472
G1 X98.681 Y177.498 Z-10.302 E6.26846
G1 X109.698 Y177.498 Z-21.319 E6.47726
G1 X109.698 Y177.498 Z-21.598 E6.48100
G1 X98.402 Y177.498 Z-10.302 E6.69509
G1 X98.123 Y177.498 Z-10.302 E6.69883
G1 X109.698 Y177.498 Z-21.877 E6.91822
G1 X109.698 Y177.498 Z-22.157 E6.92196
G1 X97.843 Y177.498 Z-10.302 E7.14664
G1 X97.564 Y177.498 Z-10.302 E7.15038
G1 X109.698 Y177.498 Z-22.436 E7.38035
G1 X109.698 Y177.498 Z-22.715 E7.38410
G1 X97.285 Y177.498 Z-10.302 E7.61936
G1 X97.005 Y177.498 Z-10.302 E7.62310
G1 X109.698 Y177.498 Z-22.995 E7.86366
G1 X109.698 Y177.498 Z-23.274 E7.86741
G1 X96.726 Y177.498 Z-10.302 E8.11326
G1 X96.447 Y177.498 Z-10.302 E8.11700
G1 X109.698 Y177.498 Z-23.553 E8.36815
G1 X109.698 Y177.498 Z-23.833 E8.37189
G1 X96.167 Y177.498 Z-10.302 E8.62833
G1 X95.888 Y177.498 Z-10.302 E8.63208
G1 X109.698 Y177.498 Z-24.112 E8.89381
G1 X109.698 Y177.498 Z-24.391 E8.89755
G1 X95.609 Y177.498 Z-10.302 E9.16458
G1 X95.329 Y177.498 Z-10.302 E9.16833
G1 X109.698 Y177.498 Z-24.671 E9.44065
G1 X109.698 Y177.498 Z-24.95 E9.44439
G1 X95.05 Y177.498 Z-10.302 E9.72201
G1 X94.771 Y177.498 Z-10.302 E9.72575
G1 X109.698 Y177.498 Z-25.229 E10.00866
G1 X109.698 Y177.498 Z-25.509 E10.01240
G1 X94.491 Y177.498 Z-10.302 E10.30061
G1 X94.212 Y177.498 Z-10.302 E10.30435
G1 X109.698 Y177.498 Z-25.788 E10.59785
G1 X109.698 Y177.498 Z-26.067 E10.60159
G1 X93.933 Y177.498 Z-10.302 E10.90038
G1 X93.653 Y177.498 Z-10.302 E10.90413
G1 X109.698 Y177.498 Z-26.347 E11.20821
G1 X109.698 Y177.498 Z-26.626 E11.21195
G1 X93.374 Y177.498 Z-10.302 E11.52133
G1 X93.095 Y177.498 Z-10.302 E11.52508
G1 X109.698 Y177.498 Z-26.905 E11.83975
G1 X109.698 Y177.498 Z-27.185 E11.84349
G1 X92.815 Y177.498 Z-10.302 E12.16346
G1 X92.536 Y177.498 Z-10.302 E12.16720
G1 X109.698 Y177.498 Z-27.464 E12.49246
G1 X109.698 Y177.498 Z-27.743 E12.49621
G1 X92.257 Y177.498 Z-10.302 E12.82676
G1 X91.977 Y177.498 Z-10.302 E12.83050
G1 X109.698 Y177.498 Z-28.023 E13.16635
G1 X109.698 Y177.498 Z-28.302 E13.17009
G1 X91.698 Y177.498 Z-10.302 E13.51124
G1 X91.419 Y177.498 Z-10.302 E13.51498
G1 X109.698 Y177.498 Z-28.581 E13.86141
G1 X109.698 Y177.498 Z-28.86 E13.86516
G1 X91.14 Y177.498 Z-10.302 E14.21689
G1 X90.86 Y177.498 Z-10.302 E14.22063
G1 X109.698 Y177.498 Z-29.14 E14.57765
G1 X109.698 Y177.498 Z-29.419 E14.58140
G1 X90.581 Y177.498 Z-10.302 E14.94371
G1 X90.322 Y177.498 Z-10.322 E14.94720
G1 X109.678 Y177.498 Z-29.678 E15.31405
G1 X109.419 Y177.498 Z-29.698 E15.31754
G1 X90.302 Y177.498 Z-10.581 E15.67985
G1 X90.302 Y177.498 Z-10.86 E15.68360
G1 X109.14 Y177.498 Z-29.698 E16.04062
G1 X108.86 Y177.498 Z-29.698 E16.04436
G1 X90.302 Y177.498 Z-11.14 E16.39609
G1 X90.302 Y177.498 Z-11.419 E16.39983
G1 X108.581 Y177.498 Z-29.698 E16.74626
G1 X108.302 Y177.498 Z-29.698 E16.75001
G1 X90.302 Y177.498 Z-11.698 E17.09115
G1 X90.302 Y177.498 Z-11.978 E17.09489
G1 X108.022 Y177.498 Z-29.698 E17.43074
G1 X107.743 Y177.498 Z-29.698 E17.43448
G1 X90.302 Y177.498 Z-12.257 E17.76503
G1 X90.302 Y177.498 Z-12.536 E17.76878
G1 X107.464 Y177.498 Z-29.698 E18.09403
G1 X107.184 Y177.498 Z-29.698 E18.09778
G1 X90.302 Y177.498 Z-12.816 E18.41774
G1 X90.302 Y177.498 Z-13.095 E18.42149
G1 X106.905 Y177.498 Z-29.698 E18.73616
G1 X106.626 Y177.498 Z-29.698 E18.73990
G1 X90.302 Y177.498 Z-13.374 E19.04928
G1 X90.302 Y177.498 Z-13.654 E19.05302
G1 X106.346 Y177.498 Z-29.698 E19.35710
G1 X106.067 Y177.498 Z-29.698 E19.36085
G1 X90.302 Y177.498 Z-13.933 E19.65963
G1 X90.302 Y177.498 Z-14.212 E19.66338
G1 X105.788 Y177.498 Z-29.698 E19.95687
G1 X105.508 Y177.498 Z-29.698 E19.96062
G1 X90.302 Y177.498 Z-14.492 E20.24882
G1 X90.302 Y177.498 Z-14.771 E20.25256
G1 X105.229 Y177.498 Z-29.698 E20.53547
G1 X104.95 Y177.498 Z-29.698 E20.53921
G1 X90.302 Y177.498 Z-15.05 E20.81683
G1 X90.302 Y177.498 Z-15.33 E20.82057
G1 X104.67 Y177.498 Z-29.698 E21.09289
G1 X104.391 Y177.498 Z-29.698 E21.09663
G1 X90.302 Y177.498 Z-15.609 E21.36366
G1 X90.302 Y177.498 Z-15.888 E21.36740
G1 X104.112 Y177.498 Z-29.698 E21.62913
G1 X103.832 Y177.498 Z-29.698 E21.63288
G1 X90.302 Y177.498 Z-16.168 E21.88932
G1 X90.302 Y177.498 Z-16.447 E21.89306
G1 X103.553 Y177.498 Z-29.698 E22.14420
G1 X103.274 Y177.498 Z-29.698 E22.14795
G1 X90.302 Y177.498 Z-16.726 E22.39380
G1 X90.302 Y177.498 Z-17.005 E22.39754
G1 X102.995 Y177.498 Z-29.698 E22.63810
G1 X102.715 Y177.498 Z-29.698 E22.64184
G1 X90.302 Y177.498 Z-17.285 E22.87711
G1 X90.302 Y177.498 Z-17.564 E22.88085
G1 X102.436 Y177.498 Z-29.698 E23.11082
G1 X102.157 Y177.498 Z-29.698 E23.11456
G1 X90.302 Y177.498 Z-17.843 E23.33924
G1 X90.302 Y177.498 Z-18.123 E23.34298
G1 X101.877 Y177.498 Z-29.698 E23.56236
G1 X101.598 Y177.498 Z-29.698 E23.56611
G1 X90.302 Y177.498 Z-18.402 E23.78019
G1 X90.302 Y177.498 Z-18.681 E23.78394
G1 X101.319 Y177.498 Z-29.698 E23.99273
G1 X101.039 Y177.498 Z-29.698 E23.99647
G1 X90.302 Y177.498 Z-18.961 E24.19997
G1 X90.302 Y177.498 Z-19.24 E24.20372
G1 X100.76 Y177.498 Z-29.698 E24.40192
G1 X100.481 Y177.498 Z-29.698 E24.40567
G1 X90.302 Y177.498 Z-19.519 E24.59858
G1 X90.302 Y177.498 Z-19.799 E24.60232
G1 X100.201 Y177.498 Z-29.698 E24.78994
G1 X99.922 Y177.498 Z-29.698 E24.79368
G1 X90.302 Y177.498 Z-20.078 E24.97601
G1 X90.302 Y177.498 Z-20.357 E24.97975
G1 X99.643 Y177.498 Z-29.698 E25.15678
G1 X99.363 Y177.498 Z-29.698 E25.16053
G1 X90.302 Y177.498 Z-20.637 E25.33226
G1 X90.302 Y177.498 Z-20.916 E25.33601
G1 X99.084 Y177.498 Z-29.698 E25.50245
G1 X98.805 Y177.498 Z-29.698 E25.50619
G1 X90.302 Y177.498 Z-21.195 E25.66734
G1 X90.302 Y177.498 Z-21.475 E25.67109
G1 X98.525 Y177.498 Z-29.698 E25.82694
G1 X98.246 Y177.498 Z-29.698 E25.83069
G1 X90.302 Y177.498 Z-21.754 E25.98125
G1 X90.302 Y177.498 Z-22.033 E25.98499
G1 X97.967 Y177.498 Z-29.698 E26.13026
G1 X97.687 Y177.498 Z-29.698 E26.13400
G1 X90.302 Y177.498 Z-22.313 E26.27398
G1 X90.302 Y177.498 Z-22.592 E26.27772
G1 X97.408 Y177.498 Z-29.698 E26.41240
G1 X97.129 Y177.498 Z-29.698 E26.41615
G1 X90.302 Y177.498 Z-22.871 E26.54553
G1 X90.302 Y177.498 Z-23.151 E26.54928
G1 X96.849 Y177.498 Z-29.698 E26.67337
G1 X96.57 Y177.498 Z-29.698 E26.67711
G1 X90.302 Y177.498 Z-23.43 E26.79591
G1 X90.302 Y177.498 Z-23.709 E26.79965
G1 X96.291 Y177.498 Z-29.698 E26.91316
G1 X96.011 Y177.498 Z-29.698 E26.91690
G1 X90.302 Y177.498 Z-23.989 E27.02511
G1 X90.302 Y177.498 Z-24.268 E27.02886
G1 X95.732 Y177.498 Z-29.698 E27.13177
G1 X95.453 Y177.498 Z-29.698 E27.13552
G1 X90.302 Y177.498 Z-24.547 E27.23314
G1 X90.302 Y177.498 Z-24.827 E27.23688
G1 X95.173 Y177.498 Z-29.698 E27.32921
G1 X94.894 Y177.498 Z-29.698 E27.33296
G1 X90.302 Y177.498 Z-25.106 E27.41999
G1 X90.302 Y177.498 Z-25.385 E27.42374
G1 X94.615 Y177.498 Z-29.698 E27.50548
G1 X94.335 Y177.498 Z-29.698 E27.50922
G1 X90.302 Y177.498 Z-25.665 E27.58567
G1 X90.302 Y177.498 Z-25.944 E27.58941
G1 X94.056 Y177.498 Z-29.698 E27.66057
G1 X93.777 Y177.498 Z-29.698 E27.66431
G1 X90.302 Y177.498 Z-26.223 E27.73017
G1 X90.302 Y177.498 Z-26.503 E27.73392
G1 X93.497 Y177.498 Z-29.698 E27.79448
G1 X93.218 Y177.498 Z-29.698 E27.79823
G1 X90.302 Y177.498 Z-26.782 E27.85350
G1 X90.302 Y177.498 Z-27.061 E27.85724
G1 X92.939 Y177.498 Z-29.698 E27.90722
G1 X92.659 Y177.498 Z-29.698 E27.91097
G1 X90.302 Y177.498 Z-27.341 E27.95565
G1 X90.302 Y177.498 Z-27.62 E27.95939
G1 X92.38 Y177.498 Z-29.698 E27.99879
G1 X92.101 Y177.498 Z-29.698 E28.00253
G1 X90.302 Y177.498 Z-27.899 E28.03663
G1 X90.302 Y177.498 Z-28.179 E28.04037
G1 X91.821 Y177.498 Z-29.698 E28.06917
G1 X91.542 Y177.498 Z-29.698 E28.07292
G1 X90.302 Y177.498 Z-28.458 E28.09643
G1 X90.302 Y177.498 Z-28.737 E28.10017
G1 X91.263 Y177.498 Z-29.698 E28.11839
G1 X90.983 Y177.498 Z-29.698 E28.12213
G1 X90.302 Y177.498 Z-29.017 E28.13505
G1 X90.302 Y177.498 Z-29.296 E28.13880
G1 X90.704 Y177.498 Z-29.698 E28.14642
G1 X90.425 Y177.498 Z-29.698 E28.15017
G1 X90.302 Y177.498 Z-29.575 E28.15250
G1 X90.302 Y177.748 Z-29.575 F5400.000
G1 X109.509 Y177.748 Z-29.509 F5400.000
G1 X90.491 Y177.748 Z-29.509 E29.16595
G1 X90.491 Y177.748 Z-10.491 E30.17940
G1 X109.509 Y177.748 Z-10.491 E31.19286
G1 X109.509 Y177.748 Z-29.434 E32.20231
G1 X110.125 Y177.748 Z-30.125 F5400.000
G1 X89.875 Y177.748 Z-30.125 E32.81557
G1 X89.875 Y177.748 Z-9.875 E33.42882
G1 X110.125 Y177.748 Z-9.875 E34.04208
G1 X110.125 Y177.748 Z-30.05 E34.65307
G1 X109.692 Y177.748 Z-29.875 F5400.000
G1 X108.655 Y177.748 Z-29.028 F5400.000
G1 X109.028 Y177.748 Z-28.655 E34.68195
G1 X109.028 Y177.748 Z-27.514 E34.74440
G1 X107.514 Y177.748 Z-29.028 E34.86159
G1 X106.373 Y177.748 Z-29.028 E34.92404
G1 X109.028 Y177.748 Z-26.373 E35.12954
G1 X109.028 Y177.748 Z-25.232 E35.19198
G1 X105.232 Y177.748 Z-29.028 E35.48579
G1 X104.092 Y177.748 Z-29.028 E35.54824
G1 X109.028 Y177.748 Z-24.092 E35.93035
G1 X109.028 Y177.748 Z-22.951 E35.99280
G1 X102.951 Y177.748 Z-29.028 E36.46322
G1 X101.81 Y177.748 Z-29.028 E36.52566
G1 X109.028 Y177.748 Z-21.81 E37.08440
G1 X109.028 Y177.748 Z-20.669 E37.14684
G1 X100.669 Y177.748 Z-29.028 E37.79388
G1 X99.528 Y177.748 Z-29.028 E37.85632
G1 X109.028 Y177.748 Z-19.528 E38.59167
G1 X109.028 Y177.748 Z-18.387 E38.65411
G1 X98.387 Y177.748 Z-29.028 E39.47777
G1 X97.246 Y177.748 Z-29.028 E39.54021
G1 X109.028 Y177.748 Z-17.246 E40.45217
G1 X109.028 Y177.748 Z-16.106 E40.51461
G1 X96.106 Y177.748 Z-29.028 E41.51488
G1 X94.965 Y177.748 Z-29.028 E41.57733
G1 X109.028 Y177.748 Z-14.965 E42.66590
G1 X109.028 Y177.748 Z-13.824 E42.72835
G1 X93.824 Y177.748 Z-29.028 E43.90523
G1 X92.683 Y177.748 Z-29.028 E43.96767
G1 X109.028 Y177.748 Z-12.683 E45.23286
G1 X109.028 Y177.748 Z-11.542 E45.29531
G1 X91.542 Y177.748 Z-29.028 E46.64880
G1 X90.972 Y177.748 Z-28.458 E46.69296
G1 X108.458 Y177.748 Z-10.972 E48.04645
G1 X107.317 Y177.748 Z-10.972 E48.10890
G1 X90.972 Y177.748 Z-27.317 E49.37409
G1 X90.972 Y177.748 Z-26.176 E49.43653
G1 X106.176 Y177.748 Z-10.972 E50.61341
G1 X105.035 Y177.748 Z-10.972 E50.67586
G1 X90.972 Y177.748 Z-25.035 E51.76443
G1 X90.972 Y177.748 Z-23.894 E51.82687
G1 X103.894 Y177.748 Z-10.972 E52.82714
G1 X102.754 Y177.748 Z-10.972 E52.88959
G1 X90.972 Y177.748 Z-22.754 E53.80155
G1 X90.972 Y177.748 Z-21.613 E53.86399
G1 X101.613 Y177.748 Z-10.972 E54.68764
G1 X100.472 Y177.748 Z-10.972 E54.75009
G1 X90.972 Y177.748 Z-20.472 E55.48543
G1 X90.972 Y177.748 Z-19.331 E55.54787
G1 X99.331 Y177.748 Z-10.972 E56.19491
G1 X98.19 Y177.748 Z-10.972 E56.25736
G1 X90.972 Y177.748 Z-18.19 E56.81609
G1 X90.972 Y177.748 Z-17.049 E56.87853
G1 X97.049 Y177.748 Z-10.972 E57.34896
G1 X95.908 Y177.748 Z-10.972 E57.41140
G1 X90.972 Y177.748 Z-15.908 E57.79352
G1 X90.972 Y177.748 Z-14.768 E57.85596
G1 X94.768 Y177.748 Z-10.972 E58.14977
G1 X93.627 Y177.748 Z-10.972 E58.21221
G1 X90.972 Y177.748 Z-13.627 E58.41771
G1 X90.972 Y177.748 Z-12.486 E58.48016
G1 X92.486 Y177.748 Z-10.972 E58.59735
G1 X91.345 Y177.748 Z-10.972 E58.65979
G1 X90.972 Y177.748 Z-11.345 E58.68868
G1 X90.972 Y177.998 Z-11.345 F5400.000
G1 X109.759 Y177.998 Z-29.759 F5400.000
G1 X90.241 Y177.998 Z-29.759 E59.72878
G1 X90.241 Y177.998 Z-10.241 E60.76887
G1 X109.759 Y177.998 Z-10.241 E61.80897
G1 X109.759 Y177.998 Z-29.684 E62.84507
G1 X110.375 Y177.998 Z-30.375 F5400.000
G1 X89.625 Y177.998 Z-30.375 E63.47347
G1 X89.625 Y177.998 Z-9.625 E64.10186
G1 X110.375 Y177.998 Z-9.625 E64.73026
G1 X110.375 Y177.998 Z-30.3 E65.35639
G1 X109.942 Y177.998 Z-30.125 F5400.000
G1 X109.028 Y177.998 Z-11.345 F5400.000
G1 X108.655 Y177.998 Z-10.972 E65.38528
G1 X107.514 Y177.998 Z-10.972 E65.44772
G1 X109.028 Y177.998 Z-12.486 E65.56492
G1 X109.028 Y177.998 Z-13.627 E65.62736
G1 X106.373 Y177.998 Z-10.972 E65.83286
G1 X105.232 Y177.998 Z-10.972 E65.89530
G1 X109.028 Y177.998 Z-14.768 E66.18911
G1 X109.028 Y177.998 Z-15.908 E66.25156
G1 X104.092 Y177.998 Z-10.972 E66.63367
G1 X102.951 Y177.998 Z-10.972 E66.69612
G1 X109.028 Y177.998 Z-17.049 E67.16654
G1 X109.028 Y177.998 Z-18.19 E67.22898
G1 X101.81 Y177.998 Z-10.972 E67.78771
G1 X100.669 Y177.998 Z-10.972 E67.85015
G1 X109.028 Y177.998 Z-19.331 E68.49719
G1 X109.028 Y177.998 Z-20.472 E68.55963
G1 X99.528 Y177.998 Z-10.972 E69.29498
