M280 P0 S0
G4 S100
M280 P1 S-45
G4 S100
; generated by Slic3r 1.2.9 on 2016-04-01 at 17:15:35

; external perimeters extrusion width = 0.50mm
; perimeters extrusion width = 0.84mm
; infill extrusion width = 0.84mm
; solid infill extrusion width = 0.84mm
; top infill extrusion width = 0.84mm

M107
M190 S56 ; set bed temperature
M104 S230 ; set temperature
G1 X109.033 Y126.884 Z-26.5685 F5000

M109 S230 ; wait for temperature to be reached
G21 ; set units to millimeters
G90 ; use absolute coordinates
M82 ; use absolute distances for extrusion
G92 E0
G1 X105.674 Y126.884 Z-29.9273 F5400.000
G1 X115.447 Y136.563 Z-39.7002 F5400.000
G1 X95.9013 Y136.563 Z-20.1544 E0.36824 F1350.000
G1 X95.9013 Y117.205 Z-20.1544 E0.62612
G1 X115.447 Y117.205 Z-39.7002 E0.99437
G1 X115.447 Y136.488 Z-39.7002 E1.25125
G1 X115.586 Y136.759 Z-39.8388 F5400.000
G1 X95.7627 Y136.759 Z-20.0158 E1.62472 F1012.500
G1 X95.7627 Y117.009 Z-20.0158 E1.88783
G1 X115.586 Y117.009 Z-39.8388 E2.26131
G1 X115.586 Y136.684 Z-39.8388 E2.52342
G1 X115.28 Y136.509 Z-39.5326 F5400.000
G1 X115.373 Y117.434 Z-39.626 F5400.000
G1 X115.285 Y117.311 Z-39.5383 E2.52575 F1800.000
G1 X115.088 Y117.311 Z-39.341 E2.52949
G1 X115.373 Y117.713 Z-39.626 E2.53711
G1 X115.373 Y117.992 Z-39.626 E2.54085
G1 X114.891 Y117.311 Z-39.1437 E2.55376
G1 X114.693 Y117.311 Z-38.9464 E2.55749
G1 X115.373 Y118.271 Z-39.626 E2.57568
G1 X115.373 Y118.55 Z-39.626 E2.57942
G1 X114.496 Y117.311 Z-38.7492 E2.60290
G1 X114.299 Y117.311 Z-38.5519 E2.60664
G1 X115.373 Y118.829 Z-39.626 E2.63540
G1 X115.373 Y119.109 Z-39.626 E2.63913
G1 X114.102 Y117.311 Z-38.3546 E2.67318
G1 X113.904 Y117.311 Z-38.1573 E2.67692
G1 X115.373 Y119.388 Z-39.626 E2.71625
G1 X115.373 Y119.667 Z-39.626 E2.71999
G1 X113.706 Y117.311 Z-37.9593 E2.76461
G1 X113.509 Y117.311 Z-37.762 E2.76835
G1 X115.373 Y119.946 Z-39.626 E2.81825
G1 X115.373 Y120.225 Z-39.626 E2.82199
G1 X113.312 Y117.311 Z-37.5648 E2.87718
G1 X113.114 Y117.311 Z-37.3675 E2.88091
G1 X115.373 Y120.504 Z-39.626 E2.94139
G1 X115.373 Y120.783 Z-39.626 E2.94512
G1 X112.917 Y117.311 Z-37.1702 E3.01088
G1 X112.72 Y117.311 Z-36.9729 E3.01462
G1 X115.373 Y121.062 Z-39.626 E3.08567
G1 X115.373 Y121.341 Z-39.626 E3.08940
G1 X112.523 Y117.311 Z-36.7756 E3.16574
G1 X112.325 Y117.311 Z-36.5783 E3.16947
G1 X115.373 Y121.62 Z-39.626 E3.25109
G1 X115.373 Y121.9 Z-39.626 E3.25483
G1 X112.128 Y117.311 Z-36.3811 E3.34173
G1 X111.93 Y117.311 Z-36.1831 E3.34547
G1 X115.373 Y122.179 Z-39.626 E3.43765
G1 X115.373 Y122.458 Z-39.626 E3.44139
G1 X111.733 Y117.311 Z-35.9858 E3.53886
G1 X111.535 Y117.311 Z-35.7885 E3.54260
G1 X115.373 Y122.737 Z-39.626 E3.64536
G1 X115.373 Y123.016 Z-39.626 E3.64909
G1 X111.338 Y117.311 Z-35.5912 E3.75714
G1 X111.141 Y117.311 Z-35.3939 E3.76088
G1 X115.373 Y123.295 Z-39.626 E3.87420
G1 X115.373 Y123.574 Z-39.626 E3.87794
G1 X110.944 Y117.311 Z-35.1967 E3.99656
G1 X110.746 Y117.311 Z-34.9994 E4.00029
G1 X115.373 Y123.853 Z-39.626 E4.12419
G1 X115.373 Y124.132 Z-39.626 E4.12793
G1 X110.549 Y117.311 Z-34.8021 E4.25711
G1 X110.352 Y117.311 Z-34.6048 E4.26085
G1 X115.373 Y124.412 Z-39.626 E4.39532
G1 X115.373 Y124.691 Z-39.626 E4.39906
G1 X110.154 Y117.311 Z-34.4075 E4.53881
G1 X109.956 Y117.311 Z-34.2095 E4.54255
G1 X115.373 Y124.97 Z-39.626 E4.68759
G1 X115.373 Y125.249 Z-39.626 E4.69133
G1 X109.759 Y117.311 Z-34.0123 E4.84166
G1 X109.562 Y117.311 Z-33.815 E4.84539
G1 X115.373 Y125.528 Z-39.626 E5.00101
G1 X115.373 Y125.807 Z-39.626 E5.00474
G1 X109.365 Y117.311 Z-33.6177 E5.16564
G1 X109.167 Y117.311 Z-33.4204 E5.16938
G1 X115.373 Y126.086 Z-39.626 E5.33556
G1 X115.373 Y126.365 Z-39.626 E5.33930
G1 X108.97 Y117.311 Z-33.2231 E5.51077
G1 X108.773 Y117.311 Z-33.0258 E5.51450
G1 X115.373 Y126.644 Z-39.626 E5.69126
G1 X115.373 Y126.923 Z-39.626 E5.69499
G1 X108.576 Y117.311 Z-32.8286 E5.87703
G1 X108.378 Y117.311 Z-32.6313 E5.88077
G1 X115.373 Y127.203 Z-39.626 E6.06810
G1 X115.373 Y127.482 Z-39.626 E6.07183
G1 X108.18 Y117.311 Z-32.4333 E6.26444
G1 X107.983 Y117.311 Z-32.236 E6.26818
G1 X115.373 Y127.761 Z-39.626 E6.46608
G1 X115.373 Y128.04 Z-39.626 E6.46981
G1 X107.786 Y117.311 Z-32.0387 E6.67299
G1 X107.588 Y117.311 Z-31.8414 E6.67673
G1 X115.373 Y128.319 Z-39.626 E6.88520
G1 X115.373 Y128.598 Z-39.626 E6.88893
G1 X107.391 Y117.311 Z-31.6442 E7.10269
G1 X107.194 Y117.311 Z-31.4469 E7.10642
G1 X115.373 Y128.877 Z-39.626 E7.32546
G1 X115.373 Y129.156 Z-39.626 E7.32920
G1 X106.997 Y117.311 Z-31.2496 E7.55352
G1 X106.799 Y117.311 Z-31.0523 E7.55726
G1 X115.373 Y129.435 Z-39.626 E7.78686
G1 X115.373 Y129.715 Z-39.626 E7.79060
G1 X106.602 Y117.311 Z-30.855 E8.02549
G1 X106.405 Y117.311 Z-30.6577 E8.02923
G1 X115.373 Y129.994 Z-39.626 E8.26941
G1 X115.373 Y130.273 Z-39.626 E8.27315
G1 X106.207 Y117.311 Z-30.4598 E8.51861
G1 X106.009 Y117.311 Z-30.2625 E8.52235
G1 X115.373 Y130.552 Z-39.626 E8.77310
G1 X115.373 Y130.831 Z-39.626 E8.77684
G1 X105.812 Y117.311 Z-30.0652 E9.03287
G1 X105.615 Y117.311 Z-29.8679 E9.03661
G1 X115.373 Y131.11 Z-39.626 E9.29793
G1 X115.373 Y131.389 Z-39.626 E9.30167
G1 X105.418 Y117.311 Z-29.6706 E9.56827
G1 X105.22 Y117.311 Z-29.4733 E9.57201
G1 X115.373 Y131.668 Z-39.626 E9.84390
G1 X115.373 Y131.947 Z-39.626 E9.84764
G1 X105.023 Y117.311 Z-29.2761 E10.12481
G1 X104.826 Y117.311 Z-29.0788 E10.12855
G1 X115.373 Y132.226 Z-39.626 E10.41101
G1 X115.373 Y132.506 Z-39.626 E10.41475
G1 X104.628 Y117.311 Z-28.8815 E10.70250
G1 X104.43 Y117.311 Z-28.6835 E10.70623
G1 X115.373 Y132.785 Z-39.626 E10.99927
G1 X115.373 Y133.064 Z-39.626 E11.00300
G1 X104.233 Y117.311 Z-28.4862 E11.30132
G1 X104.036 Y117.311 Z-28.2889 E11.30506
G1 X115.373 Y133.343 Z-39.626 E11.60866
G1 X115.373 Y133.622 Z-39.626 E11.61240
G1 X103.839 Y117.311 Z-28.0917 E11.92129
G1 X103.641 Y117.311 Z-27.8944 E11.92503
G1 X115.373 Y133.901 Z-39.626 E12.23920
G1 X115.373 Y134.18 Z-39.626 E12.24294
G1 X103.444 Y117.311 Z-27.6971 E12.56240
G1 X103.247 Y117.311 Z-27.4998 E12.56613
G1 X115.373 Y134.459 Z-39.626 E12.89088
G1 X115.373 Y134.738 Z-39.626 E12.89462
G1 X103.049 Y117.311 Z-27.3025 E13.22465
G1 X102.852 Y117.311 Z-27.1052 E13.22838
G1 X115.373 Y135.018 Z-39.626 E13.56370
G1 X115.373 Y135.297 Z-39.626 E13.56744
G1 X102.655 Y117.311 Z-26.908 E13.90804
G1 X102.457 Y117.311 Z-26.71 E13.91178
G1 X115.373 Y135.576 Z-39.626 E14.25766
G1 X115.373 Y135.855 Z-39.626 E14.26140
G1 X102.26 Y117.311 Z-26.5127 E14.61257
G1 X102.062 Y117.311 Z-26.3154 E14.61631
G1 X115.373 Y136.134 Z-39.626 E14.97277
G1 X115.373 Y136.413 Z-39.626 E14.97650
G1 X101.865 Y117.311 Z-26.1181 E15.33825
G1 X101.668 Y117.311 Z-25.9208 E15.34198
G1 X115.207 Y136.457 Z-39.4598 E15.70457
G1 X115.009 Y136.457 Z-39.2625 E15.70831
G1 X101.471 Y117.311 Z-25.7235 E16.07089
G1 X101.273 Y117.311 Z-25.5263 E16.07463
G1 X114.812 Y136.457 Z-39.0652 E16.43721
G1 X114.615 Y136.457 Z-38.868 E16.44095
G1 X101.076 Y117.311 Z-25.329 E16.80353
G1 X100.879 Y117.311 Z-25.1317 E16.80727
G1 X114.417 Y136.457 Z-38.67 E17.16985
G1 X114.22 Y136.457 Z-38.4727 E17.17359
G1 X100.681 Y117.311 Z-24.9337 E17.53617
G1 X100.483 Y117.311 Z-24.7364 E17.53991
G1 X114.022 Y136.457 Z-38.2754 E17.90249
G1 X113.825 Y136.457 Z-38.0781 E17.90623
G1 X100.286 Y117.311 Z-24.5391 E18.26881
G1 X100.089 Y117.311 Z-24.3419 E18.27255
G1 X113.628 Y136.457 Z-37.8808 E18.63513
G1 X113.431 Y136.457 Z-37.6836 E18.63887
G1 X99.8915 Y117.311 Z-24.1446 E19.00145
G1 X99.6942 Y117.311 Z-23.9473 E19.00519
G1 X113.233 Y136.457 Z-37.4863 E19.36777
G1 X113.036 Y136.457 Z-37.289 E19.37151
G1 X99.497 Y117.311 Z-23.75 E19.73410
G1 X99.2997 Y117.311 Z-23.5527 E19.73783
G1 X112.839 Y136.457 Z-37.0917 E20.10042
G1 X112.641 Y136.457 Z-36.8937 E20.10415
G1 X99.1024 Y117.311 Z-23.3554 E20.46674
G1 X98.9051 Y117.311 Z-23.1582 E20.47047
G1 X112.443 Y136.457 Z-36.6964 E20.83306
G1 X112.246 Y136.457 Z-36.4992 E20.83680
G1 X98.7071 Y117.311 Z-22.9602 E21.19938
G1 X98.5098 Y117.311 Z-22.7629 E21.20312
G1 X112.049 Y136.457 Z-36.3019 E21.56570
G1 X111.852 Y136.457 Z-36.1046 E21.56944
G1 X98.3126 Y117.311 Z-22.5656 E21.93202
G1 X98.1153 Y117.311 Z-22.3683 E21.93576
G1 X111.654 Y136.457 Z-35.9073 E22.29834
G1 X111.457 Y136.457 Z-35.71 E22.30208
G1 X97.918 Y117.311 Z-22.171 E22.66466
G1 X97.7207 Y117.311 Z-21.9738 E22.66840
G1 X111.26 Y136.457 Z-35.5127 E23.03098
G1 X111.062 Y136.457 Z-35.3155 E23.03472
G1 X97.5234 Y117.311 Z-21.7765 E23.39730
G1 X97.3261 Y117.311 Z-21.5792 E23.40104
G1 X110.865 Y136.457 Z-35.1182 E23.76362
G1 X110.667 Y136.457 Z-34.9202 E23.76736
G1 X97.1289 Y117.311 Z-21.3819 E24.12994
G1 X96.9309 Y117.311 Z-21.1839 E24.13368
G1 X110.47 Y136.457 Z-34.7229 E24.49626
G1 X110.273 Y136.457 Z-34.5256 E24.50000
G1 X96.7336 Y117.311 Z-20.9866 E24.86259
G1 X96.5363 Y117.311 Z-20.7894 E24.86632
G1 X110.075 Y136.457 Z-34.3283 E25.22891
G1 X109.878 Y136.457 Z-34.131 E25.23264
G1 X96.339 Y117.311 Z-20.5921 E25.59523
G1 X96.1417 Y117.311 Z-20.3948 E25.59896
G1 X109.681 Y136.457 Z-33.9338 E25.96155
G1 X109.483 Y136.457 Z-33.7365 E25.96528
G1 X95.9756 Y117.355 Z-20.2286 E26.32703
G1 X95.9756 Y117.634 Z-20.2286 E26.33076
G1 X109.286 Y136.457 Z-33.5392 E26.68722
G1 X109.089 Y136.457 Z-33.3419 E26.69096
G1 X95.9756 Y117.913 Z-20.2286 E27.04212
G1 X95.9756 Y118.192 Z-20.2286 E27.04586
G1 X108.891 Y136.457 Z-33.1439 E27.39175
G1 X108.694 Y136.457 Z-32.9466 E27.39548
G1 X95.9756 Y118.472 Z-20.2286 E27.73608
G1 X95.9756 Y118.751 Z-20.2286 E27.73982
G1 X108.496 Y136.457 Z-32.7494 E28.07513
G1 X108.299 Y136.457 Z-32.5521 E28.07887
G1 X95.9756 Y119.03 Z-20.2286 E28.40890
G1 X95.9756 Y119.309 Z-20.2286 E28.41264
G1 X108.102 Y136.457 Z-32.3548 E28.73738
G1 X107.904 Y136.457 Z-32.1575 E28.74112
G1 X95.9756 Y119.588 Z-20.2286 E29.06057
G1 X95.9756 Y119.867 Z-20.2286 E29.06431
G1 X107.707 Y136.457 Z-31.9602 E29.37848
G1 X107.51 Y136.457 Z-31.7629 E29.38222
G1 X95.9756 Y120.146 Z-20.2286 E29.69111
G1 X95.9756 Y120.425 Z-20.2286 E29.69484
G1 X107.313 Y136.457 Z-31.5657 E29.99844
G1 X107.115 Y136.457 Z-31.3684 E30.00218
G1 X95.9756 Y120.704 Z-20.2286 E30.30050
G1 X95.9756 Y120.983 Z-20.2286 E30.30423
G1 X106.917 Y136.457 Z-31.1704 E30.59726
G1 X106.72 Y136.457 Z-30.9731 E30.60100
G1 X95.9756 Y121.263 Z-20.2286 E30.88875
G1 X95.9756 Y121.542 Z-20.2286 E30.89248
G1 X106.523 Y136.457 Z-30.7758 E31.17494
G1 X106.325 Y136.457 Z-30.5785 E31.17868
G1 X95.9756 Y121.821 Z-20.2286 E31.45585
G1 X95.9756 Y122.1 Z-20.2286 E31.45959
G1 X106.128 Y136.457 Z-30.3813 E31.73148
G1 X105.931 Y136.457 Z-30.184 E31.73522
G1 X95.9756 Y122.379 Z-20.2286 E32.00182
G1 X95.9756 Y122.658 Z-20.2286 E32.00556
G1 X105.734 Y136.457 Z-29.9867 E32.26688
G1 X105.536 Y136.457 Z-29.7894 E32.27061
G1 X95.9756 Y122.937 Z-20.2286 E32.52665
G1 X95.9756 Y123.216 Z-20.2286 E32.53038
G1 X105.339 Y136.457 Z-29.5921 E32.78113
G1 X105.141 Y136.457 Z-29.3941 E32.78487
G1 X95.9756 Y123.495 Z-20.2286 E33.03033
G1 X95.9756 Y123.775 Z-20.2286 E33.03407
G1 X104.944 Y136.457 Z-29.1969 E33.27424
G1 X104.747 Y136.457 Z-28.9996 E33.27798
G1 X95.9756 Y124.054 Z-20.2286 E33.51287
G1 X95.9756 Y124.333 Z-20.2286 E33.51661
G1 X104.549 Y136.457 Z-28.8023 E33.74621
G1 X104.352 Y136.457 Z-28.605 E33.74995
G1 X95.9756 Y124.612 Z-20.2286 E33.97427
G1 X95.9756 Y124.891 Z-20.2286 E33.97801
G1 X104.155 Y136.457 Z-28.4077 E34.19704
G1 X103.957 Y136.457 Z-28.2104 E34.20078
G1 X95.9756 Y125.17 Z-20.2286 E34.41453
G1 X95.9756 Y125.449 Z-20.2286 E34.41826
G1 X103.76 Y136.457 Z-28.0132 E34.62673
G1 X103.563 Y136.457 Z-27.8159 E34.63047
G1 X95.9756 Y125.728 Z-20.2286 E34.83364
G1 X95.9756 Y126.007 Z-20.2286 E34.83738
G1 X103.366 Y136.457 Z-27.6186 E35.03527
G1 X103.168 Y136.457 Z-27.4206 E35.03901
G1 X95.9756 Y126.286 Z-20.2286 E35.23162
G1 X95.9756 Y126.566 Z-20.2286 E35.23536
G1 X102.97 Y136.457 Z-27.2233 E35.42268
G1 X102.773 Y136.457 Z-27.026 E35.42642
G1 X95.9756 Y126.845 Z-20.2286 E35.60845
G1 X95.9756 Y127.124 Z-20.2286 E35.61219
G1 X102.576 Y136.457 Z-26.8288 E35.78894
G1 X102.378 Y136.457 Z-26.6315 E35.79268
G1 X95.9756 Y127.403 Z-20.2286 E35.96414
G1 X95.9756 Y127.682 Z-20.2286 E35.96788
G1 X102.181 Y136.457 Z-26.4342 E36.13406
G1 X101.984 Y136.457 Z-26.2369 E36.13780
G1 X95.9756 Y127.961 Z-20.2286 E36.29869
G1 X95.9756 Y128.24 Z-20.2286 E36.30243
G1 X101.787 Y136.457 Z-26.0396 E36.45804
G1 X101.589 Y136.457 Z-25.8423 E36.46178
G1 X95.9756 Y128.519 Z-20.2286 E36.61210
G1 X95.9756 Y128.798 Z-20.2286 E36.61584
G1 X101.391 Y136.457 Z-25.6444 E36.76088
G1 X101.194 Y136.457 Z-25.4471 E36.76461
G1 X95.9756 Y129.078 Z-20.2286 E36.90437
G1 X95.9756 Y129.357 Z-20.2286 E36.90810
G1 X100.997 Y136.457 Z-25.2498 E37.04257
G1 X100.799 Y136.457 Z-25.0525 E37.04631
G1 X95.9756 Y129.636 Z-20.2286 E37.17549
G1 X95.9756 Y129.915 Z-20.2286 E37.17923
G1 X100.602 Y136.457 Z-24.8552 E37.30313
G1 X100.405 Y136.457 Z-24.6579 E37.30686
G1 X95.9756 Y130.194 Z-20.2286 E37.42548
G1 X95.9756 Y130.473 Z-20.2286 E37.42921
G1 X100.208 Y136.457 Z-24.4607 E37.54254
G1 X100.01 Y136.457 Z-24.2634 E37.54628
G1 X95.9756 Y130.752 Z-20.2286 E37.65432
G1 X95.9756 Y131.031 Z-20.2286 E37.65805
G1 X99.813 Y136.457 Z-24.0661 E37.76081
G1 X99.6158 Y136.457 Z-23.8688 E37.76455
G1 X95.9756 Y131.31 Z-20.2286 E37.86202
G1 X95.9756 Y131.589 Z-20.2286 E37.86575
G1 X99.4178 Y136.457 Z-23.6708 E37.95794
G1 X99.2205 Y136.457 Z-23.4735 E37.96168
G1 X95.9756 Y131.869 Z-20.2286 E38.04858
G1 X95.9756 Y132.148 Z-20.2286 E38.05231
G1 X99.0232 Y136.457 Z-23.2763 E38.13393
G1 X98.8259 Y136.457 Z-23.079 E38.13766
G1 X95.9756 Y132.427 Z-20.2286 E38.21399
G1 X95.9756 Y132.706 Z-20.2286 E38.21773
G1 X98.6286 Y136.457 Z-22.8817 E38.28877
G1 X98.4314 Y136.457 Z-22.6844 E38.29251
G1 X95.9756 Y132.985 Z-20.2286 E38.35827
G1 X95.9756 Y133.264 Z-20.2286 E38.36200
G1 X98.2341 Y136.457 Z-22.4871 E38.42248
G1 X98.0368 Y136.457 Z-22.2898 E38.42621
G1 X95.9756 Y133.543 Z-20.2286 E38.48140
G1 X95.9756 Y133.822 Z-20.2286 E38.48514
G1 X97.8395 Y136.457 Z-22.0926 E38.53504
G1 X97.6415 Y136.457 Z-21.8946 E38.53878
G1 X95.9756 Y134.101 Z-20.2286 E38.58339
G1 X95.9756 Y134.381 Z-20.2286 E38.58713
G1 X97.4442 Y136.457 Z-21.6973 E38.62646
G1 X97.247 Y136.457 Z-21.5 E38.63020
G1 X95.9756 Y134.66 Z-20.2286 E38.66424
G1 X95.9756 Y134.939 Z-20.2286 E38.66798
G1 X97.0497 Y136.457 Z-21.3027 E38.69674
G1 X96.8524 Y136.457 Z-21.1054 E38.70048
G1 X95.9756 Y135.218 Z-20.2286 E38.72395
G1 X95.9756 Y135.497 Z-20.2286 E38.72769
G1 X96.6551 Y136.457 Z-20.9082 E38.74588
G1 X96.4578 Y136.457 Z-20.7109 E38.74961
G1 X95.9756 Y135.776 Z-20.2286 E38.76252
G1 X95.9756 Y136.055 Z-20.2286 E38.76626
G1 X96.2605 Y136.457 Z-20.5136 E38.77387
G1 X96.0633 Y136.457 Z-20.3163 E38.77761
G1 X95.9756 Y136.334 Z-20.2286 E38.77994
G1 X96.1524 Y136.334 Z-20.0518 F5400.000
G1 X115.239 Y136.018 Z-39.1381 F5400.000
G1 X96.4635 Y136.018 Z-20.363 E40.19488 F2638.131
G1 X96.4635 Y117.75 Z-20.363 E41.16837
G1 X115.239 Y117.75 Z-39.1381 E42.58331
G1 X115.239 Y135.943 Z-39.1381 E43.55280
G1 X115.674 Y136.634 Z-39.5737 F5400.000
G1 X96.0279 Y136.634 Z-19.9274 E44.39422 F1978.599
G1 X96.0279 Y117.134 Z-19.9274 E44.98477
G1 X115.674 Y117.134 Z-39.5737 E45.82619
G1 X115.674 Y136.559 Z-39.5737 E46.41446
G1 X115.368 Y136.384 Z-39.2675 F5400.000
G1 X114.635 Y135.537 Z-38.5342 F5400.000
G1 X114.898 Y135.164 Z-38.798 E46.44331 F3517.509
G1 X114.898 Y134.025 Z-38.798 E46.50557
G1 X113.829 Y135.537 Z-37.7288 E46.62248
G1 X113.024 Y135.537 Z-36.9234 E46.68474
G1 X114.898 Y132.886 Z-38.798 E46.88969
G1 X114.898 Y131.746 Z-38.798 E46.95195
G1 X112.218 Y135.537 Z-36.1173 E47.24496
G1 X111.412 Y135.537 Z-35.3119 E47.30722
G1 X114.898 Y130.607 Z-38.798 E47.68828
G1 X114.898 Y129.468 Z-38.798 E47.75055
G1 X110.607 Y135.537 Z-34.5065 E48.21966
G1 X109.802 Y135.537 Z-33.7011 E48.28192
G1 X114.898 Y128.329 Z-38.798 E48.83909
G1 X114.898 Y127.19 Z-38.798 E48.90135
G1 X108.996 Y135.537 Z-32.8957 E49.54657
G1 X108.19 Y135.537 Z-32.0896 E49.60883
G1 X114.898 Y126.05 Z-38.798 E50.34210
G1 X114.898 Y124.911 Z-38.798 E50.40437
G1 X107.385 Y135.537 Z-31.2842 E51.22569
G1 X106.579 Y135.537 Z-30.4788 E51.28795
G1 X114.898 Y123.772 Z-38.798 E52.19733
G1 X114.898 Y122.633 Z-38.798 E52.25960
