; generated by Slic3r 1.2.9 on 2016-04-04 at 17:35:57

; external perimeters extrusion width = 0.50mm
; perimeters extrusion width = 0.84mm
; infill extrusion width = 0.84mm
; solid infill extrusion width = 0.84mm
; top infill extrusion width = 0.84mm

M107
M190 S56 ; set bed temperature
M104 S230 ; set temperature
G28 ; home all axes
G1 Z5 F5000 ; lift nozzle

M109 S230 ; wait for temperature to be reached
G21 ; set units to millimeters
G90 ; use absolute coordinates
M82 ; use absolute distances for extrusion
G92 E0
G1 Z0.250 F5400.000
G1 E-2.00000 F2400.00000
G92 E0
G1 X84.951 Y85.766 F5400.000
G1 E2.00000 F2400.00000
G1 X86.702 Y84.295 E2.03047 F1350.000
G1 X88.851 Y83.512 E2.06094
G1 X90.000 Y83.411 E2.07630
G1 X110.000 Y83.411 E2.34275
G1 X112.252 Y83.808 E2.37322
G1 X114.234 Y84.951 E2.40369 F1350.000
G1 X115.705 Y86.702 E2.43416
G1 X116.488 Y88.851 E2.46463
G1 X116.589 Y90.000 E2.47999
G1 X116.589 Y110.000 E2.74643
G1 X116.192 Y112.252 E2.77690
G1 X115.049 Y114.234 E2.80737
G1 X113.298 Y115.705 E2.83784
G1 X111.149 Y116.488 E2.86831
G1 X110.000 Y116.589 E2.88368
G1 X90.000 Y116.589 E3.15012
G1 X87.748 Y116.192 E3.18059
G1 X85.766 Y115.049 E3.21106
G1 X84.295 Y113.298 E3.24153
G1 X83.512 Y111.149 E3.27200
G1 X83.411 Y110.000 E3.28736
G1 X83.411 Y90.000 E3.55380
G1 X83.808 Y87.748 E3.58427
G1 X84.913 Y85.831 E3.61374
G1 X85.128 Y85.870 F5400.000
G1 X86.890 Y84.415 E3.64419 F1350.000
G1 X90.000 Y83.607 E3.68700
G1 X110.000 Y83.607 E3.95344
G1 X112.217 Y84.004 E3.98345
G1 X114.159 Y85.146 E4.01346 F1350.000
G1 X115.585 Y86.890 E4.04347
G1 X116.393 Y90.000 E4.08628
G1 X116.393 Y110.000 E4.35272
G1 X115.996 Y112.217 E4.38273
G1 X114.854 Y114.159 E4.41274
G1 X113.110 Y115.585 E4.44275
G1 X110.000 Y116.393 E4.48556
G1 X90.000 Y116.393 E4.75200
G1 X87.783 Y115.996 E4.78201
G1 X85.841 Y114.854 E4.81202
G1 X84.415 Y113.110 E4.84203
G1 X83.607 Y110.000 E4.88484
G1 X83.607 Y90.000 E5.15128
G1 X84.004 Y87.783 E5.18129
G1 X85.090 Y85.935 E5.20984
G1 X85.304 Y85.976 F5400.000
G1 X85.340 Y85.916 E5.21077 F1350.000
G1 X87.076 Y84.537 E5.24031
G1 X90.000 Y83.804 E5.28047
G1 X110.000 Y83.804 E5.54691
G1 X112.182 Y84.200 E5.57645
G1 X114.084 Y85.340 E5.60599 F1350.000
G1 X115.463 Y87.076 E5.63553
G1 X116.196 Y90.000 E5.67569
G1 X116.196 Y110.000 E5.94213
G1 X115.800 Y112.182 E5.97167
G1 X114.660 Y114.084 E6.00121
G1 X112.924 Y115.463 E6.03075
G1 X110.000 Y116.196 E6.07091
G1 X90.000 Y116.196 E6.33735
G1 X87.818 Y115.800 E6.36689
G1 X85.916 Y114.660 E6.39643
G1 X84.537 Y112.924 E6.42597
G1 X83.804 Y110.000 E6.46613
G1 X83.804 Y90.000 E6.73257
G1 X84.200 Y87.818 E6.76211
G1 X85.266 Y86.040 E6.78973
G1 E4.78973 F2400.00000
G92 E0
G1 X109.679 Y109.679 F5400.000
G1 E2.00000 F2400.00000
G1 X90.321 Y109.679 E2.25788 F1350.000
G1 X90.321 Y90.321 E2.51576
G1 X109.679 Y90.321 E2.77364
G1 X109.679 Y109.604 E3.03052
G1 X109.875 Y109.875 F5400.000
G1 X90.125 Y109.875 E3.29363 F1012.500
G1 X90.125 Y90.125 E3.55674
G1 X109.875 Y90.125 E3.81985
G1 X109.875 Y109.800 E4.08196
G1 X109.442 Y109.625 F5400.000
G1 X109.573 Y90.550 F5400.000
G1 X109.450 Y90.427 E4.08429 F1800.000
G1 X109.172 Y90.427 E4.08799
G1 X109.573 Y90.828 E4.09554
G1 X109.573 Y91.105 E4.09924
G1 X108.895 Y90.427 E4.11203
G1 X108.617 Y90.427 E4.11573
G1 X109.573 Y91.383 E4.13376
G1 X109.573 Y91.661 E4.13746
G1 X108.339 Y90.427 E4.16071
G1 X108.062 Y90.427 E4.16441
G1 X109.573 Y91.938 E4.19290
G1 X109.573 Y92.216 E4.19660
G1 X107.784 Y90.427 E4.23032
G1 X107.506 Y90.427 E4.23402
G1 X109.573 Y92.494 E4.27298
G1 X109.573 Y92.772 E4.27668
G1 X107.228 Y90.427 E4.32086
G1 X106.951 Y90.427 E4.32456
G1 X109.573 Y93.049 E4.37398
G1 X109.573 Y93.327 E4.37768
G1 X106.673 Y90.427 E4.43234
G1 X106.395 Y90.427 E4.43604
G1 X109.573 Y93.605 E4.49592
G1 X109.573 Y93.882 E4.49962
G1 X106.118 Y90.427 E4.56474
G1 X105.840 Y90.427 E4.56844
G1 X109.573 Y94.160 E4.63879
G1 X109.573 Y94.438 E4.64249
G1 X105.562 Y90.427 E4.71808
G1 X105.284 Y90.427 E4.72178
G1 X109.573 Y94.716 E4.80260
G1 X109.573 Y94.993 E4.80630
G1 X105.007 Y90.427 E4.89235
G1 X104.729 Y90.427 E4.89605
G1 X109.573 Y95.271 E4.98733
G1 X109.573 Y95.549 E4.99103
G1 X104.451 Y90.427 E5.08755
G1 X104.174 Y90.427 E5.09125
G1 X109.573 Y95.826 E5.19300
G1 X109.573 Y96.104 E5.19670
G1 X103.896 Y90.427 E5.30368
G1 X103.618 Y90.427 E5.30738
G1 X109.573 Y96.382 E5.41960
G1 X109.573 Y96.660 E5.42330
G1 X103.340 Y90.427 E5.54074
G1 X103.063 Y90.427 E5.54444
G1 X109.573 Y96.937 E5.66713
G1 X109.573 Y97.215 E5.67083
G1 X102.785 Y90.427 E5.79874
G1 X102.507 Y90.427 E5.80244
G1 X109.573 Y97.493 E5.93559
G1 X109.573 Y97.771 E5.93929
G1 X102.229 Y90.427 E6.07767
G1 X101.952 Y90.427 E6.08137
G1 X109.573 Y98.048 E6.22498
G1 X109.573 Y98.326 E6.22868
G1 X101.674 Y90.427 E6.37753
G1 X101.396 Y90.427 E6.38123
G1 X109.573 Y98.604 E6.53531
G1 X109.573 Y98.881 E6.53901
G1 X101.119 Y90.427 E6.69832
G1 X100.841 Y90.427 E6.70202
G1 X109.573 Y99.159 E6.86656
G1 X109.573 Y99.437 E6.87026
G1 X100.563 Y90.427 E7.04004
G1 X100.285 Y90.427 E7.04374
G1 X109.573 Y99.715 E7.21875
G1 X109.573 Y99.992 E7.22245
G1 X100.008 Y90.427 E7.40270
G1 X99.730 Y90.427 E7.40640
G1 X109.573 Y100.270 E7.59187
G1 X109.573 Y100.548 E7.59557
G1 X99.452 Y90.427 E7.78628
G1 X99.175 Y90.427 E7.78998
G1 X109.573 Y100.825 E7.98593
G1 X109.573 Y101.103 E7.98963
G1 X98.897 Y90.427 E8.19080
G1 X98.619 Y90.427 E8.19450
G1 X109.573 Y101.381 E8.40091
G1 X109.573 Y101.659 E8.40461
G1 X98.341 Y90.427 E8.61625
G1 X98.064 Y90.427 E8.61995
G1 X109.573 Y101.936 E8.83683
G1 X109.573 Y102.214 E8.84053
G1 X97.786 Y90.427 E9.06263
G1 X97.508 Y90.427 E9.06633
G1 X109.573 Y102.492 E9.29367
G1 X109.573 Y102.769 E9.29738
G1 X97.231 Y90.427 E9.52995
G1 X96.953 Y90.427 E9.53365
G1 X109.573 Y103.047 E9.77145
G1 X109.573 Y103.325 E9.77515
G1 X96.675 Y90.427 E10.01819
G1 X96.397 Y90.427 E10.02189
G1 X109.573 Y103.603 E10.27017
G1 X109.573 Y103.880 E10.27387
G1 X96.120 Y90.427 E10.52737
G1 X95.842 Y90.427 E10.53107
G1 X109.573 Y104.158 E10.78981
G1 X109.573 Y104.436 E10.79351
G1 X95.564 Y90.427 E11.05748
G1 X95.287 Y90.427 E11.06118
G1 X109.573 Y104.713 E11.33038
G1 X109.573 Y104.991 E11.33408
G1 X95.009 Y90.427 E11.60852
G1 X94.731 Y90.427 E11.61222
G1 X109.573 Y105.269 E11.89189
G1 X109.573 Y105.547 E11.89559
G1 X94.453 Y90.427 E12.18049
G1 X94.176 Y90.427 E12.18419
G1 X109.573 Y105.824 E12.47433
G1 X109.573 Y106.102 E12.47803
G1 X93.898 Y90.427 E12.77340
G1 X93.620 Y90.427 E12.77710
G1 X109.573 Y106.380 E13.07770
G1 X109.573 Y106.657 E13.08140
G1 X93.343 Y90.427 E13.38724
G1 X93.065 Y90.427 E13.39094
G1 X109.573 Y106.935 E13.70200
G1 X109.573 Y107.213 E13.70570
G1 X92.787 Y90.427 E14.02200
G1 X92.509 Y90.427 E14.02570
G1 X109.573 Y107.491 E14.34724
G1 X109.573 Y107.768 E14.35094
G1 X92.232 Y90.427 E14.67770
G1 X91.954 Y90.427 E14.68140
G1 X109.573 Y108.046 E15.01340
G1 X109.573 Y108.324 E15.01710
G1 X91.676 Y90.427 E15.35434
G1 X91.399 Y90.427 E15.35804
G1 X109.573 Y108.601 E15.70050
G1 X109.573 Y108.879 E15.70420
G1 X91.121 Y90.427 E16.05190
G1 X90.843 Y90.427 E16.05560
G1 X109.573 Y109.157 E16.40853
G1 X109.573 Y109.435 E16.41223
G1 X90.565 Y90.427 E16.77039
G1 X90.427 Y90.565 E16.77301
G1 X109.435 Y109.573 E17.13117
G1 X109.157 Y109.573 E17.13487
G1 X90.427 Y90.843 E17.48780
G1 X90.427 Y91.121 E17.49150
G1 X108.879 Y109.573 E17.83920
G1 X108.601 Y109.573 E17.84290
G1 X90.427 Y91.399 E18.18536
G1 X90.427 Y91.676 E18.18906
G1 X108.324 Y109.573 E18.52629
G1 X108.046 Y109.573 E18.52999
G1 X90.427 Y91.954 E18.86199
G1 X90.427 Y92.232 E18.86569
G1 X107.768 Y109.573 E19.19245
G1 X107.490 Y109.573 E19.19615
G1 X90.427 Y92.510 E19.51769
G1 X90.427 Y92.787 E19.52139
G1 X107.213 Y109.573 E19.83768
G1 X106.935 Y109.573 E19.84138
G1 X90.427 Y93.065 E20.15245
G1 X90.427 Y93.343 E20.15615
G1 X106.657 Y109.573 E20.46198
G1 X106.380 Y109.573 E20.46568
G1 X90.427 Y93.620 E20.76628
G1 X90.427 Y93.898 E20.76998
G1 X106.102 Y109.573 E21.06535
G1 X105.824 Y109.573 E21.06905
G1 X90.427 Y94.176 E21.35918
G1 X90.427 Y94.454 E21.36288
G1 X105.546 Y109.573 E21.64778
G1 X105.269 Y109.573 E21.65148
G1 X90.427 Y94.731 E21.93115
G1 X90.427 Y95.009 E21.93485
G1 X104.991 Y109.573 E22.20929
G1 X104.713 Y109.573 E22.21299
G1 X90.427 Y95.287 E22.48219
G1 X90.427 Y95.564 E22.48589
G1 X104.436 Y109.573 E22.74986
G1 X104.158 Y109.573 E22.75356
G1 X90.427 Y95.842 E23.01229
G1 X90.427 Y96.120 E23.01599
G1 X103.880 Y109.573 E23.26950
G1 X103.602 Y109.573 E23.27320
G1 X90.427 Y96.398 E23.52147
G1 X90.427 Y96.675 E23.52517
G1 X103.325 Y109.573 E23.76821
G1 X103.047 Y109.573 E23.77191
G1 X90.427 Y96.953 E24.00971
G1 X90.427 Y97.231 E24.01341
G1 X102.769 Y109.573 E24.24598
G1 X102.492 Y109.573 E24.24968
G1 X90.427 Y97.508 E24.47702
G1 X90.427 Y97.786 E24.48072
G1 X102.214 Y109.573 E24.70283
G1 X101.936 Y109.573 E24.70653
G1 X90.427 Y98.064 E24.92340
G1 X90.427 Y98.342 E24.92710
G1 X101.658 Y109.573 E25.13874
G1 X101.381 Y109.573 E25.14244
G1 X90.427 Y98.619 E25.34884
G1 X90.427 Y98.897 E25.35254
G1 X101.103 Y109.573 E25.55372
G1 X100.825 Y109.573 E25.55742
G1 X90.427 Y99.175 E25.75336
G1 X90.427 Y99.452 E25.75706
G1 X100.548 Y109.573 E25.94777
G1 X100.270 Y109.573 E25.95147
G1 X90.427 Y99.730 E26.13694
G1 X90.427 Y100.008 E26.14064
G1 X99.992 Y109.573 E26.32088
G1 X99.714 Y109.573 E26.32458
G1 X90.427 Y100.286 E26.49959
G1 X90.427 Y100.563 E26.50329
G1 X99.437 Y109.573 E26.67307
G1 X99.159 Y109.573 E26.67677
G1 X90.427 Y100.841 E26.84131
G1 X90.427 Y101.119 E26.84501
G1 X98.881 Y109.573 E27.00432
G1 X98.604 Y109.573 E27.00802
G1 X90.427 Y101.396 E27.16210
G1 X90.427 Y101.674 E27.16580
G1 X98.326 Y109.573 E27.31464
G1 X98.048 Y109.573 E27.31834
G1 X90.427 Y101.952 E27.46195
G1 X90.427 Y102.230 E27.46565
G1 X97.770 Y109.573 E27.60403
G1 X97.493 Y109.573 E27.60773
G1 X90.427 Y102.507 E27.74088
G1 X90.427 Y102.785 E27.74458
G1 X97.215 Y109.573 E27.87249
G1 X96.937 Y109.573 E27.87619
G1 X90.427 Y103.063 E27.99887
G1 X90.427 Y103.340 E28.00257
G1 X96.660 Y109.573 E28.12002
G1 X96.382 Y109.573 E28.12372
G1 X90.427 Y103.618 E28.23593
G1 X90.427 Y103.896 E28.23963
G1 X96.104 Y109.573 E28.34661
G1 X95.826 Y109.573 E28.35031
G1 X90.427 Y104.174 E28.45206
G1 X90.427 Y104.451 E28.45576
G1 X95.549 Y109.573 E28.55227
G1 X95.271 Y109.573 E28.55597
G1 X90.427 Y104.729 E28.64725
G1 X90.427 Y105.007 E28.65095
G1 X94.993 Y109.573 E28.73700
G1 X94.716 Y109.573 E28.74070
G1 X90.427 Y105.284 E28.82152
G1 X90.427 Y105.562 E28.82522
G1 X94.438 Y109.573 E28.90080
G1 X94.160 Y109.573 E28.90450
G1 X90.427 Y105.840 E28.97485
G1 X90.427 Y106.118 E28.97855
G1 X93.882 Y109.573 E29.04367
G1 X93.605 Y109.573 E29.04737
G1 X90.427 Y106.395 E29.10725
G1 X90.427 Y106.673 E29.11095
G1 X93.327 Y109.573 E29.16560
G1 X93.049 Y109.573 E29.16930
G1 X90.427 Y106.951 E29.21872
G1 X90.427 Y107.228 E29.22242
G1 X92.772 Y109.573 E29.26661
G1 X92.494 Y109.573 E29.27031
G1 X90.427 Y107.506 E29.30926
G1 X90.427 Y107.784 E29.31296
G1 X92.216 Y109.573 E29.34668
G1 X91.938 Y109.573 E29.35038
G1 X90.427 Y108.062 E29.37887
G1 X90.427 Y108.339 E29.38257
G1 X91.661 Y109.573 E29.40582
G1 X91.383 Y109.573 E29.40952
G1 X90.427 Y108.617 E29.42754
G1 X90.427 Y108.895 E29.43124
G1 X91.105 Y109.573 E29.44403
G1 X90.827 Y109.573 E29.44773
G1 X90.427 Y109.173 E29.45528
G1 X90.427 Y109.450 E29.45898
G1 X90.550 Y109.573 E29.46130
G1 Z0.500 F5400.000
G1 X109.134 Y109.134 F5400.000
G1 X90.866 Y109.134 E30.43479 F1935.605
G1 X90.866 Y90.866 E31.40827
G1 X109.134 Y90.866 E32.38176
G1 X109.134 Y109.059 E33.35124
G1 X109.750 Y109.750 F5400.000
G1 X90.250 Y109.750 E33.94179 F1451.704
G1 X90.250 Y90.250 E34.53233
G1 X109.750 Y90.250 E35.12288
G1 X109.750 Y109.675 E35.71115
G1 X109.317 Y109.500 F5400.000
G1 X108.280 Y108.653 F5400.000
G1 X108.653 Y108.280 E35.73973 F2580.806
G1 X108.653 Y107.151 E35.80087
G1 X107.151 Y108.653 E35.91592
G1 X106.022 Y108.653 E35.97706
G1 X108.653 Y106.022 E36.17857
G1 X108.653 Y104.893 E36.23971
G1 X104.893 Y108.653 E36.52769
G1 X103.764 Y108.653 E36.58883
G1 X108.653 Y103.764 E36.96327
G1 X108.653 Y102.636 E37.02441
G1 X102.636 Y108.653 E37.48531
G1 X101.507 Y108.653 E37.54645
G1 X108.653 Y101.507 E38.09382
G1 X108.653 Y100.378 E38.15496
G1 X100.378 Y108.653 E38.78879
G1 X99.249 Y108.653 E38.84993
G1 X108.653 Y99.249 E39.57022
G1 X108.653 Y98.120 E39.63136
G1 X98.120 Y108.653 E40.43812
G1 X96.991 Y108.653 E40.49926
G1 X108.653 Y96.991 E41.39248
G1 X108.653 Y95.862 E41.45362
G1 X95.862 Y108.653 E42.43331
G1 X94.733 Y108.653 E42.49445
G1 X108.653 Y94.733 E43.56060
G1 X108.653 Y93.605 E43.62174
G1 X93.605 Y108.653 E44.77435
G1 X92.476 Y108.653 E44.83549
G1 X108.653 Y92.476 E46.07456
G1 X108.633 Y91.367 E46.13463
G1 X91.367 Y108.633 E47.45711
G1 X91.347 Y107.524 E47.51717
G1 X107.524 Y91.347 E48.75625
G1 X106.395 Y91.347 E48.81739
G1 X91.347 Y106.395 E49.97000
G1 X91.347 Y105.267 E50.03114
G1 X105.267 Y91.347 E51.09729
G1 X104.138 Y91.347 E51.15843
G1 X91.347 Y104.138 E52.13811
G1 X91.347 Y103.009 E52.19925
G1 X103.009 Y91.347 E53.09247
G1 X101.880 Y91.347 E53.15361
G1 X91.347 Y101.880 E53.96037
G1 X91.347 Y100.751 E54.02151
G1 X100.751 Y91.347 E54.74180
G1 X99.622 Y91.347 E54.80294
G1 X91.347 Y99.622 E55.43677
G1 X91.347 Y98.493 E55.49791
G1 X98.493 Y91.347 E56.04528
G1 X97.364 Y91.347 E56.10642
G1 X91.347 Y97.364 E56.56732
G1 X91.347 Y96.236 E56.62846
G1 X96.236 Y91.347 E57.00290
G1 X95.107 Y91.347 E57.06404
G1 X91.347 Y95.107 E57.35201
G1 X91.347 Y93.978 E57.41315
G1 X93.978 Y91.347 E57.61467
G1 X92.849 Y91.347 E57.67580
G1 X91.347 Y92.849 E57.79085
G1 X91.347 Y91.720 E57.85199
G1 X91.720 Y91.347 E57.88058
G1 Z0.750 F5400.000
G1 X109.134 Y109.134 F5400.000
G1 X90.866 Y109.134 E58.85406 F1935.605
G1 X90.866 Y90.866 E59.82755
G1 X109.134 Y90.866 E60.80103
G1 X109.134 Y109.059 E61.77052
G1 X109.750 Y109.750 F5400.000
G1 X90.250 Y109.750 E62.36106 F1451.704
G1 X90.250 Y90.250 E62.95161
G1 X109.750 Y90.250 E63.54215
G1 X109.750 Y109.675 E64.13042
G1 X109.317 Y109.500 F5400.000
G1 X108.653 Y91.720 F5400.000
G1 X108.280 Y91.347 E64.15901 F2580.806
G1 X107.151 Y91.347 E64.22015
G1 X108.653 Y92.849 E64.33520
G1 X108.653 Y93.978 E64.39633
G1 X106.022 Y91.347 E64.59785
G1 X104.893 Y91.347 E64.65899
G1 X108.653 Y95.107 E64.94696
G1 X108.653 Y96.236 E65.00810
G1 X103.764 Y91.347 E65.38254
G1 X102.636 Y91.347 E65.44368
G1 X108.653 Y97.364 E65.90459
G1 X108.653 Y98.493 E65.96573
G1 X101.507 Y91.347 E66.51309
G1 X100.378 Y91.347 E66.57423
G1 X108.653 Y99.622 E67.20806
G1 X108.653 Y100.751 E67.26920
G1 X99.249 Y91.347 E67.98950
G1 X98.120 Y91.347 E68.05064
G1 X108.653 Y101.880 E68.85739
G1 X108.653 Y103.009 E68.91853
G1 X96.991 Y91.347 E69.81176
G1 X95.862 Y91.347 E69.87290
G1 X108.653 Y104.138 E70.85258
G1 X108.653 Y105.267 E70.91372
G1 X94.733 Y91.347 E71.97987
G1 X93.605 Y91.347 E72.04101
G1 X108.653 Y106.395 E73.19362
G1 X108.653 Y107.524 E73.25476
G1 X92.476 Y91.347 E74.49384
G1 X91.367 Y91.367 E74.55390
G1 X108.633 Y108.633 E75.87638
G1 X107.524 Y108.653 E75.93645
G1 X91.347 Y92.476 E77.17552
G1 X91.347 Y93.605 E77.23666
G1 X106.395 Y108.653 E78.38927
G1 X105.267 Y108.653 E78.45041
G1 X91.347 Y94.733 E79.51656
G1 X91.347 Y95.862 E79.57770
G1 X104.138 Y108.653 E80.55739
G1 X103.009 Y108.653 E80.61852
G1 X91.347 Y96.991 E81.51175
G1 X91.347 Y98.120 E81.57289
G1 X101.880 Y108.653 E82.37964
G1 X100.751 Y108.653 E82.44078
G1 X91.347 Y99.249 E83.16108
G1 X91.347 Y100.378 E83.22222
G1 X99.622 Y108.653 E83.85605
G1 X98.493 Y108.653 E83.91719
G1 X91.347 Y101.507 E84.46455
G1 X91.347 Y102.636 E84.52569
G1 X97.364 Y108.653 E84.98659
G1 X96.236 Y108.653 E85.04773
G1 X91.347 Y103.764 E85.42217
G1 X91.347 Y104.893 E85.48331
G1 X95.107 Y108.653 E85.77129
G1 X93.978 Y108.653 E85.83243
G1 X91.347 Y106.022 E86.03394
G1 X91.347 Y107.151 E86.09508
G1 X92.849 Y108.653 E86.21013
G1 X91.720 Y108.653 E86.27127
G1 X91.347 Y108.280 E86.29985
M106 S255
G1 Z1.000 F5400.000
G1 X109.134 Y109.134 F5400.000
G1 X90.866 Y109.134 E87.27334 F1017.916
G1 X90.866 Y90.866 E88.24682
G1 X109.134 Y90.866 E89.22031
G1 X109.134 Y109.059 E90.18979
G1 X109.750 Y109.750 F5400.000
G1 X90.250 Y109.750 E90.78034 F763.437
