; generated by Slic3r 1.2.9 on 2016-04-04 at 17:36:41

; external perimeters extrusion width = 0.50mm
; perimeters extrusion width = 0.84mm
; infill extrusion width = 0.84mm
; solid infill extrusion width = 0.84mm
; top infill extrusion width = 0.84mm

M107
M190 S56 ; set bed temperature
M104 S230 ; set temperature
G1 Z5 F5000 ; lift nozzle

M109 S230 ; wait for temperature to be reached
G21 ; set units to millimeters
G90 ; use absolute coordinates
M82 ; use absolute distances for extrusion
G92 E0
G1 Z0.250 F5400.000
G1 X9.679 Y13.821 F5400.000
G1 X-9.679 Y13.821 E0.25788 F1350.000
G1 X-9.679 Y-13.821 E0.62612
G1 X9.679 Y-13.821 E0.88400
G1 X9.679 Y13.746 E1.25125
G1 X9.875 Y14.017 F5400.000
G1 X-9.875 Y14.017 E1.51436 F1012.500
G1 X-9.875 Y-14.017 E1.88783
G1 X9.875 Y-14.017 E2.15094
G1 X9.875 Y13.942 E2.52342
G1 X9.442 Y13.767 F5400.000
G1 X-9.573 Y13.592 F5400.000
G1 X-9.450 Y13.716 E2.52575 F1800.000
G1 X-9.171 Y13.716 E2.52949
G1 X-9.573 Y13.313 E2.53711
G1 X-9.573 Y13.034 E2.54084
G1 X-8.892 Y13.716 E2.55375
G1 X-8.613 Y13.716 E2.55749
G1 X-9.573 Y12.755 E2.57567
G1 X-9.573 Y12.476 E2.57941
G1 X-8.334 Y13.716 E2.60289
G1 X-8.055 Y13.716 E2.60662
G1 X-9.573 Y12.197 E2.63538
G1 X-9.573 Y11.918 E2.63912
G1 X-7.776 Y13.716 E2.67317
G1 X-7.497 Y13.716 E2.67690
G1 X-9.573 Y11.639 E2.71623
G1 X-9.573 Y11.360 E2.71997
G1 X-7.217 Y13.716 E2.76459
G1 X-6.938 Y13.716 E2.76832
G1 X-9.573 Y11.080 E2.81822
G1 X-9.573 Y10.801 E2.82196
G1 X-6.659 Y13.716 E2.87715
G1 X-6.380 Y13.716 E2.88089
G1 X-9.573 Y10.522 E2.94136
G1 X-9.573 Y10.243 E2.94510
G1 X-6.101 Y13.716 E3.01085
G1 X-5.822 Y13.716 E3.01459
G1 X-9.573 Y9.964 E3.08563
G1 X-9.573 Y9.685 E3.08937
G1 X-5.543 Y13.716 E3.16570
G1 X-5.264 Y13.716 E3.16944
G1 X-9.573 Y9.406 E3.25105
G1 X-9.573 Y9.127 E3.25479
G1 X-4.985 Y13.716 E3.34169
G1 X-4.705 Y13.716 E3.34542
G1 X-9.573 Y8.848 E3.43761
G1 X-9.573 Y8.568 E3.44135
G1 X-4.426 Y13.716 E3.53882
G1 X-4.147 Y13.716 E3.54255
G1 X-9.573 Y8.289 E3.64531
G1 X-9.573 Y8.010 E3.64905
G1 X-3.868 Y13.716 E3.75709
G1 X-3.589 Y13.716 E3.76082
G1 X-9.573 Y7.731 E3.87415
G1 X-9.573 Y7.452 E3.87789
G1 X-3.310 Y13.716 E3.99650
G1 X-3.031 Y13.716 E4.00024
G1 X-9.573 Y7.173 E4.12413
G1 X-9.573 Y6.894 E4.12787
G1 X-2.752 Y13.716 E4.25705
G1 X-2.473 Y13.716 E4.26079
G1 X-9.573 Y6.615 E4.39526
G1 X-9.573 Y6.336 E4.39900
G1 X-2.194 Y13.716 E4.53875
G1 X-1.914 Y13.716 E4.54249
G1 X-9.573 Y6.057 E4.68752
G1 X-9.573 Y5.777 E4.69126
G1 X-1.635 Y13.716 E4.84159
G1 X-1.356 Y13.716 E4.84532
G1 X-9.573 Y5.498 E5.00093
G1 X-9.573 Y5.219 E5.00467
G1 X-1.077 Y13.716 E5.16557
G1 X-0.798 Y13.716 E5.16930
G1 X-9.573 Y4.940 E5.33548
G1 X-9.573 Y4.661 E5.33922
G1 X-0.519 Y13.716 E5.51069
G1 X-0.240 Y13.716 E5.51442
G1 X-9.573 Y4.382 E5.69117
G1 X-9.573 Y4.103 E5.69491
G1 X0.039 Y13.716 E5.87695
G1 X0.318 Y13.716 E5.88069
G1 X-9.573 Y3.824 E6.06801
G1 X-9.573 Y3.545 E6.07174
G1 X0.598 Y13.716 E6.26435
G1 X0.877 Y13.716 E6.26809
G1 X-9.573 Y3.265 E6.46598
G1 X-9.573 Y2.986 E6.46972
G1 X1.156 Y13.716 E6.67290
G1 X1.435 Y13.716 E6.67663
G1 X-9.573 Y2.707 E6.88510
G1 X-9.573 Y2.428 E6.88884
G1 X1.714 Y13.716 E7.10258
G1 X1.993 Y13.716 E7.10632
G1 X-9.573 Y2.149 E7.32536
G1 X-9.573 Y1.870 E7.32909
G1 X2.272 Y13.716 E7.55341
G1 X2.551 Y13.716 E7.55715
G1 X-9.573 Y1.591 E7.78676
G1 X-9.573 Y1.312 E7.79049
G1 X2.830 Y13.716 E8.02538
G1 X3.109 Y13.716 E8.02912
G1 X-9.573 Y1.033 E8.26930
G1 X-9.573 Y0.754 E8.27304
G1 X3.389 Y13.716 E8.51850
G1 X3.668 Y13.716 E8.52223
G1 X-9.573 Y0.474 E8.77298
G1 X-9.573 Y0.195 E8.77672
G1 X3.947 Y13.716 E9.03275
G1 X4.226 Y13.716 E9.03649
G1 X-9.573 Y-0.084 E9.29781
G1 X-9.573 Y-0.363 E9.30154
G1 X4.505 Y13.716 E9.56815
G1 X4.784 Y13.716 E9.57188
G1 X-9.573 Y-0.642 E9.84377
G1 X-9.573 Y-0.921 E9.84751
G1 X5.063 Y13.716 E10.12468
G1 X5.342 Y13.716 E10.12842
G1 X-9.573 Y-1.200 E10.41088
G1 X-9.573 Y-1.479 E10.41462
G1 X5.621 Y13.716 E10.70236
G1 X5.901 Y13.716 E10.70610
G1 X-9.573 Y-1.758 E10.99913
G1 X-9.573 Y-2.038 E11.00287
G1 X6.180 Y13.716 E11.30118
G1 X6.459 Y13.716 E11.30492
G1 X-9.573 Y-2.317 E11.60852
G1 X-9.573 Y-2.596 E11.61226
G1 X6.738 Y13.716 E11.92114
G1 X7.017 Y13.716 E11.92488
G1 X-9.573 Y-2.875 E12.23905
G1 X-9.573 Y-3.154 E12.24279
G1 X7.296 Y13.716 E12.56225
G1 X7.575 Y13.716 E12.56598
G1 X-9.573 Y-3.433 E12.89073
G1 X-9.573 Y-3.712 E12.89446
G1 X7.854 Y13.716 E13.22449
G1 X8.133 Y13.716 E13.22823
G1 X-9.573 Y-3.991 E13.56354
G1 X-9.573 Y-4.270 E13.56728
G1 X8.412 Y13.716 E13.90788
G1 X8.692 Y13.716 E13.91162
G1 X-9.573 Y-4.549 E14.25750
G1 X-9.573 Y-4.829 E14.26124
G1 X8.971 Y13.716 E14.61241
G1 X9.250 Y13.716 E14.61615
G1 X-9.573 Y-5.108 E14.97260
G1 X-9.573 Y-5.387 E14.97634
G1 X9.529 Y13.716 E15.33808
G1 X9.573 Y13.481 E15.34128
G1 X-9.573 Y-5.666 E15.70386
G1 X-9.573 Y-5.945 E15.70760
G1 X9.573 Y13.202 E16.07018
G1 X9.573 Y12.923 E16.07392
G1 X-9.573 Y-6.224 E16.43650
G1 X-9.573 Y-6.503 E16.44024
G1 X9.573 Y12.644 E16.80282
G1 X9.573 Y12.365 E16.80656
G1 X-9.573 Y-6.782 E17.16914
G1 X-9.573 Y-7.061 E17.17288
G1 X9.573 Y12.085 E17.53546
G1 X9.573 Y11.806 E17.53920
G1 X-9.573 Y-7.341 E17.90178
G1 X-9.573 Y-7.620 E17.90552
G1 X9.573 Y11.527 E18.26810
G1 X9.573 Y11.248 E18.27184
G1 X-9.573 Y-7.899 E18.63442
G1 X-9.573 Y-8.178 E18.63816
G1 X9.573 Y10.969 E19.00075
G1 X9.573 Y10.690 E19.00448
G1 X-9.573 Y-8.457 E19.36707
G1 X-9.573 Y-8.736 E19.37080
G1 X9.573 Y10.411 E19.73339
G1 X9.573 Y10.132 E19.73712
G1 X-9.573 Y-9.015 E20.09971
G1 X-9.573 Y-9.294 E20.10344
G1 X9.573 Y9.853 E20.46603
G1 X9.573 Y9.573 E20.46977
G1 X-9.573 Y-9.573 E20.83235
G1 X-9.573 Y-9.852 E20.83609
G1 X9.573 Y9.294 E21.19867
G1 X9.573 Y9.015 E21.20241
G1 X-9.573 Y-10.132 E21.56499
G1 X-9.573 Y-10.411 E21.56873
G1 X9.573 Y8.736 E21.93131
G1 X9.573 Y8.457 E21.93505
G1 X-9.573 Y-10.690 E22.29763
G1 X-9.573 Y-10.969 E22.30137
G1 X9.573 Y8.178 E22.66395
G1 X9.573 Y7.899 E22.66769
G1 X-9.573 Y-11.248 E23.03027
G1 X-9.573 Y-11.527 E23.03401
G1 X9.573 Y7.620 E23.39659
G1 X9.573 Y7.341 E23.40033
G1 X-9.573 Y-11.806 E23.76291
G1 X-9.573 Y-12.085 E23.76665
G1 X9.573 Y7.062 E24.12924
G1 X9.573 Y6.782 E24.13297
G1 X-9.573 Y-12.364 E24.49556
G1 X-9.573 Y-12.644 E24.49929
G1 X9.573 Y6.503 E24.86188
G1 X9.573 Y6.224 E24.86561
G1 X-9.573 Y-12.923 E25.22820
G1 X-9.573 Y-13.202 E25.23193
G1 X9.573 Y5.945 E25.59452
G1 X9.573 Y5.666 E25.59826
G1 X-9.573 Y-13.481 E25.96084
G1 X-9.529 Y-13.716 E25.96404
G1 X9.573 Y5.387 E26.32578
G1 X9.573 Y5.108 E26.32952
G1 X-9.250 Y-13.716 E26.68598
G1 X-8.971 Y-13.716 E26.68971
G1 X9.573 Y4.829 E27.04088
G1 X9.573 Y4.550 E27.04462
G1 X-8.692 Y-13.716 E27.39051
G1 X-8.413 Y-13.716 E27.39425
G1 X9.573 Y4.270 E27.73485
G1 X9.573 Y3.991 E27.73858
G1 X-8.134 Y-13.716 E28.07390
G1 X-7.854 Y-13.716 E28.07764
G1 X9.573 Y3.712 E28.40767
G1 X9.573 Y3.433 E28.41141
G1 X-7.575 Y-13.716 E28.73615
G1 X-7.296 Y-13.716 E28.73989
G1 X9.573 Y3.154 E29.05935
G1 X9.573 Y2.875 E29.06308
G1 X-7.017 Y-13.716 E29.37726
G1 X-6.738 Y-13.716 E29.38100
G1 X9.573 Y2.596 E29.68989
G1 X9.573 Y2.317 E29.69362
G1 X-6.459 Y-13.716 E29.99723
G1 X-6.180 Y-13.716 E30.00096
G1 X9.573 Y2.038 E30.29928
G1 X9.573 Y1.759 E30.30302
G1 X-5.901 Y-13.716 E30.59605
G1 X-5.622 Y-13.716 E30.59979
G1 X9.573 Y1.479 E30.88754
G1 X9.573 Y1.200 E30.89127
G1 X-5.342 Y-13.716 E31.17373
G1 X-5.063 Y-13.716 E31.17747
G1 X9.573 Y0.921 E31.45465
G1 X9.573 Y0.642 E31.45839
G1 X-4.784 Y-13.716 E31.73028
G1 X-4.505 Y-13.716 E31.73401
G1 X9.573 Y0.363 E32.00062
G1 X9.573 Y0.084 E32.00436
G1 X-4.226 Y-13.716 E32.26568
G1 X-3.947 Y-13.716 E32.26941
G1 X9.573 Y-0.195 E32.52545
G1 X9.573 Y-0.474 E32.52919
G1 X-3.668 Y-13.716 E32.77994
G1 X-3.389 Y-13.716 E32.78367
G1 X9.573 Y-0.753 E33.02914
G1 X9.573 Y-1.033 E33.03287
G1 X-3.110 Y-13.716 E33.27305
G1 X-2.831 Y-13.716 E33.27679
G1 X9.573 Y-1.312 E33.51168
G1 X9.573 Y-1.591 E33.51542
G1 X-2.551 Y-13.716 E33.74503
G1 X-2.272 Y-13.716 E33.74877
G1 X9.573 Y-1.870 E33.97309
G1 X9.573 Y-2.149 E33.97683
G1 X-1.993 Y-13.716 E34.19586
G1 X-1.714 Y-13.716 E34.19960
G1 X9.573 Y-2.428 E34.41335
G1 X9.573 Y-2.707 E34.41709
G1 X-1.435 Y-13.716 E34.62555
G1 X-1.156 Y-13.716 E34.62929
G1 X9.573 Y-2.986 E34.83247
G1 X9.573 Y-3.265 E34.83621
G1 X-0.877 Y-13.716 E35.03410
G1 X-0.598 Y-13.716 E35.03784
G1 X9.573 Y-3.544 E35.23045
G1 X9.573 Y-3.824 E35.23419
G1 X-0.319 Y-13.716 E35.42151
G1 X-0.039 Y-13.716 E35.42525
G1 X9.573 Y-4.103 E35.60729
G1 X9.573 Y-4.382 E35.61103
G1 X0.240 Y-13.716 E35.78778
G1 X0.519 Y-13.716 E35.79152
G1 X9.573 Y-4.661 E35.96299
G1 X9.573 Y-4.940 E35.96672
G1 X0.798 Y-13.716 E36.13291
G1 X1.077 Y-13.716 E36.13664
G1 X9.573 Y-5.219 E36.29754
G1 X9.573 Y-5.498 E36.30128
G1 X1.356 Y-13.716 E36.45689
G1 X1.635 Y-13.716 E36.46063
G1 X9.573 Y-5.777 E36.61095
G1 X9.573 Y-6.056 E36.61469
G1 X1.914 Y-13.716 E36.75973
G1 X2.193 Y-13.716 E36.76347
G1 X9.573 Y-6.336 E36.90323
G1 X9.573 Y-6.615 E36.90696
G1 X2.472 Y-13.716 E37.04143
G1 X2.752 Y-13.716 E37.04517
G1 X9.573 Y-6.894 E37.17436
G1 X9.573 Y-7.173 E37.17809
G1 X3.031 Y-13.716 E37.30199
G1 X3.310 Y-13.716 E37.30573
G1 X9.573 Y-7.452 E37.42434
G1 X9.573 Y-7.731 E37.42808
G1 X3.589 Y-13.716 E37.54141
G1 X3.868 Y-13.716 E37.54515
G1 X9.573 Y-8.010 E37.65319
G1 X9.573 Y-8.289 E37.65693
G1 X4.147 Y-13.716 E37.75969
G1 X4.426 Y-13.716 E37.76342
G1 X9.573 Y-8.568 E37.86089
G1 X9.573 Y-8.847 E37.86463
G1 X4.705 Y-13.716 E37.95682
G1 X4.984 Y-13.716 E37.96056
G1 X9.573 Y-9.127 E38.04746
G1 X9.573 Y-9.406 E38.05120
G1 X5.264 Y-13.716 E38.13281
G1 X5.543 Y-13.716 E38.13655
G1 X9.573 Y-9.685 E38.21288
G1 X9.573 Y-9.964 E38.21662
G1 X5.822 Y-13.716 E38.28766
G1 X6.101 Y-13.716 E38.29140
G1 X9.573 Y-10.243 E38.35716
G1 X9.573 Y-10.522 E38.36090
G1 X6.380 Y-13.716 E38.42137
G1 X6.659 Y-13.716 E38.42511
G1 X9.573 Y-10.801 E38.48030
G1 X9.573 Y-11.080 E38.48404
G1 X6.938 Y-13.716 E38.53394
G1 X7.217 Y-13.716 E38.53768
G1 X9.573 Y-11.359 E38.58229
G1 X9.573 Y-11.639 E38.58603
G1 X7.496 Y-13.716 E38.62537
G1 X7.775 Y-13.716 E38.62910
G1 X9.573 Y-11.918 E38.66315
G1 X9.573 Y-12.197 E38.66689
G1 X8.055 Y-13.716 E38.69565
G1 X8.334 Y-13.716 E38.69939
G1 X9.573 Y-12.476 E38.72286
G1 X9.573 Y-12.755 E38.72660
G1 X8.613 Y-13.716 E38.74479
G1 X8.892 Y-13.716 E38.74853
G1 X9.573 Y-13.034 E38.76144
G1 X9.573 Y-13.313 E38.76517
G1 X9.171 Y-13.716 E38.77279
G1 X9.450 Y-13.716 E38.77653
G1 X9.573 Y-13.592 E38.77887
G1 Z0.500 F5400.000
G1 X9.134 Y13.276 F5400.000
G1 X-9.134 Y13.276 E39.75235 F2638.131
G1 X-9.134 Y-13.276 E41.16729
G1 X9.134 Y-13.276 E42.14077
G1 X9.134 Y13.201 E43.55172
G1 X9.750 Y13.892 F5400.000
G1 X-9.750 Y13.892 E44.14226 F1978.599
G1 X-9.750 Y-13.892 E44.98369
G1 X9.750 Y-13.892 E45.57423
G1 X9.750 Y13.817 E46.41339
G1 X9.317 Y13.642 F5400.000
G1 X8.280 Y12.795 F5400.000
G1 X8.653 Y12.422 E46.44223 F3517.509
G1 X8.653 Y11.283 E46.50450
G1 X7.141 Y12.795 E46.62140
G1 X6.002 Y12.795 E46.68366
G1 X8.653 Y10.144 E46.88861
G1 X8.653 Y9.004 E46.95088
G1 X4.862 Y12.795 E47.24388
G1 X3.723 Y12.795 E47.30615
G1 X8.653 Y7.865 E47.68721
G1 X8.653 Y6.726 E47.74947
G1 X2.584 Y12.795 E48.21858
G1 X1.445 Y12.795 E48.28084
G1 X8.653 Y5.587 E48.83801
G1 X8.653 Y4.448 E48.90027
G1 X0.306 Y12.795 E49.54549
G1 X-0.834 Y12.795 E49.60775
G1 X8.653 Y3.308 E50.34103
G1 X8.653 Y2.169 E50.40329
G1 X-1.973 Y12.795 E51.22461
G1 X-3.112 Y12.795 E51.28688
G1 X8.653 Y1.030 E52.19625
G1 X8.653 Y-0.109 E52.25852
G1 X-4.251 Y12.795 E53.25595
G1 X-5.390 Y12.795 E53.31821
G1 X8.653 Y-1.248 E54.40370
G1 X8.653 Y-2.388 E54.46596
G1 X-6.530 Y12.795 E55.63950
G1 X-7.669 Y12.795 E55.70176
G1 X8.653 Y-3.527 E56.96335
G1 X8.653 Y-4.666 E57.02561
G1 X-8.653 Y12.640 E58.36328
G1 X-8.653 Y11.501 E58.42554
G1 X8.653 Y-5.805 E59.76321
G1 X8.653 Y-6.944 E59.82547
G1 X-8.653 Y10.362 E61.16314
G1 X-8.653 Y9.223 E61.22540
G1 X8.653 Y-8.084 E62.56307
G1 X8.653 Y-9.223 E62.62533
G1 X-8.653 Y8.084 E63.96300
G1 X-8.653 Y6.944 E64.02527
G1 X8.653 Y-10.362 E65.36293
G1 X8.653 Y-11.501 E65.42520
G1 X-8.653 Y5.805 E66.76286
G1 X-8.653 Y4.666 E66.82513
G1 X8.653 Y-12.640 E68.16279
G1 X7.669 Y-12.795 E68.21725
G1 X-8.653 Y3.527 E69.47884
G1 X-8.653 Y2.388 E69.54111
G1 X6.530 Y-12.795 E70.71464
G1 X5.390 Y-12.795 E70.77690
G1 X-8.653 Y1.248 E71.86239
G1 X-8.653 Y0.109 E71.92465
G1 X4.251 Y-12.795 E72.92208
G1 X3.112 Y-12.795 E72.98434
G1 X-8.653 Y-1.030 E73.89372
G1 X-8.653 Y-2.169 E73.95598
G1 X1.973 Y-12.795 E74.77731
G1 X0.834 Y-12.795 E74.83957
G1 X-8.653 Y-3.308 E75.57284
G1 X-8.653 Y-4.448 E75.63510
G1 X-0.306 Y-12.795 E76.28032
G1 X-1.445 Y-12.795 E76.34258
G1 X-8.653 Y-5.587 E76.89975
G1 X-8.653 Y-6.726 E76.96201
G1 X-2.584 Y-12.795 E77.43112
G1 X-3.723 Y-12.795 E77.49339
G1 X-8.653 Y-7.865 E77.87445
G1 X-8.653 Y-9.004 E77.93671
G1 X-4.862 Y-12.795 E78.22971
G1 X-6.002 Y-12.795 E78.29198
G1 X-8.653 Y-10.144 E78.49693
G1 X-8.653 Y-11.283 E78.55919
G1 X-7.141 Y-12.795 E78.67609
G1 X-8.280 Y-12.795 E78.73836
G1 X-8.653 Y-12.422 E78.76720
G1 Z0.750 F5400.000
G1 X9.134 Y13.276 F5400.000
G1 X-9.134 Y13.276 E79.74069 F2638.131
G1 X-9.134 Y-13.276 E81.15563
G1 X9.134 Y-13.276 E82.12911
G1 X9.134 Y13.201 E83.54005
G1 X9.750 Y13.892 F5400.000
G1 X-9.750 Y13.892 E84.13060 F1978.599
G1 X-9.750 Y-13.892 E84.97202
G1 X9.750 Y-13.892 E85.56257
G1 X9.750 Y13.817 E86.40172
G1 X9.317 Y13.642 F5400.000
G1 X-8.280 Y12.795 F5400.000
G1 X-8.653 Y12.422 E86.43057 F3517.509
G1 X-8.653 Y11.283 E86.49283
G1 X-7.141 Y12.795 E86.60973
G1 X-6.002 Y12.795 E86.67199
G1 X-8.653 Y10.144 E86.87695
G1 X-8.653 Y9.004 E86.93921
G1 X-4.862 Y12.795 E87.23222
G1 X-3.723 Y12.795 E87.29448
G1 X-8.653 Y7.865 E87.67554
G1 X-8.653 Y6.726 E87.73780
G1 X-2.584 Y12.795 E88.20691
G1 X-1.445 Y12.795 E88.26917
G1 X-8.653 Y5.587 E88.82634
G1 X-8.653 Y4.448 E88.88860
G1 X-0.306 Y12.795 E89.53382
G1 X0.834 Y12.795 E89.59608
G1 X-8.653 Y3.308 E90.32935
G1 X-8.653 Y2.169 E90.39162
G1 X1.973 Y12.795 E91.21294
G1 X3.112 Y12.795 E91.27520
G1 X-8.653 Y1.030 E92.18458
G1 X-8.653 Y-0.109 E92.24684
G1 X4.251 Y12.795 E93.24427
G1 X5.390 Y12.795 E93.30654
G1 X-8.653 Y-1.248 E94.39202
G1 X-8.653 Y-2.388 E94.45428
G1 X6.530 Y12.795 E95.62782
G1 X7.669 Y12.795 E95.69008
G1 X-8.653 Y-3.527 E96.95167
G1 X-8.653 Y-4.666 E97.01393
G1 X8.653 Y12.640 E98.35160
G1 X8.653 Y11.501 E98.41386
G1 X-8.653 Y-5.805 E99.75153
G1 X-8.653 Y-6.944 E99.81379
G1 X8.653 Y10.362 E101.15146
G1 X8.653 Y9.223 E101.21373
G1 X-8.653 Y-8.084 E102.55139
G1 X-8.653 Y-9.223 E102.61366
G1 X8.653 Y8.084 E103.95132
G1 X8.653 Y6.944 E104.01359
G1 X-8.653 Y-10.362 E105.35126
G1 X-8.653 Y-11.501 E105.41352
G1 X8.653 Y5.805 E106.75119
G1 X8.653 Y4.666 E106.81345
G1 X-8.653 Y-12.640 E108.15112
G1 X-7.669 Y-12.795 E108.20557
G1 X8.653 Y3.527 E109.46716
G1 X8.653 Y2.388 E109.52943
G1 X-6.530 Y-12.795 E110.70296
G1 X-5.390 Y-12.795 E110.76523
G1 X8.653 Y1.248 E111.85071
G1 X8.653 Y0.109 E111.91297
G1 X-4.251 Y-12.795 E112.91041
G1 X-3.112 Y-12.795 E112.97267
G1 X8.653 Y-1.030 E113.88205
G1 X8.653 Y-2.169 E113.94431
G1 X-1.973 Y-12.795 E114.76563
G1 X-0.834 Y-12.795 E114.82790
G1 X8.653 Y-3.308 E115.56117
G1 X8.653 Y-4.448 E115.62343
G1 X0.306 Y-12.795 E116.26865
G1 X1.445 Y-12.795 E116.33091
G1 X8.653 Y-5.587 E116.88808
G1 X8.653 Y-6.726 E116.95034
G1 X2.584 Y-12.795 E117.41945
G1 X3.723 Y-12.795 E117.48172
G1 X8.653 Y-7.865 E117.86278
G1 X8.653 Y-9.004 E117.92504
G1 X4.862 Y-12.795 E118.21805
G1 X6.002 Y-12.795 E118.28031
G1 X8.653 Y-10.144 E118.48526
G1 X8.653 Y-11.283 E118.54753
G1 X7.141 Y-12.795 E118.66443
G1 X8.280 Y-12.795 E118.72669
G1 X8.653 Y-12.422 E118.75554
M106 S255
G1 Z1.000 F5400.000
G1 X9.134 Y13.276 F5400.000
G1 X-9.134 Y13.276 E119.72902 F1298.866
G1 X-9.134 Y-13.276 E121.14396
G1 X9.134 Y-13.276 E122.11744
G1 X9.134 Y13.201 E123.52839
G1 X9.750 Y13.892 F5400.000
G1 X-9.750 Y13.892 E124.11893 F974.150
G1 X-9.750 Y-13.892 E124.96036
G1 X9.750 Y-13.892 E125.55090
G1 X9.750 Y13.817 E126.39006
G1 X9.317 Y13.642 F5400.000
G1 X4.382 Y12.795 F5400.000
G1 X8.653 Y8.524 E126.71195 F1731.821
G1 X8.653 Y2.970 E127.00789
G1 X-1.172 Y12.795 E127.74832
G1 X-6.725 Y12.795 E128.04426
G1 X8.653 Y-2.583 E129.20321
G1 X8.653 Y-8.137 E129.49915
