M280 P0 S-90
G4 S100
M280 P1 S90
G4 S100
; generated by Slic3r 1.2.9 on 2016-04-06 at 12:54:43

; external perimeters extrusion width = 0.50mm
; perimeters extrusion width = 0.84mm
; infill extrusion width = 0.84mm
; solid infill extrusion width = 0.84mm
; top infill extrusion width = 0.84mm

M107
M190 S56 ; set bed temperature
M104 S230 ; set temperature
G1 X28 Y33.752 Z-20 F5000

M109 S230 ; wait for temperature to be reached
G21 ; set units to millimeters
G90 ; use absolute coordinates
M82 ; use absolute distances for extrusion
G92 E0
G1 X28 Y38.502 Z-20 F5400.000
G1 X37.804 Y38.502 Z-10.196 F5400.000
G1 X18.196 Y38.502 Z-10.196 E0.26121
G1 X18.196 Y38.502 Z-29.804 E0.52242
G1 X37.804 Y38.502 Z-29.804 E0.78363
G1 X37.804 Y38.502 Z-10.271 E1.04384
G1 X38 Y38.502 Z-10 F5400.000
G1 X18 Y38.502 Z-10 E1.31028
G1 X18 Y38.502 Z-30 E1.57672
G1 X38 Y38.502 Z-30 E1.84317
G1 X38 Y38.502 Z-10.075 E2.10861
G1 X37.567 Y38.502 Z-10.25 F5400.000
G1 X37.698 Y38.502 Z-29.575 F5400.000
G1 X37.575 Y38.502 Z-29.698 E2.11095
G1 X37.296 Y38.502 Z-29.698 E2.11469
G1 X37.698 Y38.502 Z-29.296 E2.12232
G1 X37.698 Y38.502 Z-29.016 E2.12606
G1 X37.016 Y38.502 Z-29.698 E2.13899
G1 X36.737 Y38.502 Z-29.698 E2.14273
G1 X37.698 Y38.502 Z-28.737 E2.16095
G1 X37.698 Y38.502 Z-28.458 E2.16469
G1 X36.458 Y38.502 Z-29.698 E2.18820
G1 X36.178 Y38.502 Z-29.698 E2.19195
G1 X37.698 Y38.502 Z-28.178 E2.22075
G1 X37.698 Y38.502 Z-27.899 E2.22450
G1 X35.899 Y38.502 Z-29.698 E2.25860
G1 X35.62 Y38.502 Z-29.698 E2.26234
G1 X37.698 Y38.502 Z-27.62 E2.30173
G1 X37.698 Y38.502 Z-27.341 E2.30548
G1 X35.34 Y38.502 Z-29.698 E2.35016
G1 X35.061 Y38.502 Z-29.698 E2.35391
G1 X37.698 Y38.502 Z-27.061 E2.40389
G1 X37.698 Y38.502 Z-26.782 E2.40763
G1 X34.782 Y38.502 Z-29.698 E2.46291
G1 X34.503 Y38.502 Z-29.698 E2.46665
G1 X37.698 Y38.502 Z-26.503 E2.52722
G1 X37.698 Y38.502 Z-26.223 E2.53096
G1 X34.223 Y38.502 Z-29.698 E2.59683
G1 X33.944 Y38.502 Z-29.698 E2.60057
G1 X37.698 Y38.502 Z-25.944 E2.67173
G1 X37.698 Y38.502 Z-25.665 E2.67547
G1 X33.665 Y38.502 Z-29.698 E2.75192
G1 X33.385 Y38.502 Z-29.698 E2.75566
G1 X37.698 Y38.502 Z-25.385 E2.83741
G1 X37.698 Y38.502 Z-25.106 E2.84115
G1 X33.106 Y38.502 Z-29.698 E2.92819
G1 X32.827 Y38.502 Z-29.698 E2.93193
G1 X37.698 Y38.502 Z-24.827 E3.02426
G1 X37.698 Y38.502 Z-24.547 E3.02801
G1 X32.547 Y38.502 Z-29.698 E3.12563
G1 X32.268 Y38.502 Z-29.698 E3.12938
G1 X37.698 Y38.502 Z-24.268 E3.23230
G1 X37.698 Y38.502 Z-23.989 E3.23604
G1 X31.989 Y38.502 Z-29.698 E3.34425
G1 X31.709 Y38.502 Z-29.698 E3.34800
G1 X37.698 Y38.502 Z-23.709 E3.46150
G1 X37.698 Y38.502 Z-23.43 E3.46525
G1 X31.43 Y38.502 Z-29.698 E3.58405
G1 X31.151 Y38.502 Z-29.698 E3.58779
G1 X37.698 Y38.502 Z-23.151 E3.71189
G1 X37.698 Y38.502 Z-22.871 E3.71563
G1 X30.871 Y38.502 Z-29.698 E3.84502
G1 X30.592 Y38.502 Z-29.698 E3.84876
G1 X37.698 Y38.502 Z-22.592 E3.98344
G1 X37.698 Y38.502 Z-22.313 E3.98719
G1 X30.313 Y38.502 Z-29.698 E4.12716
G1 X30.033 Y38.502 Z-29.698 E4.13091
G1 X37.698 Y38.502 Z-22.033 E4.27618
G1 X37.698 Y38.502 Z-21.754 E4.27992
G1 X29.754 Y38.502 Z-29.698 E4.43048
G1 X29.475 Y38.502 Z-29.698 E4.43423
G1 X37.698 Y38.502 Z-21.475 E4.59009
G1 X37.698 Y38.502 Z-21.195 E4.59383
G1 X29.195 Y38.502 Z-29.698 E4.75498
G1 X28.916 Y38.502 Z-29.698 E4.75872
G1 X37.698 Y38.502 Z-20.916 E4.92517
G1 X37.698 Y38.502 Z-20.637 E4.92891
G1 X28.637 Y38.502 Z-29.698 E5.10065
G1 X28.357 Y38.502 Z-29.698 E5.10439
G1 X37.698 Y38.502 Z-20.357 E5.28143
G1 X37.698 Y38.502 Z-20.078 E5.28517
G1 X28.078 Y38.502 Z-29.698 E5.46750
G1 X27.799 Y38.502 Z-29.698 E5.47124
G1 X37.698 Y38.502 Z-19.799 E5.65886
G1 X37.698 Y38.502 Z-19.519 E5.66261
G1 X27.519 Y38.502 Z-29.698 E5.85552
G1 X27.24 Y38.502 Z-29.698 E5.85926
G1 X37.698 Y38.502 Z-19.24 E6.05747
G1 X37.698 Y38.502 Z-18.961 E6.06122
G1 X26.961 Y38.502 Z-29.698 E6.26472
G1 X26.681 Y38.502 Z-29.698 E6.26846
G1 X37.698 Y38.502 Z-18.681 E6.47726
G1 X37.698 Y38.502 Z-18.402 E6.48100
G1 X26.402 Y38.502 Z-29.698 E6.69509
G1 X26.123 Y38.502 Z-29.698 E6.69883
G1 X37.698 Y38.502 Z-18.123 E6.91822
G1 X37.698 Y38.502 Z-17.843 E6.92196
G1 X25.843 Y38.502 Z-29.698 E7.14664
G1 X25.564 Y38.502 Z-29.698 E7.15038
G1 X37.698 Y38.502 Z-17.564 E7.38035
G1 X37.698 Y38.502 Z-17.285 E7.38410
G1 X25.285 Y38.502 Z-29.698 E7.61936
G1 X25.005 Y38.502 Z-29.698 E7.62310
G1 X37.698 Y38.502 Z-17.005 E7.86366
G1 X37.698 Y38.502 Z-16.726 E7.86741
G1 X24.726 Y38.502 Z-29.698 E8.11326
G1 X24.447 Y38.502 Z-29.698 E8.11700
G1 X37.698 Y38.502 Z-16.447 E8.36815
G1 X37.698 Y38.502 Z-16.167 E8.37189
G1 X24.167 Y38.502 Z-29.698 E8.62833
G1 X23.888 Y38.502 Z-29.698 E8.63208
G1 X37.698 Y38.502 Z-15.888 E8.89381
G1 X37.698 Y38.502 Z-15.609 E8.89755
G1 X23.609 Y38.502 Z-29.698 E9.16458
G1 X23.329 Y38.502 Z-29.698 E9.16833
G1 X37.698 Y38.502 Z-15.329 E9.44065
G1 X37.698 Y38.502 Z-15.05 E9.44439
G1 X23.05 Y38.502 Z-29.698 E9.72201
G1 X22.771 Y38.502 Z-29.698 E9.72575
G1 X37.698 Y38.502 Z-14.771 E10.00866
G1 X37.698 Y38.502 Z-14.491 E10.01240
G1 X22.491 Y38.502 Z-29.698 E10.30061
G1 X22.212 Y38.502 Z-29.698 E10.30435
G1 X37.698 Y38.502 Z-14.212 E10.59785
G1 X37.698 Y38.502 Z-13.933 E10.60159
G1 X21.933 Y38.502 Z-29.698 E10.90038
G1 X21.653 Y38.502 Z-29.698 E10.90413
G1 X37.698 Y38.502 Z-13.653 E11.20821
G1 X37.698 Y38.502 Z-13.374 E11.21195
G1 X21.374 Y38.502 Z-29.698 E11.52133
G1 X21.095 Y38.502 Z-29.698 E11.52508
G1 X37.698 Y38.502 Z-13.095 E11.83975
G1 X37.698 Y38.502 Z-12.815 E11.84349
G1 X20.815 Y38.502 Z-29.698 E12.16346
G1 X20.536 Y38.502 Z-29.698 E12.16720
G1 X37.698 Y38.502 Z-12.536 E12.49246
G1 X37.698 Y38.502 Z-12.257 E12.49621
G1 X20.257 Y38.502 Z-29.698 E12.82676
G1 X19.977 Y38.502 Z-29.698 E12.83050
G1 X37.698 Y38.502 Z-11.977 E13.16635
G1 X37.698 Y38.502 Z-11.698 E13.17009
G1 X19.698 Y38.502 Z-29.698 E13.51124
G1 X19.419 Y38.502 Z-29.698 E13.51498
G1 X37.698 Y38.502 Z-11.419 E13.86141
G1 X37.698 Y38.502 Z-11.14 E13.86516
G1 X19.14 Y38.502 Z-29.698 E14.21689
G1 X18.86 Y38.502 Z-29.698 E14.22063
G1 X37.698 Y38.502 Z-10.86 E14.57765
G1 X37.698 Y38.502 Z-10.581 E14.58140
G1 X18.581 Y38.502 Z-29.698 E14.94371
G1 X18.322 Y38.502 Z-29.678 E14.94720
G1 X37.678 Y38.502 Z-10.322 E15.31405
G1 X37.419 Y38.502 Z-10.302 E15.31754
G1 X18.302 Y38.502 Z-29.419 E15.67985
G1 X18.302 Y38.502 Z-29.14 E15.68360
G1 X37.14 Y38.502 Z-10.302 E16.04062
G1 X36.86 Y38.502 Z-10.302 E16.04436
G1 X18.302 Y38.502 Z-28.86 E16.39609
G1 X18.302 Y38.502 Z-28.581 E16.39983
G1 X36.581 Y38.502 Z-10.302 E16.74626
G1 X36.302 Y38.502 Z-10.302 E16.75001
G1 X18.302 Y38.502 Z-28.302 E17.09115
G1 X18.302 Y38.502 Z-28.022 E17.09489
G1 X36.022 Y38.502 Z-10.302 E17.43074
G1 X35.743 Y38.502 Z-10.302 E17.43448
G1 X18.302 Y38.502 Z-27.743 E17.76503
G1 X18.302 Y38.502 Z-27.464 E17.76878
G1 X35.464 Y38.502 Z-10.302 E18.09403
G1 X35.184 Y38.502 Z-10.302 E18.09778
G1 X18.302 Y38.502 Z-27.184 E18.41774
G1 X18.302 Y38.502 Z-26.905 E18.42149
G1 X34.905 Y38.502 Z-10.302 E18.73616
G1 X34.626 Y38.502 Z-10.302 E18.73990
G1 X18.302 Y38.502 Z-26.626 E19.04928
G1 X18.302 Y38.502 Z-26.346 E19.05302
G1 X34.346 Y38.502 Z-10.302 E19.35710
G1 X34.067 Y38.502 Z-10.302 E19.36085
G1 X18.302 Y38.502 Z-26.067 E19.65963
G1 X18.302 Y38.502 Z-25.788 E19.66338
G1 X33.788 Y38.502 Z-10.302 E19.95687
G1 X33.508 Y38.502 Z-10.302 E19.96062
G1 X18.302 Y38.502 Z-25.508 E20.24882
G1 X18.302 Y38.502 Z-25.229 E20.25256
G1 X33.229 Y38.502 Z-10.302 E20.53547
G1 X32.95 Y38.502 Z-10.302 E20.53921
G1 X18.302 Y38.502 Z-24.95 E20.81683
G1 X18.302 Y38.502 Z-24.67 E20.82057
G1 X32.67 Y38.502 Z-10.302 E21.09289
G1 X32.391 Y38.502 Z-10.302 E21.09663
G1 X18.302 Y38.502 Z-24.391 E21.36366
G1 X18.302 Y38.502 Z-24.112 E21.36740
G1 X32.112 Y38.502 Z-10.302 E21.62913
G1 X31.832 Y38.502 Z-10.302 E21.63288
G1 X18.302 Y38.502 Z-23.832 E21.88932
G1 X18.302 Y38.502 Z-23.553 E21.89306
G1 X31.553 Y38.502 Z-10.302 E22.14420
G1 X31.274 Y38.502 Z-10.302 E22.14795
G1 X18.302 Y38.502 Z-23.274 E22.39380
G1 X18.302 Y38.502 Z-22.995 E22.39754
G1 X30.995 Y38.502 Z-10.302 E22.63810
G1 X30.715 Y38.502 Z-10.302 E22.64184
G1 X18.302 Y38.502 Z-22.715 E22.87711
G1 X18.302 Y38.502 Z-22.436 E22.88085
G1 X30.436 Y38.502 Z-10.302 E23.11082
G1 X30.157 Y38.502 Z-10.302 E23.11456
G1 X18.302 Y38.502 Z-22.157 E23.33924
G1 X18.302 Y38.502 Z-21.877 E23.34298
G1 X29.877 Y38.502 Z-10.302 E23.56236
G1 X29.598 Y38.502 Z-10.302 E23.56611
G1 X18.302 Y38.502 Z-21.598 E23.78019
G1 X18.302 Y38.502 Z-21.319 E23.78394
G1 X29.319 Y38.502 Z-10.302 E23.99273
G1 X29.039 Y38.502 Z-10.302 E23.99647
G1 X18.302 Y38.502 Z-21.039 E24.19997
G1 X18.302 Y38.502 Z-20.76 E24.20372
G1 X28.76 Y38.502 Z-10.302 E24.40192
G1 X28.481 Y38.502 Z-10.302 E24.40567
G1 X18.302 Y38.502 Z-20.481 E24.59858
G1 X18.302 Y38.502 Z-20.201 E24.60232
G1 X28.201 Y38.502 Z-10.302 E24.78994
G1 X27.922 Y38.502 Z-10.302 E24.79368
G1 X18.302 Y38.502 Z-19.922 E24.97601
G1 X18.302 Y38.502 Z-19.643 E24.97975
G1 X27.643 Y38.502 Z-10.302 E25.15678
G1 X27.363 Y38.502 Z-10.302 E25.16053
G1 X18.302 Y38.502 Z-19.363 E25.33226
G1 X18.302 Y38.502 Z-19.084 E25.33601
G1 X27.084 Y38.502 Z-10.302 E25.50245
G1 X26.805 Y38.502 Z-10.302 E25.50619
G1 X18.302 Y38.502 Z-18.805 E25.66734
G1 X18.302 Y38.502 Z-18.525 E25.67109
G1 X26.525 Y38.502 Z-10.302 E25.82694
G1 X26.246 Y38.502 Z-10.302 E25.83069
G1 X18.302 Y38.502 Z-18.246 E25.98125
G1 X18.302 Y38.502 Z-17.967 E25.98499
G1 X25.967 Y38.502 Z-10.302 E26.13026
G1 X25.687 Y38.502 Z-10.302 E26.13400
G1 X18.302 Y38.502 Z-17.687 E26.27398
G1 X18.302 Y38.502 Z-17.408 E26.27772
G1 X25.408 Y38.502 Z-10.302 E26.41240
G1 X25.129 Y38.502 Z-10.302 E26.41615
G1 X18.302 Y38.502 Z-17.129 E26.54553
G1 X18.302 Y38.502 Z-16.849 E26.54928
G1 X24.849 Y38.502 Z-10.302 E26.67337
G1 X24.57 Y38.502 Z-10.302 E26.67711
G1 X18.302 Y38.502 Z-16.57 E26.79591
G1 X18.302 Y38.502 Z-16.291 E26.79965
G1 X24.291 Y38.502 Z-10.302 E26.91316
G1 X24.011 Y38.502 Z-10.302 E26.91690
G1 X18.302 Y38.502 Z-16.011 E27.02511
G1 X18.302 Y38.502 Z-15.732 E27.02886
G1 X23.732 Y38.502 Z-10.302 E27.13177
G1 X23.453 Y38.502 Z-10.302 E27.13552
G1 X18.302 Y38.502 Z-15.453 E27.23314
G1 X18.302 Y38.502 Z-15.173 E27.23688
G1 X23.173 Y38.502 Z-10.302 E27.32921
G1 X22.894 Y38.502 Z-10.302 E27.33296
G1 X18.302 Y38.502 Z-14.894 E27.41999
G1 X18.302 Y38.502 Z-14.615 E27.42374
G1 X22.615 Y38.502 Z-10.302 E27.50548
G1 X22.335 Y38.502 Z-10.302 E27.50922
G1 X18.302 Y38.502 Z-14.335 E27.58567
G1 X18.302 Y38.502 Z-14.056 E27.58941
G1 X22.056 Y38.502 Z-10.302 E27.66057
G1 X21.777 Y38.502 Z-10.302 E27.66431
G1 X18.302 Y38.502 Z-13.777 E27.73017
G1 X18.302 Y38.502 Z-13.497 E27.73392
G1 X21.497 Y38.502 Z-10.302 E27.79448
G1 X21.218 Y38.502 Z-10.302 E27.79823
G1 X18.302 Y38.502 Z-13.218 E27.85350
G1 X18.302 Y38.502 Z-12.939 E27.85724
G1 X20.939 Y38.502 Z-10.302 E27.90722
G1 X20.659 Y38.502 Z-10.302 E27.91097
G1 X18.302 Y38.502 Z-12.659 E27.95565
G1 X18.302 Y38.502 Z-12.38 E27.95939
G1 X20.38 Y38.502 Z-10.302 E27.99879
G1 X20.101 Y38.502 Z-10.302 E28.00253
G1 X18.302 Y38.502 Z-12.101 E28.03663
G1 X18.302 Y38.502 Z-11.821 E28.04037
G1 X19.821 Y38.502 Z-10.302 E28.06917
G1 X19.542 Y38.502 Z-10.302 E28.07292
G1 X18.302 Y38.502 Z-11.542 E28.09643
G1 X18.302 Y38.502 Z-11.263 E28.10017
G1 X19.263 Y38.502 Z-10.302 E28.11839
G1 X18.983 Y38.502 Z-10.302 E28.12213
G1 X18.302 Y38.502 Z-10.983 E28.13505
G1 X18.302 Y38.502 Z-10.704 E28.13880
G1 X18.704 Y38.502 Z-10.302 E28.14642
G1 X18.425 Y38.502 Z-10.302 E28.15017
G1 X18.302 Y38.502 Z-10.425 E28.15250
G1 X18.302 Y38.252 Z-10.425 F5400.000
G1 X37.509 Y38.252 Z-10.491 F5400.000
G1 X18.491 Y38.252 Z-10.491 E29.16595
G1 X18.491 Y38.252 Z-29.509 E30.17940
G1 X37.509 Y38.252 Z-29.509 E31.19286
G1 X37.509 Y38.252 Z-10.566 E32.20231
G1 X38.125 Y38.252 Z-9.875 F5400.000
G1 X17.875 Y38.252 Z-9.875 E32.81557
G1 X17.875 Y38.252 Z-30.125 E33.42882
G1 X38.125 Y38.252 Z-30.125 E34.04208
G1 X38.125 Y38.252 Z-9.95 E34.65307
G1 X37.692 Y38.252 Z-10.125 F5400.000
G1 X36.655 Y38.252 Z-10.972 F5400.000
G1 X37.028 Y38.252 Z-11.345 E34.68195
G1 X37.028 Y38.252 Z-12.486 E34.74440
G1 X35.514 Y38.252 Z-10.972 E34.86159
G1 X34.373 Y38.252 Z-10.972 E34.92404
G1 X37.028 Y38.252 Z-13.627 E35.12954
G1 X37.028 Y38.252 Z-14.768 E35.19198
G1 X33.232 Y38.252 Z-10.972 E35.48579
G1 X32.092 Y38.252 Z-10.972 E35.54824
G1 X37.028 Y38.252 Z-15.908 E35.93035
G1 X37.028 Y38.252 Z-17.049 E35.99280
G1 X30.951 Y38.252 Z-10.972 E36.46322
G1 X29.81 Y38.252 Z-10.972 E36.52566
G1 X37.028 Y38.252 Z-18.19 E37.08440
G1 X37.028 Y38.252 Z-19.331 E37.14684
G1 X28.669 Y38.252 Z-10.972 E37.79388
G1 X27.528 Y38.252 Z-10.972 E37.85632
G1 X37.028 Y38.252 Z-20.472 E38.59167
G1 X37.028 Y38.252 Z-21.613 E38.65411
G1 X26.387 Y38.252 Z-10.972 E39.47777
G1 X25.246 Y38.252 Z-10.972 E39.54021
G1 X37.028 Y38.252 Z-22.754 E40.45217
G1 X37.028 Y38.252 Z-23.894 E40.51461
G1 X24.106 Y38.252 Z-10.972 E41.51488
G1 X22.965 Y38.252 Z-10.972 E41.57733
G1 X37.028 Y38.252 Z-25.035 E42.66590
G1 X37.028 Y38.252 Z-26.176 E42.72835
G1 X21.824 Y38.252 Z-10.972 E43.90523
G1 X20.683 Y38.252 Z-10.972 E43.96767
G1 X37.028 Y38.252 Z-27.317 E45.23286
G1 X37.028 Y38.252 Z-28.458 E45.29531
G1 X19.542 Y38.252 Z-10.972 E46.64880
G1 X18.972 Y38.252 Z-11.542 E46.69296
G1 X36.458 Y38.252 Z-29.028 E48.04645
G1 X35.317 Y38.252 Z-29.028 E48.10890
G1 X18.972 Y38.252 Z-12.683 E49.37409
G1 X18.972 Y38.252 Z-13.824 E49.43653
G1 X34.176 Y38.252 Z-29.028 E50.61341
G1 X33.035 Y38.252 Z-29.028 E50.67586
G1 X18.972 Y38.252 Z-14.965 E51.76443
G1 X18.972 Y38.252 Z-16.106 E51.82687
G1 X31.894 Y38.252 Z-29.028 E52.82714
G1 X30.754 Y38.252 Z-29.028 E52.88959
G1 X18.972 Y38.252 Z-17.246 E53.80155
G1 X18.972 Y38.252 Z-18.387 E53.86399
G1 X29.613 Y38.252 Z-29.028 E54.68764
G1 X28.472 Y38.252 Z-29.028 E54.75009
G1 X18.972 Y38.252 Z-19.528 E55.48543
G1 X18.972 Y38.252 Z-20.669 E55.54787
G1 X27.331 Y38.252 Z-29.028 E56.19491
G1 X26.19 Y38.252 Z-29.028 E56.25736
G1 X18.972 Y38.252 Z-21.81 E56.81609
G1 X18.972 Y38.252 Z-22.951 E56.87853
G1 X25.049 Y38.252 Z-29.028 E57.34896
G1 X23.908 Y38.252 Z-29.028 E57.41140
G1 X18.972 Y38.252 Z-24.092 E57.79352
G1 X18.972 Y38.252 Z-25.232 E57.85596
G1 X22.768 Y38.252 Z-29.028 E58.14977
G1 X21.627 Y38.252 Z-29.028 E58.21221
G1 X18.972 Y38.252 Z-26.373 E58.41771
G1 X18.972 Y38.252 Z-27.514 E58.48016
G1 X20.486 Y38.252 Z-29.028 E58.59735
G1 X19.345 Y38.252 Z-29.028 E58.65979
G1 X18.972 Y38.252 Z-28.655 E58.68868
G1 X18.972 Y38.002 Z-28.655 F5400.000
G1 X37.759 Y38.002 Z-10.241 F5400.000
G1 X18.241 Y38.002 Z-10.241 E59.72878
G1 X18.241 Y38.002 Z-29.759 E60.76887
G1 X37.759 Y38.002 Z-29.759 E61.80897
G1 X37.759 Y38.002 Z-10.316 E62.84507
G1 X38.375 Y38.002 Z-9.625 F5400.000
G1 X17.625 Y38.002 Z-9.625 E63.47347
G1 X17.625 Y38.002 Z-30.375 E64.10186
G1 X38.375 Y38.002 Z-30.375 E64.73026
G1 X38.375 Y38.002 Z-9.7 E65.35639
G1 X37.942 Y38.002 Z-9.875 F5400.000
G1 X37.028 Y38.002 Z-28.655 F5400.000
G1 X36.655 Y38.002 Z-29.028 E65.38528
G1 X35.514 Y38.002 Z-29.028 E65.44772
G1 X37.028 Y38.002 Z-27.514 E65.56492
G1 X37.028 Y38.002 Z-26.373 E65.62736
G1 X34.373 Y38.002 Z-29.028 E65.83286
G1 X33.232 Y38.002 Z-29.028 E65.89530
G1 X37.028 Y38.002 Z-25.232 E66.18911
G1 X37.028 Y38.002 Z-24.092 E66.25156
G1 X32.092 Y38.002 Z-29.028 E66.63367
G1 X30.951 Y38.002 Z-29.028 E66.69612
G1 X37.028 Y38.002 Z-22.951 E67.16654
G1 X37.028 Y38.002 Z-21.81 E67.22898
G1 X29.81 Y38.002 Z-29.028 E67.78771
G1 X28.669 Y38.002 Z-29.028 E67.85015
G1 X37.028 Y38.002 Z-20.669 E68.49719
G1 X37.028 Y38.002 Z-19.528 E68.55963
G1 X27.528 Y38.002 Z-29.028 E69.29498
G1 X26.387 Y38.002 Z-29.028 E69.35742
G1 X37.028 Y38.002 Z-18.387 E70.18107
G1 X37.028 Y38.002 Z-17.246 E70.24351
G1 X25.246 Y38.002 Z-29.028 E71.15547
G1 X24.106 Y38.002 Z-29.028 E71.21791
G1 X37.028 Y38.002 Z-16.106 E72.21818
G1 X37.028 Y38.002 Z-14.965 E72.28062
G1 X22.965 Y38.002 Z-29.028 E73.36919
G1 X21.824 Y38.002 Z-29.028 E73.43163
G1 X37.028 Y38.002 Z-13.824 E74.60851
G1 X37.028 Y38.002 Z-12.683 E74.67095
G1 X20.683 Y38.002 Z-29.028 E75.93614
G1 X19.542 Y38.002 Z-29.028 E75.99858
G1 X37.028 Y38.002 Z-11.542 E77.35207
G1 X36.458 Y38.002 Z-10.972 E77.39623
G1 X18.972 Y38.002 Z-28.458 E78.74972
