; generated by Slic3r 1.2.9 on 2016-04-08 at 14:15:36

; external perimeters extrusion width = 0.50mm
; perimeters extrusion width = 0.84mm
; infill extrusion width = 0.84mm
; solid infill extrusion width = 0.84mm
; top infill extrusion width = 0.84mm

M107
M190 S56 ; set bed temperature
M104 S230 ; set temperature
G1 Z5 F5000 ; lift nozzle

M109 S230 ; wait for temperature to be reached
G21 ; set units to millimeters
G90 ; use absolute coordinates
M82 ; use absolute distances for extrusion
G92 E0
G1 Z0.250 F5400.000
G1 X9.804 Y9.804 F5400.000
G1 X-9.804 Y9.804 E0.26121 F1350.000
G1 X-9.804 Y-9.804 E0.52242
G1 X9.804 Y-9.804 E0.78363
G1 X9.804 Y9.729 E1.04384
G1 X10.000 Y10.000 F5400.000
G1 X-10.000 Y10.000 E1.31028 F1012.500
G1 X-10.000 Y-10.000 E1.57672
G1 X10.000 Y-10.000 E1.84317
G1 X10.000 Y9.925 E2.10861
G1 X9.567 Y9.750 F5400.000
G1 X9.698 Y-9.575 F5400.000
G1 X9.575 Y-9.698 E2.11095 F1800.000
G1 X9.296 Y-9.698 E2.11469
G1 X9.698 Y-9.296 E2.12232
G1 X9.698 Y-9.016 E2.12606
G1 X9.016 Y-9.698 E2.13899
G1 X8.737 Y-9.698 E2.14273
G1 X9.698 Y-8.737 E2.16095
G1 X9.698 Y-8.458 E2.16469
G1 X8.458 Y-9.698 E2.18820
G1 X8.178 Y-9.698 E2.19195
G1 X9.698 Y-8.178 E2.22075
G1 X9.698 Y-7.899 E2.22450
G1 X7.899 Y-9.698 E2.25860
G1 X7.620 Y-9.698 E2.26234
G1 X9.698 Y-7.620 E2.30173
G1 X9.698 Y-7.341 E2.30548
G1 X7.340 Y-9.698 E2.35016
G1 X7.061 Y-9.698 E2.35391
G1 X9.698 Y-7.061 E2.40389
G1 X9.698 Y-6.782 E2.40763
G1 X6.782 Y-9.698 E2.46291
G1 X6.503 Y-9.698 E2.46665
G1 X9.698 Y-6.503 E2.52722
G1 X9.698 Y-6.223 E2.53096
G1 X6.223 Y-9.698 E2.59683
G1 X5.944 Y-9.698 E2.60057
G1 X9.698 Y-5.944 E2.67173
G1 X9.698 Y-5.665 E2.67547
G1 X5.665 Y-9.698 E2.75192
G1 X5.385 Y-9.698 E2.75566
G1 X9.698 Y-5.385 E2.83741
G1 X9.698 Y-5.106 E2.84115
G1 X5.106 Y-9.698 E2.92819
G1 X4.827 Y-9.698 E2.93193
G1 X9.698 Y-4.827 E3.02426
G1 X9.698 Y-4.547 E3.02801
G1 X4.547 Y-9.698 E3.12563
G1 X4.268 Y-9.698 E3.12938
G1 X9.698 Y-4.268 E3.23230
G1 X9.698 Y-3.989 E3.23604
G1 X3.989 Y-9.698 E3.34425
G1 X3.709 Y-9.698 E3.34800
G1 X9.698 Y-3.709 E3.46150
G1 X9.698 Y-3.430 E3.46525
G1 X3.430 Y-9.698 E3.58405
G1 X3.151 Y-9.698 E3.58779
G1 X9.698 Y-3.151 E3.71189
G1 X9.698 Y-2.871 E3.71563
G1 X2.871 Y-9.698 E3.84502
G1 X2.592 Y-9.698 E3.84876
G1 X9.698 Y-2.592 E3.98344
G1 X9.698 Y-2.313 E3.98719
G1 X2.313 Y-9.698 E4.12716
G1 X2.033 Y-9.698 E4.13091
G1 X9.698 Y-2.033 E4.27618
G1 X9.698 Y-1.754 E4.27992
G1 X1.754 Y-9.698 E4.43048
G1 X1.475 Y-9.698 E4.43423
G1 X9.698 Y-1.475 E4.59009
G1 X9.698 Y-1.195 E4.59383
G1 X1.195 Y-9.698 E4.75498
G1 X0.916 Y-9.698 E4.75872
G1 X9.698 Y-0.916 E4.92517
G1 X9.698 Y-0.637 E4.92891
G1 X0.637 Y-9.698 E5.10065
G1 X0.357 Y-9.698 E5.10439
G1 X9.698 Y-0.357 E5.28143
G1 X9.698 Y-0.078 E5.28517
G1 X0.078 Y-9.698 E5.46750
G1 X-0.201 Y-9.698 E5.47124
G1 X9.698 Y0.201 E5.65886
G1 X9.698 Y0.481 E5.66261
G1 X-0.481 Y-9.698 E5.85552
G1 X-0.760 Y-9.698 E5.85926
G1 X9.698 Y0.760 E6.05747
G1 X9.698 Y1.039 E6.06122
G1 X-1.039 Y-9.698 E6.26472
G1 X-1.319 Y-9.698 E6.26846
G1 X9.698 Y1.319 E6.47726
G1 X9.698 Y1.598 E6.48100
G1 X-1.598 Y-9.698 E6.69509
G1 X-1.877 Y-9.698 E6.69883
G1 X9.698 Y1.877 E6.91822
G1 X9.698 Y2.157 E6.92196
G1 X-2.157 Y-9.698 E7.14664
G1 X-2.436 Y-9.698 E7.15038
G1 X9.698 Y2.436 E7.38035
G1 X9.698 Y2.715 E7.38410
G1 X-2.715 Y-9.698 E7.61936
G1 X-2.995 Y-9.698 E7.62310
G1 X9.698 Y2.995 E7.86366
G1 X9.698 Y3.274 E7.86741
G1 X-3.274 Y-9.698 E8.11326
G1 X-3.553 Y-9.698 E8.11700
G1 X9.698 Y3.553 E8.36815
G1 X9.698 Y3.833 E8.37189
G1 X-3.833 Y-9.698 E8.62833
G1 X-4.112 Y-9.698 E8.63208
G1 X9.698 Y4.112 E8.89381
G1 X9.698 Y4.391 E8.89755
G1 X-4.391 Y-9.698 E9.16458
G1 X-4.671 Y-9.698 E9.16833
G1 X9.698 Y4.671 E9.44065
G1 X9.698 Y4.950 E9.44439
G1 X-4.950 Y-9.698 E9.72201
G1 X-5.229 Y-9.698 E9.72575
G1 X9.698 Y5.229 E10.00866
G1 X9.698 Y5.509 E10.01240
G1 X-5.509 Y-9.698 E10.30061
G1 X-5.788 Y-9.698 E10.30435
G1 X9.698 Y5.788 E10.59785
G1 X9.698 Y6.067 E10.60159
G1 X-6.067 Y-9.698 E10.90038
G1 X-6.347 Y-9.698 E10.90413
G1 X9.698 Y6.347 E11.20821
G1 X9.698 Y6.626 E11.21195
G1 X-6.626 Y-9.698 E11.52133
G1 X-6.905 Y-9.698 E11.52508
G1 X9.698 Y6.905 E11.83975
G1 X9.698 Y7.185 E11.84349
G1 X-7.185 Y-9.698 E12.16346
G1 X-7.464 Y-9.698 E12.16720
G1 X9.698 Y7.464 E12.49246
G1 X9.698 Y7.743 E12.49621
G1 X-7.743 Y-9.698 E12.82676
G1 X-8.023 Y-9.698 E12.83050
G1 X9.698 Y8.023 E13.16635
G1 X9.698 Y8.302 E13.17009
G1 X-8.302 Y-9.698 E13.51124
G1 X-8.581 Y-9.698 E13.51498
G1 X9.698 Y8.581 E13.86141
G1 X9.698 Y8.860 E13.86516
G1 X-8.860 Y-9.698 E14.21689
G1 X-9.140 Y-9.698 E14.22063
G1 X9.698 Y9.140 E14.57765
G1 X9.698 Y9.419 E14.58140
G1 X-9.419 Y-9.698 E14.94371
G1 X-9.678 Y-9.678 E14.94720
G1 X9.678 Y9.678 E15.31405
G1 X9.419 Y9.698 E15.31754
G1 X-9.698 Y-9.419 E15.67985
G1 X-9.698 Y-9.140 E15.68360
G1 X9.140 Y9.698 E16.04062
G1 X8.860 Y9.698 E16.04436
G1 X-9.698 Y-8.860 E16.39609
G1 X-9.698 Y-8.581 E16.39983
G1 X8.581 Y9.698 E16.74626
G1 X8.302 Y9.698 E16.75001
G1 X-9.698 Y-8.302 E17.09115
G1 X-9.698 Y-8.022 E17.09489
G1 X8.022 Y9.698 E17.43074
G1 X7.743 Y9.698 E17.43448
G1 X-9.698 Y-7.743 E17.76503
G1 X-9.698 Y-7.464 E17.76878
G1 X7.464 Y9.698 E18.09403
G1 X7.184 Y9.698 E18.09778
G1 X-9.698 Y-7.184 E18.41774
G1 X-9.698 Y-6.905 E18.42149
G1 X6.905 Y9.698 E18.73616
G1 X6.626 Y9.698 E18.73990
G1 X-9.698 Y-6.626 E19.04928
G1 X-9.698 Y-6.346 E19.05302
G1 X6.346 Y9.698 E19.35710
G1 X6.067 Y9.698 E19.36085
G1 X-9.698 Y-6.067 E19.65963
G1 X-9.698 Y-5.788 E19.66338
G1 X5.788 Y9.698 E19.95687
G1 X5.508 Y9.698 E19.96062
G1 X-9.698 Y-5.508 E20.24882
G1 X-9.698 Y-5.229 E20.25256
G1 X5.229 Y9.698 E20.53547
G1 X4.950 Y9.698 E20.53921
G1 X-9.698 Y-4.950 E20.81683
G1 X-9.698 Y-4.670 E20.82057
G1 X4.670 Y9.698 E21.09289
G1 X4.391 Y9.698 E21.09663
G1 X-9.698 Y-4.391 E21.36366
G1 X-9.698 Y-4.112 E21.36740
G1 X4.112 Y9.698 E21.62913
G1 X3.832 Y9.698 E21.63288
G1 X-9.698 Y-3.832 E21.88932
G1 X-9.698 Y-3.553 E21.89306
G1 X3.553 Y9.698 E22.14420
G1 X3.274 Y9.698 E22.14795
G1 X-9.698 Y-3.274 E22.39380
G1 X-9.698 Y-2.995 E22.39754
G1 X2.995 Y9.698 E22.63810
G1 X2.715 Y9.698 E22.64184
G1 X-9.698 Y-2.715 E22.87711
G1 X-9.698 Y-2.436 E22.88085
G1 X2.436 Y9.698 E23.11082
G1 X2.157 Y9.698 E23.11456
G1 X-9.698 Y-2.157 E23.33924
G1 X-9.698 Y-1.877 E23.34298
G1 X1.877 Y9.698 E23.56236
G1 X1.598 Y9.698 E23.56611
G1 X-9.698 Y-1.598 E23.78019
G1 X-9.698 Y-1.319 E23.78394
G1 X1.319 Y9.698 E23.99273
G1 X1.039 Y9.698 E23.99647
G1 X-9.698 Y-1.039 E24.19997
G1 X-9.698 Y-0.760 E24.20372
G1 X0.760 Y9.698 E24.40192
G1 X0.481 Y9.698 E24.40567
G1 X-9.698 Y-0.481 E24.59858
G1 X-9.698 Y-0.201 E24.60232
G1 X0.201 Y9.698 E24.78994
G1 X-0.078 Y9.698 E24.79368
G1 X-9.698 Y0.078 E24.97601
G1 X-9.698 Y0.357 E24.97975
G1 X-0.357 Y9.698 E25.15678
G1 X-0.637 Y9.698 E25.16053
G1 X-9.698 Y0.637 E25.33226
G1 X-9.698 Y0.916 E25.33601
G1 X-0.916 Y9.698 E25.50245
G1 X-1.195 Y9.698 E25.50619
G1 X-9.698 Y1.195 E25.66734
G1 X-9.698 Y1.475 E25.67109
G1 X-1.475 Y9.698 E25.82694
G1 X-1.754 Y9.698 E25.83069
G1 X-9.698 Y1.754 E25.98125
G1 X-9.698 Y2.033 E25.98499
G1 X-2.033 Y9.698 E26.13026
G1 X-2.313 Y9.698 E26.13400
G1 X-9.698 Y2.313 E26.27398
G1 X-9.698 Y2.592 E26.27772
G1 X-2.592 Y9.698 E26.41240
G1 X-2.871 Y9.698 E26.41615
G1 X-9.698 Y2.871 E26.54553
G1 X-9.698 Y3.151 E26.54928
G1 X-3.151 Y9.698 E26.67337
G1 X-3.430 Y9.698 E26.67711
G1 X-9.698 Y3.430 E26.79591
G1 X-9.698 Y3.709 E26.79965
G1 X-3.709 Y9.698 E26.91316
G1 X-3.989 Y9.698 E26.91690
G1 X-9.698 Y3.989 E27.02511
G1 X-9.698 Y4.268 E27.02886
G1 X-4.268 Y9.698 E27.13177
G1 X-4.547 Y9.698 E27.13552
G1 X-9.698 Y4.547 E27.23314
G1 X-9.698 Y4.827 E27.23688
G1 X-4.827 Y9.698 E27.32921
G1 X-5.106 Y9.698 E27.33296
G1 X-9.698 Y5.106 E27.41999
G1 X-9.698 Y5.385 E27.42374
G1 X-5.385 Y9.698 E27.50548
G1 X-5.665 Y9.698 E27.50922
G1 X-9.698 Y5.665 E27.58567
G1 X-9.698 Y5.944 E27.58941
G1 X-5.944 Y9.698 E27.66057
G1 X-6.223 Y9.698 E27.66431
G1 X-9.698 Y6.223 E27.73017
G1 X-9.698 Y6.503 E27.73392
G1 X-6.503 Y9.698 E27.79448
G1 X-6.782 Y9.698 E27.79823
G1 X-9.698 Y6.782 E27.85350
G1 X-9.698 Y7.061 E27.85724
G1 X-7.061 Y9.698 E27.90722
G1 X-7.341 Y9.698 E27.91097
G1 X-9.698 Y7.341 E27.95565
G1 X-9.698 Y7.620 E27.95939
G1 X-7.620 Y9.698 E27.99879
G1 X-7.899 Y9.698 E28.00253
G1 X-9.698 Y7.899 E28.03663
G1 X-9.698 Y8.179 E28.04037
G1 X-8.179 Y9.698 E28.06917
G1 X-8.458 Y9.698 E28.07292
G1 X-9.698 Y8.458 E28.09643
G1 X-9.698 Y8.737 E28.10017
G1 X-8.737 Y9.698 E28.11839
G1 X-9.017 Y9.698 E28.12213
G1 X-9.698 Y9.017 E28.13505
G1 X-9.698 Y9.296 E28.13880
G1 X-9.296 Y9.698 E28.14642
G1 X-9.575 Y9.698 E28.15017
G1 X-9.698 Y9.575 E28.15250
G1 Z0.500 F5400.000
G1 X9.509 Y9.509 F5400.000
G1 X-9.509 Y9.509 E29.16595 F1026.503
G1 X-9.509 Y-9.509 E30.17940
G1 X9.509 Y-9.509 E31.19286
G1 X9.509 Y9.434 E32.20231
G1 X10.125 Y10.125 F5400.000
G1 X-10.125 Y10.125 E32.81557 F769.877
G1 X-10.125 Y-10.125 E33.42882
G1 X10.125 Y-10.125 E34.04208
G1 X10.125 Y10.050 E34.65307
G1 X9.692 Y9.875 F5400.000
G1 X8.655 Y9.028 F5400.000
G1 X9.028 Y8.655 E34.68195 F1368.670
G1 X9.028 Y7.514 E34.74440
G1 X7.514 Y9.028 E34.86159
G1 X6.373 Y9.028 E34.92404
G1 X9.028 Y6.373 E35.12954
G1 X9.028 Y5.232 E35.19198
G1 X5.232 Y9.028 E35.48579
G1 X4.092 Y9.028 E35.54824
G1 X9.028 Y4.092 E35.93035
G1 X9.028 Y2.951 E35.99280
G1 X2.951 Y9.028 E36.46322
G1 X1.810 Y9.028 E36.52566
G1 X9.028 Y1.810 E37.08440
G1 X9.028 Y0.669 E37.14684
G1 X0.669 Y9.028 E37.79388
G1 X-0.472 Y9.028 E37.85632
G1 X9.028 Y-0.472 E38.59167
G1 X9.028 Y-1.613 E38.65411
G1 X-1.613 Y9.028 E39.47777
G1 X-2.754 Y9.028 E39.54021
G1 X9.028 Y-2.754 E40.45217
G1 X9.028 Y-3.894 E40.51461
G1 X-3.894 Y9.028 E41.51488
G1 X-5.035 Y9.028 E41.57733
G1 X9.028 Y-5.035 E42.66590
G1 X9.028 Y-6.176 E42.72835
G1 X-6.176 Y9.028 E43.90523
G1 X-7.317 Y9.028 E43.96767
G1 X9.028 Y-7.317 E45.23286
G1 X9.028 Y-8.458 E45.29531
G1 X-8.458 Y9.028 E46.64880
G1 X-9.028 Y8.458 E46.69296
G1 X8.458 Y-9.028 E48.04645
G1 X7.317 Y-9.028 E48.10890
G1 X-9.028 Y7.317 E49.37409
G1 X-9.028 Y6.176 E49.43653
G1 X6.176 Y-9.028 E50.61341
G1 X5.035 Y-9.028 E50.67586
G1 X-9.028 Y5.035 E51.76443
G1 X-9.028 Y3.894 E51.82687
G1 X3.894 Y-9.028 E52.82714
G1 X2.754 Y-9.028 E52.88959
G1 X-9.028 Y2.754 E53.80155
G1 X-9.028 Y1.613 E53.86399
G1 X1.613 Y-9.028 E54.68764
G1 X0.472 Y-9.028 E54.75009
G1 X-9.028 Y0.472 E55.48543
G1 X-9.028 Y-0.669 E55.54787
G1 X-0.669 Y-9.028 E56.19491
G1 X-1.810 Y-9.028 E56.25736
G1 X-9.028 Y-1.810 E56.81609
G1 X-9.028 Y-2.951 E56.87853
G1 X-2.951 Y-9.028 E57.34896
G1 X-4.092 Y-9.028 E57.41140
G1 X-9.028 Y-4.092 E57.79352
G1 X-9.028 Y-5.232 E57.85596
G1 X-5.232 Y-9.028 E58.14977
G1 X-6.373 Y-9.028 E58.21221
G1 X-9.028 Y-6.373 E58.41771
G1 X-9.028 Y-7.514 E58.48016
G1 X-7.514 Y-9.028 E58.59735
G1 X-8.655 Y-9.028 E58.65979
G1 X-9.028 Y-8.655 E58.68868
G1 Z0.750 F5400.000
G1 X9.759 Y9.759 F5400.000
G1 X-9.759 Y9.759 E59.72878 F1035.835
G1 X-9.759 Y-9.759 E60.76887
G1 X9.759 Y-9.759 E61.80897
G1 X9.759 Y9.684 E62.84507
G1 X10.375 Y10.375 F5400.000
G1 X-10.375 Y10.375 E63.47347 F776.876
G1 X-10.375 Y-10.375 E64.10186
G1 X10.375 Y-10.375 E64.73026
G1 X10.375 Y10.300 E65.35639
G1 X9.942 Y10.125 F5400.000
G1 X9.028 Y-8.655 F5400.000
G1 X8.655 Y-9.028 E65.38528 F1381.113
G1 X7.514 Y-9.028 E65.44772
G1 X9.028 Y-7.514 E65.56492
G1 X9.028 Y-6.373 E65.62736
G1 X6.373 Y-9.028 E65.83286
G1 X5.232 Y-9.028 E65.89530
G1 X9.028 Y-5.232 E66.18911
G1 X9.028 Y-4.092 E66.25156
G1 X4.092 Y-9.028 E66.63367
G1 X2.951 Y-9.028 E66.69612
G1 X9.028 Y-2.951 E67.16654
G1 X9.028 Y-1.810 E67.22898
G1 X1.810 Y-9.028 E67.78771
G1 X0.669 Y-9.028 E67.85015
G1 X9.028 Y-0.669 E68.49719
G1 X9.028 Y0.472 E68.55963
G1 X-0.472 Y-9.028 E69.29498
G1 X-1.613 Y-9.028 E69.35742
G1 X9.028 Y1.613 E70.18107
G1 X9.028 Y2.754 E70.24351
G1 X-2.754 Y-9.028 E71.15547
G1 X-3.894 Y-9.028 E71.21791
G1 X9.028 Y3.894 E72.21818
G1 X9.028 Y5.035 E72.28062
G1 X-5.035 Y-9.028 E73.36919
G1 X-6.176 Y-9.028 E73.43163
G1 X9.028 Y6.176 E74.60851
G1 X9.028 Y7.317 E74.67095
G1 X-7.317 Y-9.028 E75.93614
G1 X-8.458 Y-9.028 E75.99858
G1 X9.028 Y8.458 E77.35207
G1 X8.458 Y9.028 E77.39623
G1 X-9.028 Y-8.458 E78.74972
G1 X-9.028 Y-7.317 E78.81216
G1 X7.317 Y9.028 E80.07735
G1 X6.176 Y9.028 E80.13979
G1 X-9.028 Y-6.176 E81.31667
G1 X-9.028 Y-5.035 E81.37911
G1 X5.035 Y9.028 E82.46768
G1 X3.894 Y9.028 E82.53012
G1 X-9.028 Y-3.894 E83.53038
G1 X-9.028 Y-2.754 E83.59283
G1 X2.753 Y9.028 E84.50478
G1 X1.613 Y9.028 E84.56723
G1 X-9.028 Y-1.613 E85.39088
G1 X-9.028 Y-0.472 E85.45332
G1 X0.472 Y9.028 E86.18866
G1 X-0.669 Y9.028 E86.25110
G1 X-9.028 Y0.669 E86.89814
G1 X-9.028 Y1.810 E86.96058
G1 X-1.810 Y9.028 E87.51931
G1 X-2.951 Y9.028 E87.58175
G1 X-9.028 Y2.951 E88.05218
G1 X-9.028 Y4.092 E88.11462
G1 X-4.092 Y9.028 E88.49674
G1 X-5.232 Y9.028 E88.55918
G1 X-9.028 Y5.232 E88.85299
G1 X-9.028 Y6.373 E88.91543
G1 X-6.373 Y9.028 E89.12093
G1 X-7.514 Y9.028 E89.18337
G1 X-9.028 Y7.514 E89.30057
G1 X-9.028 Y8.655 E89.36301
G1 X-8.655 Y9.028 E89.39190
M106 S255
G1 Z1.000 F5400.000
G1 X10.009 Y10.009 F5400.000
G1 X-10.009 Y10.009 E90.45864 F600.000
G1 X-10.009 Y-10.009 E91.52538
G1 X10.009 Y-10.009 E92.59212
G1 X10.009 Y9.934 E93.65486
G1 X10.625 Y10.625 F5400.000
G1 X-10.625 Y10.625 E94.29840 F600.000
G1 X-10.625 Y-10.625 E94.94194
G1 X10.625 Y-10.625 E95.58548
G1 X10.625 Y10.550 E96.22675
G1 X10.192 Y10.375 F5400.000
G1 X8.165 Y9.528 F5400.000
G1 X9.528 Y8.165 E96.32947 F765.974
G1 X9.528 Y2.612 E96.62541
G1 X2.612 Y9.528 E97.14665
G1 X-2.942 Y9.528 E97.44259
G1 X9.528 Y-2.942 E98.38236
G1 X9.528 Y-8.496 E98.67830
G1 X-8.496 Y9.528 E100.03660
G1 X-9.528 Y5.007 E100.28372
G1 X5.007 Y-9.528 E101.37911
G1 X-0.547 Y-9.528 E101.67505
G1 X-9.528 Y-0.547 E102.35192
G1 X-9.528 Y-6.100 E102.64786
G1 X-6.100 Y-9.528 E102.90620
G1 Z1.250 F5400.000
G1 X10.259 Y10.259 F5400.000
G1 X-10.259 Y10.259 E103.99958 F600.000
G1 X-10.259 Y-10.259 E105.09296
G1 X10.259 Y-10.259 E106.18635
G1 X10.259 Y10.184 E107.27573
G1 X10.875 Y10.875 F5400.000
G1 X-10.875 Y10.875 E107.93442 F600.000
G1 X-10.875 Y-10.875 E108.59310
G1 X10.875 Y-10.875 E109.25178
G1 X10.875 Y10.800 E109.90820
G1 X10.442 Y10.625 F5400.000
G1 X9.778 Y-7.915 F5400.000
G1 X7.915 Y-9.778 E110.04859 F788.318
G1 X2.362 Y-9.778 E110.34453
G1 X9.778 Y-2.362 E110.90346
G1 X9.778 Y3.192 E111.19940
G1 X-3.192 Y-9.778 E112.17685
G1 X-8.746 Y-9.778 E112.47279
G1 X9.778 Y8.746 E113.86876
G1 X5.257 Y9.778 E114.11589
G1 X-9.778 Y-5.257 E115.24896
G1 X-9.778 Y0.297 E115.54490
G1 X-0.297 Y9.778 E116.25944
G1 X-5.850 Y9.778 E116.55539
G1 X-9.778 Y5.850 E116.85141
G1 Z1.500 F5400.000
G1 X10.509 Y10.509 F5400.000
G1 X-10.509 Y10.509 E117.97143 F607.997
G1 X-10.509 Y-10.509 E119.09146
G1 X10.509 Y-10.509 E120.21149
G1 X10.509 Y10.434 E121.32752
G1 X11.125 Y11.125 F5400.000
G1 X-11.125 Y11.125 E122.00135 F600.000
G1 X-11.125 Y-11.125 E122.67517
G1 X11.125 Y-11.125 E123.34900
G1 X11.125 Y11.050 E124.02055
G1 X10.692 Y10.875 F5400.000
G1 X7.665 Y10.028 F5400.000
G1 X10.028 Y7.665 E124.19863 F810.662
G1 X10.028 Y2.112 E124.49457
G1 X2.112 Y10.028 E125.09117
G1 X-3.442 Y10.028 E125.38711
G1 X10.028 Y-3.442 E126.40224
G1 X10.028 Y-8.996 E126.69818
G1 X-8.996 Y10.028 E128.13184
G1 X-10.028 Y5.507 E128.37896
G1 X5.507 Y-10.028 E129.54971
G1 X-0.047 Y-10.028 E129.84566
G1 X-10.028 Y-0.047 E130.59788
G1 X-10.028 Y-5.600 E130.89382
G1 X-5.600 Y-10.028 E131.22752
G1 Z1.750 F5400.000
G1 X10.759 Y10.759 F5400.000
G1 X-10.759 Y10.759 E132.37420 F624.755
G1 X-10.759 Y-10.759 E133.52087
G1 X10.759 Y-10.759 E134.66754
G1 X10.759 Y10.684 E135.81021
G1 X11.375 Y11.375 F5400.000
G1 X-11.375 Y11.375 E136.49918 F600.000
G1 X-11.375 Y-11.375 E137.18815
G1 X11.375 Y-11.375 E137.87712
G1 X11.375 Y11.300 E138.56381
G1 X10.942 Y11.125 F5400.000
G1 X10.278 Y-7.415 F5400.000
G1 X7.415 Y-10.278 E138.77957 F833.006
G1 X1.862 Y-10.278 E139.07551
G1 X10.278 Y-1.862 E139.70980
G1 X10.278 Y3.692 E140.00574
G1 X-3.692 Y-10.278 E141.05855
G1 X-9.246 Y-10.278 E141.35449
G1 X10.278 Y9.246 E142.82582
G1 X5.757 Y10.278 E143.07295
G1 X-10.278 Y-5.757 E144.28138
G1 X-10.278 Y-0.203 E144.57732
G1 X0.203 Y10.278 E145.36723
G1 X-5.350 Y10.278 E145.66317
