; generated by Slic3r 1.2.9 on 2016-04-06 at 13:10:49

; external perimeters extrusion width = 0.50mm
; perimeters extrusion width = 0.84mm
; infill extrusion width = 0.84mm
; solid infill extrusion width = 0.84mm
; top infill extrusion width = 0.84mm

M107
M190 S56 ; set bed temperature
M104 S230 ; set temperature
G1 Z5 F5000 ; lift nozzle

M109 S230 ; wait for temperature to be reached
G21 ; set units to millimeters
G90 ; use absolute coordinates
M82 ; use absolute distances for extrusion
G92 E0
G1 Z0.250 F5400.000
G1 X9.679 Y-9.679 F5400.000
G1 X9.679 Y9.679 E0.25788 F1350.000
G1 X-9.679 Y9.679 E0.51576
G1 X-9.679 Y-9.679 E0.77364
G1 X9.604 Y-9.679 E1.03052
G1 X9.875 Y-9.875 F5400.000
G1 X9.875 Y9.875 E1.29363 F1012.500
G1 X-9.875 Y9.875 E1.55674
G1 X-9.875 Y-9.875 E1.81985
G1 X9.800 Y-9.875 E2.08196
G1 X9.625 Y-9.442 F5400.000
G1 X9.573 Y-9.450 F5400.000
G1 X9.450 Y-9.573 E2.08429 F1800.000
G1 X9.172 Y-9.573 E2.08799
G1 X9.573 Y-9.172 E2.09554
G1 X9.573 Y-8.895 E2.09924
G1 X8.895 Y-9.573 E2.11203
G1 X8.617 Y-9.573 E2.11573
G1 X9.573 Y-8.617 E2.13376
G1 X9.573 Y-8.339 E2.13746
G1 X8.339 Y-9.573 E2.16071
G1 X8.062 Y-9.573 E2.16441
G1 X9.573 Y-8.062 E2.19290
G1 X9.573 Y-7.784 E2.19660
G1 X7.784 Y-9.573 E2.23032
G1 X7.506 Y-9.573 E2.23402
G1 X9.573 Y-7.506 E2.27297
G1 X9.573 Y-7.228 E2.27667
G1 X7.228 Y-9.573 E2.32086
G1 X6.951 Y-9.573 E2.32456
G1 X9.573 Y-6.951 E2.37398
G1 X9.573 Y-6.673 E2.37768
G1 X6.673 Y-9.573 E2.43234
G1 X6.395 Y-9.573 E2.43604
G1 X9.573 Y-6.395 E2.49592
G1 X9.573 Y-6.118 E2.49962
G1 X6.118 Y-9.573 E2.56474
G1 X5.840 Y-9.573 E2.56844
G1 X9.573 Y-5.840 E2.63879
G1 X9.573 Y-5.562 E2.64249
G1 X5.562 Y-9.573 E2.71808
G1 X5.284 Y-9.573 E2.72178
G1 X9.573 Y-5.284 E2.80259
G1 X9.573 Y-5.007 E2.80629
G1 X5.007 Y-9.573 E2.89235
G1 X4.729 Y-9.573 E2.89605
G1 X9.573 Y-4.729 E2.98733
G1 X9.573 Y-4.451 E2.99103
G1 X4.451 Y-9.573 E3.08755
G1 X4.173 Y-9.573 E3.09125
G1 X9.573 Y-4.174 E3.19300
G1 X9.573 Y-3.896 E3.19670
G1 X3.896 Y-9.573 E3.30368
G1 X3.618 Y-9.573 E3.30738
G1 X9.573 Y-3.618 E3.41959
G1 X9.573 Y-3.340 E3.42329
G1 X3.340 Y-9.573 E3.54074
G1 X3.063 Y-9.573 E3.54444
G1 X9.573 Y-3.063 E3.66712
G1 X9.573 Y-2.785 E3.67082
G1 X2.785 Y-9.573 E3.79874
G1 X2.507 Y-9.573 E3.80244
G1 X9.573 Y-2.507 E3.93558
G1 X9.573 Y-2.229 E3.93928
G1 X2.229 Y-9.573 E4.07766
G1 X1.952 Y-9.573 E4.08136
G1 X9.573 Y-1.952 E4.22498
G1 X9.573 Y-1.674 E4.22868
G1 X1.674 Y-9.573 E4.37752
G1 X1.396 Y-9.573 E4.38122
G1 X9.573 Y-1.396 E4.53530
G1 X9.573 Y-1.119 E4.53900
G1 X1.119 Y-9.573 E4.69831
G1 X0.841 Y-9.573 E4.70201
G1 X9.573 Y-0.841 E4.86656
G1 X9.573 Y-0.563 E4.87026
G1 X0.563 Y-9.573 E5.04004
G1 X0.285 Y-9.573 E5.04374
G1 X9.573 Y-0.285 E5.21875
G1 X9.573 Y-0.008 E5.22245
G1 X0.008 Y-9.573 E5.40269
G1 X-0.270 Y-9.573 E5.40639
G1 X9.573 Y0.270 E5.59187
G1 X9.573 Y0.548 E5.59557
G1 X-0.548 Y-9.573 E5.78628
G1 X-0.825 Y-9.573 E5.78998
G1 X9.573 Y0.825 E5.98592
G1 X9.573 Y1.103 E5.98962
G1 X-1.103 Y-9.573 E6.19080
G1 X-1.381 Y-9.573 E6.19450
G1 X9.573 Y1.381 E6.40090
G1 X9.573 Y1.659 E6.40460
G1 X-1.659 Y-9.573 E6.61625
G1 X-1.936 Y-9.573 E6.61995
G1 X9.573 Y1.936 E6.83682
G1 X9.573 Y2.214 E6.84052
G1 X-2.214 Y-9.573 E7.06263
G1 X-2.492 Y-9.573 E7.06633
G1 X9.573 Y2.492 E7.29367
G1 X9.573 Y2.769 E7.29737
G1 X-2.769 Y-9.573 E7.52994
G1 X-3.047 Y-9.573 E7.53364
G1 X9.573 Y3.047 E7.77145
G1 X9.573 Y3.325 E7.77515
G1 X-3.325 Y-9.573 E8.01819
G1 X-3.603 Y-9.573 E8.02189
G1 X9.573 Y3.603 E8.27016
G1 X9.573 Y3.880 E8.27386
G1 X-3.880 Y-9.573 E8.52736
G1 X-4.158 Y-9.573 E8.53106
G1 X9.573 Y4.158 E8.78980
G1 X9.573 Y4.436 E8.79350
G1 X-4.436 Y-9.573 E9.05747
G1 X-4.713 Y-9.573 E9.06117
G1 X9.573 Y4.713 E9.33038
G1 X9.573 Y4.991 E9.33408
G1 X-4.991 Y-9.573 E9.60851
G1 X-5.269 Y-9.573 E9.61221
G1 X9.573 Y5.269 E9.89188
G1 X9.573 Y5.547 E9.89558
G1 X-5.547 Y-9.573 E10.18048
G1 X-5.824 Y-9.573 E10.18418
G1 X9.573 Y5.824 E10.47432
G1 X9.573 Y6.102 E10.47802
G1 X-6.102 Y-9.573 E10.77339
G1 X-6.380 Y-9.573 E10.77709
G1 X9.573 Y6.380 E11.07769
G1 X9.573 Y6.657 E11.08139
G1 X-6.657 Y-9.573 E11.38722
G1 X-6.935 Y-9.573 E11.39092
G1 X9.573 Y6.935 E11.70199
G1 X9.573 Y7.213 E11.70569
G1 X-7.213 Y-9.573 E12.02199
G1 X-7.491 Y-9.573 E12.02569
G1 X9.573 Y7.491 E12.34722
G1 X9.573 Y7.768 E12.35092
G1 X-7.768 Y-9.573 E12.67769
G1 X-8.046 Y-9.573 E12.68139
G1 X9.573 Y8.046 E13.01339
G1 X9.573 Y8.324 E13.01709
G1 X-8.324 Y-9.573 E13.35432
G1 X-8.601 Y-9.573 E13.35802
G1 X9.573 Y8.601 E13.70049
G1 X9.573 Y8.879 E13.70419
G1 X-8.879 Y-9.573 E14.05188
G1 X-9.157 Y-9.573 E14.05558
G1 X9.573 Y9.157 E14.40852
G1 X9.573 Y9.435 E14.41222
G1 X-9.435 Y-9.573 E14.77038
G1 X-9.573 Y-9.435 E14.77300
G1 X9.435 Y9.573 E15.13116
G1 X9.157 Y9.573 E15.13486
G1 X-9.573 Y-9.157 E15.48779
G1 X-9.573 Y-8.879 E15.49149
G1 X8.879 Y9.573 E15.83918
G1 X8.601 Y9.573 E15.84288
G1 X-9.573 Y-8.601 E16.18534
G1 X-9.573 Y-8.324 E16.18905
G1 X8.324 Y9.573 E16.52627
G1 X8.046 Y9.573 E16.52998
G1 X-9.573 Y-8.046 E16.86197
G1 X-9.573 Y-7.768 E16.86567
G1 X7.768 Y9.573 E17.19244
G1 X7.490 Y9.573 E17.19614
G1 X-9.573 Y-7.490 E17.51767
G1 X-9.573 Y-7.213 E17.52137
G1 X7.213 Y9.573 E17.83767
G1 X6.935 Y9.573 E17.84137
G1 X-9.573 Y-6.935 E18.15243
G1 X-9.573 Y-6.657 E18.15613
G1 X6.657 Y9.573 E18.46196
G1 X6.380 Y9.573 E18.46566
G1 X-9.573 Y-6.380 E18.76626
G1 X-9.573 Y-6.102 E18.76996
G1 X6.102 Y9.573 E19.06533
G1 X5.824 Y9.573 E19.06903
G1 X-9.573 Y-5.824 E19.35916
G1 X-9.573 Y-5.546 E19.36286
G1 X5.546 Y9.573 E19.64776
G1 X5.269 Y9.573 E19.65146
G1 X-9.573 Y-5.269 E19.93113
G1 X-9.573 Y-4.991 E19.93483
G1 X4.991 Y9.573 E20.20927
G1 X4.713 Y9.573 E20.21297
G1 X-9.573 Y-4.713 E20.48217
G1 X-9.573 Y-4.436 E20.48587
G1 X4.436 Y9.573 E20.74984
G1 X4.158 Y9.573 E20.75354
G1 X-9.573 Y-4.158 E21.01227
G1 X-9.573 Y-3.880 E21.01597
G1 X3.880 Y9.573 E21.26947
G1 X3.602 Y9.573 E21.27317
G1 X-9.573 Y-3.602 E21.52144
G1 X-9.573 Y-3.325 E21.52514
G1 X3.325 Y9.573 E21.76818
G1 X3.047 Y9.573 E21.77188
G1 X-9.573 Y-3.047 E22.00969
G1 X-9.573 Y-2.769 E22.01339
G1 X2.769 Y9.573 E22.24596
G1 X2.492 Y9.573 E22.24966
G1 X-9.573 Y-2.492 E22.47699
G1 X-9.573 Y-2.214 E22.48070
G1 X2.214 Y9.573 E22.70280
G1 X1.936 Y9.573 E22.70650
G1 X-9.573 Y-1.936 E22.92337
G1 X-9.573 Y-1.658 E22.92707
G1 X1.658 Y9.573 E23.13871
G1 X1.381 Y9.573 E23.14241
G1 X-9.573 Y-1.381 E23.34882
G1 X-9.573 Y-1.103 E23.35252
G1 X1.103 Y9.573 E23.55369
G1 X0.825 Y9.573 E23.55739
G1 X-9.573 Y-0.825 E23.75333
G1 X-9.573 Y-0.548 E23.75703
G1 X0.548 Y9.573 E23.94774
G1 X0.270 Y9.573 E23.95144
G1 X-9.573 Y-0.270 E24.13691
G1 X-9.573 Y0.008 E24.14061
G1 X-0.008 Y9.573 E24.32086
G1 X-0.286 Y9.573 E24.32456
G1 X-9.573 Y0.286 E24.49956
G1 X-9.573 Y0.563 E24.50327
G1 X-0.563 Y9.573 E24.67304
G1 X-0.841 Y9.573 E24.67674
G1 X-9.573 Y0.841 E24.84128
G1 X-9.573 Y1.119 E24.84498
G1 X-1.119 Y9.573 E25.00429
G1 X-1.396 Y9.573 E25.00799
G1 X-9.573 Y1.396 E25.16207
G1 X-9.573 Y1.674 E25.16577
G1 X-1.674 Y9.573 E25.31461
G1 X-1.952 Y9.573 E25.31831
G1 X-9.573 Y1.952 E25.46193
G1 X-9.573 Y2.230 E25.46563
G1 X-2.230 Y9.573 E25.60400
G1 X-2.507 Y9.573 E25.60770
G1 X-9.573 Y2.507 E25.74085
G1 X-9.573 Y2.785 E25.74455
G1 X-2.785 Y9.573 E25.87246
G1 X-3.063 Y9.573 E25.87616
G1 X-9.573 Y3.063 E25.99884
G1 X-9.573 Y3.340 E26.00254
G1 X-3.340 Y9.573 E26.11999
G1 X-3.618 Y9.573 E26.12369
G1 X-9.573 Y3.618 E26.23590
G1 X-9.573 Y3.896 E26.23960
G1 X-3.896 Y9.573 E26.34658
G1 X-4.174 Y9.573 E26.35028
G1 X-9.573 Y4.174 E26.45203
G1 X-9.573 Y4.451 E26.45573
G1 X-4.451 Y9.573 E26.55224
G1 X-4.729 Y9.573 E26.55594
G1 X-9.573 Y4.729 E26.64722
G1 X-9.573 Y5.007 E26.65092
G1 X-5.007 Y9.573 E26.73697
G1 X-5.284 Y9.573 E26.74067
G1 X-9.573 Y5.284 E26.82149
G1 X-9.573 Y5.562 E26.82519
G1 X-5.562 Y9.573 E26.90077
G1 X-5.840 Y9.573 E26.90447
G1 X-9.573 Y5.840 E26.97482
G1 X-9.573 Y6.118 E26.97852
G1 X-6.118 Y9.573 E27.04364
G1 X-6.395 Y9.573 E27.04734
G1 X-9.573 Y6.395 E27.10722
G1 X-9.573 Y6.673 E27.11092
G1 X-6.673 Y9.573 E27.16557
G1 X-6.951 Y9.573 E27.16927
G1 X-9.573 Y6.951 E27.21869
G1 X-9.573 Y7.228 E27.22239
G1 X-7.228 Y9.573 E27.26658
G1 X-7.506 Y9.573 E27.27028
G1 X-9.573 Y7.506 E27.30923
G1 X-9.573 Y7.784 E27.31293
G1 X-7.784 Y9.573 E27.34665
G1 X-8.062 Y9.573 E27.35035
G1 X-9.573 Y8.062 E27.37883
G1 X-9.573 Y8.339 E27.38254
G1 X-8.339 Y9.573 E27.40579
G1 X-8.617 Y9.573 E27.40949
G1 X-9.573 Y8.617 E27.42751
G1 X-9.573 Y8.895 E27.43121
G1 X-8.895 Y9.573 E27.44400
G1 X-9.173 Y9.573 E27.44770
G1 X-9.573 Y9.173 E27.45525
G1 X-9.573 Y9.450 E27.45895
G1 X-9.450 Y9.573 E27.46127
G1 Z0.500 F5400.000
G1 X9.134 Y-9.134 F5400.000
G1 X9.134 Y9.134 E28.43476 F2700.000
G1 X-9.134 Y9.134 E29.40824
G1 X-9.134 Y-9.134 E30.38172
G1 X9.059 Y-9.134 E31.35121
G1 X9.750 Y-9.750 F5400.000
G1 X9.750 Y9.750 E31.94176 F2025.000
G1 X-9.750 Y9.750 E32.53230
G1 X-9.750 Y-9.750 E33.12284
G1 X9.675 Y-9.750 E33.71111
G1 X9.500 Y-9.317 F5400.000
G1 X-8.280 Y-8.653 F5400.000
G1 X-8.653 Y-8.280 E33.73970 F3600.000
G1 X-8.653 Y-7.151 E33.80084
G1 X-7.151 Y-8.653 E33.91589
G1 X-6.022 Y-8.653 E33.97703
G1 X-8.653 Y-6.022 E34.17854
G1 X-8.653 Y-4.893 E34.23968
G1 X-4.893 Y-8.653 E34.52765
G1 X-3.764 Y-8.653 E34.58879
G1 X-8.653 Y-3.764 E34.96323
G1 X-8.653 Y-2.636 E35.02437
G1 X-2.636 Y-8.653 E35.48527
G1 X-1.507 Y-8.653 E35.54641
G1 X-8.653 Y-1.507 E36.09378
G1 X-8.653 Y-0.378 E36.15492
G1 X-0.378 Y-8.653 E36.78875
G1 X0.751 Y-8.653 E36.84989
G1 X-8.653 Y0.751 E37.57018
G1 X-8.653 Y1.880 E37.63132
G1 X1.880 Y-8.653 E38.43807
G1 X3.009 Y-8.653 E38.49921
G1 X-8.653 Y3.009 E39.39243
G1 X-8.653 Y4.138 E39.45357
G1 X4.138 Y-8.653 E40.43326
G1 X5.267 Y-8.653 E40.49440
G1 X-8.653 Y5.267 E41.56054
G1 X-8.653 Y6.395 E41.62168
G1 X6.395 Y-8.653 E42.77429
G1 X7.524 Y-8.653 E42.83543
G1 X-8.653 Y7.524 E44.07451
G1 X-8.633 Y8.633 E44.13457
G1 X8.633 Y-8.633 E45.45705
G1 X8.653 Y-7.524 E45.51711
G1 X-7.524 Y8.653 E46.75619
G1 X-6.395 Y8.653 E46.81733
G1 X8.653 Y-6.395 E47.96994
G1 X8.653 Y-5.267 E48.03108
G1 X-5.267 Y8.653 E49.09723
G1 X-4.138 Y8.653 E49.15837
G1 X8.653 Y-4.138 E50.13805
G1 X8.653 Y-3.009 E50.19919
G1 X-3.009 Y8.653 E51.09241
G1 X-1.880 Y8.653 E51.15355
G1 X8.653 Y-1.880 E51.96031
G1 X8.653 Y-0.751 E52.02145
G1 X-0.751 Y8.653 E52.74174
G1 X0.378 Y8.653 E52.80288
G1 X8.653 Y0.378 E53.43671
G1 X8.653 Y1.507 E53.49785
G1 X1.507 Y8.653 E54.04522
G1 X2.636 Y8.653 E54.10636
G1 X8.653 Y2.636 E54.56726
G1 X8.653 Y3.764 E54.62840
G1 X3.764 Y8.653 E55.00284
G1 X4.893 Y8.653 E55.06398
G1 X8.653 Y4.893 E55.35196
G1 X8.653 Y6.022 E55.41309
G1 X6.022 Y8.653 E55.61461
G1 X7.151 Y8.653 E55.67575
G1 X8.653 Y7.151 E55.79080
G1 X8.653 Y8.280 E55.85193
G1 X8.280 Y8.653 E55.88052
G1 Z0.750 F5400.000
G1 X9.134 Y-9.134 F5400.000
G1 X9.134 Y9.134 E56.85400 F2700.000
G1 X-9.134 Y9.134 E57.82749
G1 X-9.134 Y-9.134 E58.80097
G1 X9.059 Y-9.134 E59.77046
G1 X9.750 Y-9.750 F5400.000
G1 X9.750 Y9.750 E60.36100 F2025.000
G1 X-9.750 Y9.750 E60.95155
G1 X-9.750 Y-9.750 E61.54209
G1 X9.675 Y-9.750 E62.13036
G1 X9.500 Y-9.317 F5400.000
G1 X8.653 Y-8.280 F5400.000
G1 X8.280 Y-8.653 E62.15895 F3600.000
G1 X7.151 Y-8.653 E62.22009
G1 X8.653 Y-7.151 E62.33514
G1 X8.653 Y-6.022 E62.39627
G1 X6.022 Y-8.653 E62.59779
G1 X4.893 Y-8.653 E62.65893
G1 X8.653 Y-4.893 E62.94690
G1 X8.653 Y-3.764 E63.00804
G1 X3.764 Y-8.653 E63.38248
G1 X2.636 Y-8.653 E63.44362
G1 X8.653 Y-2.636 E63.90452
G1 X8.653 Y-1.507 E63.96566
G1 X1.507 Y-8.653 E64.51303
G1 X0.378 Y-8.653 E64.57417
G1 X8.653 Y-0.378 E65.20800
G1 X8.653 Y0.751 E65.26914
G1 X-0.751 Y-8.653 E65.98943
G1 X-1.880 Y-8.653 E66.05057
G1 X8.653 Y1.880 E66.85733
G1 X8.653 Y3.009 E66.91847
G1 X-3.009 Y-8.653 E67.81169
G1 X-4.138 Y-8.653 E67.87283
G1 X8.653 Y4.138 E68.85251
G1 X8.653 Y5.267 E68.91365
G1 X-5.267 Y-8.653 E69.97980
G1 X-6.395 Y-8.653 E70.04094
G1 X8.653 Y6.395 E71.19355
G1 X8.653 Y7.524 E71.25469
G1 X-7.524 Y-8.653 E72.49377
G1 X-8.633 Y-8.633 E72.55383
G1 X8.633 Y8.633 E73.87631
G1 X7.524 Y8.653 E73.93637
G1 X-8.653 Y-7.524 E75.17545
G1 X-8.653 Y-6.395 E75.23659
G1 X6.395 Y8.653 E76.38920
G1 X5.267 Y8.653 E76.45034
G1 X-8.653 Y-5.267 E77.51648
G1 X-8.653 Y-4.138 E77.57762
G1 X4.138 Y8.653 E78.55731
G1 X3.009 Y8.653 E78.61845
G1 X-8.653 Y-3.009 E79.51167
G1 X-8.653 Y-1.880 E79.57281
G1 X1.880 Y8.653 E80.37956
G1 X0.751 Y8.653 E80.44070
G1 X-8.653 Y-0.751 E81.16100
G1 X-8.653 Y0.378 E81.22214
G1 X-0.378 Y8.653 E81.85597
G1 X-1.507 Y8.653 E81.91710
G1 X-8.653 Y1.507 E82.46447
G1 X-8.653 Y2.636 E82.52561
G1 X-2.636 Y8.653 E82.98651
G1 X-3.764 Y8.653 E83.04765
G1 X-8.653 Y3.764 E83.42209
G1 X-8.653 Y4.893 E83.48323
G1 X-4.893 Y8.653 E83.77121
G1 X-6.022 Y8.653 E83.83234
G1 X-8.653 Y6.022 E84.03386
G1 X-8.653 Y7.151 E84.09500
G1 X-7.151 Y8.653 E84.21004
G1 X-8.280 Y8.653 E84.27118
G1 X-8.653 Y8.280 E84.29977
M106 S255
G1 Z1.000 F5400.000
G1 X9.134 Y-9.134 F5400.000
G1 X9.134 Y9.134 E85.27325 F1526.873
G1 X-9.134 Y9.134 E86.24674
G1 X-9.134 Y-9.134 E87.22022
G1 X9.059 Y-9.134 E88.18971
G1 X9.750 Y-9.750 F5400.000
G1 X9.750 Y9.750 E88.78025 F1145.155
G1 X-9.750 Y9.750 E89.37079
G1 X-9.750 Y-9.750 E89.96134
G1 X9.675 Y-9.750 E90.54961
G1 X9.500 Y-9.317 F5400.000
G1 X-8.653 Y-7.491 F5400.000
G1 X-7.491 Y-8.653 E90.63716 F2035.830
G1 X-1.938 Y-8.653 E90.93310
G1 X-8.653 Y-1.938 E91.43918
G1 X-8.653 Y3.616 E91.73512
G1 X3.616 Y-8.653 E92.65972
G1 X8.653 Y-8.137 E92.92956
G1 X-8.137 Y8.653 E94.19488
G1 X-2.583 Y8.653 E94.49082
G1 X8.653 Y-2.583 E95.33761
G1 X8.653 Y2.970 E95.63355
G1 X2.970 Y8.653 E96.06182
G1 Z1.250 F5400.000
G1 X9.134 Y-9.134 F5400.000
G1 X9.134 Y9.134 E97.03530 F1526.873
G1 X-9.134 Y9.134 E98.00878
G1 X-9.134 Y-9.134 E98.98227
G1 X9.059 Y-9.134 E99.95176
G1 X9.750 Y-9.750 F5400.000
G1 X9.750 Y9.750 E100.54230 F1145.155
G1 X-9.750 Y9.750 E101.13284
G1 X-9.750 Y-9.750 E101.72339
G1 X9.675 Y-9.750 E102.31166
G1 X9.500 Y-9.317 F5400.000
G1 X8.653 Y-2.970 F5400.000
G1 X2.970 Y-8.653 E102.73992 F2035.830
G1 X-2.583 Y-8.653 E103.03586
G1 X8.653 Y2.583 E103.88266
G1 X8.653 Y8.137 E104.17860
G1 X-8.137 Y-8.653 E105.44391
G1 X-8.653 Y-3.616 E105.71375
G1 X3.616 Y8.653 E106.63835
G1 X-1.938 Y8.653 E106.93429
G1 X-8.653 Y1.938 E107.44037
G1 X-8.653 Y7.491 E107.73631
G1 X-7.491 Y8.653 E107.82386
G1 Z1.500 F5400.000
G1 X9.134 Y-9.134 F5400.000
G1 X9.134 Y9.134 E108.79735 F1526.873
G1 X-9.134 Y9.134 E109.77083
G1 X-9.134 Y-9.134 E110.74432
G1 X9.059 Y-9.134 E111.71380
G1 X9.750 Y-9.750 F5400.000
G1 X9.750 Y9.750 E112.30435 F1145.155
G1 X-9.750 Y9.750 E112.89489
G1 X-9.750 Y-9.750 E113.48543
G1 X9.675 Y-9.750 E114.07371
G1 X9.500 Y-9.317 F5400.000
G1 X-8.653 Y-7.491 F5400.000
G1 X-7.491 Y-8.653 E114.16126 F2035.830
G1 X-1.938 Y-8.653 E114.45720
G1 X-8.653 Y-1.938 E114.96327
G1 X-8.653 Y3.616 E115.25922
G1 X3.616 Y-8.653 E116.18382
G1 X8.653 Y-8.137 E116.45366
G1 X-8.137 Y8.653 E117.71897
G1 X-2.583 Y8.653 E118.01491
G1 X8.653 Y-2.583 E118.86170
G1 X8.653 Y2.970 E119.15765
G1 X2.970 Y8.653 E119.58591
G1 Z1.750 F5400.000
G1 X9.134 Y-9.134 F5400.000
G1 X9.134 Y9.134 E120.55940 F1526.873
G1 X-9.134 Y9.134 E121.53288
G1 X-9.134 Y-9.134 E122.50636
G1 X9.059 Y-9.134 E123.47585
G1 X9.750 Y-9.750 F5400.000
G1 X9.750 Y9.750 E124.06639 F1145.155
G1 X-9.750 Y9.750 E124.65694
G1 X-9.750 Y-9.750 E125.24748
G1 X9.675 Y-9.750 E125.83575
G1 X9.500 Y-9.317 F5400.000
G1 X8.653 Y-2.970 F5400.000
G1 X2.970 Y-8.653 E126.26402 F2035.830
G1 X-2.583 Y-8.653 E126.55996
G1 X8.653 Y2.583 E127.40675
G1 X8.653 Y8.137 E127.70269
G1 X-8.137 Y-8.653 E128.96801
G1 X-8.653 Y-3.616 E129.23785
G1 X3.616 Y8.653 E130.16245
G1 X-1.938 Y8.653 E130.45839
G1 X-8.653 Y1.938 E130.96447
G1 X-8.653 Y7.491 E131.26041
G1 X-7.491 Y8.653 E131.34796
G1 Z2.000 F5400.000
G1 X9.134 Y-9.134 F5400.000
G1 X9.134 Y9.134 E132.32144 F1526.873
G1 X-9.134 Y9.134 E133.29493
G1 X-9.134 Y-9.134 E134.26841
G1 X9.059 Y-9.134 E135.23790
G1 X9.750 Y-9.750 F5400.000
G1 X9.750 Y9.750 E135.82844 F1145.155
G1 X-9.750 Y9.750 E136.41899
G1 X-9.750 Y-9.750 E137.00953
G1 X9.675 Y-9.750 E137.59780
G1 X9.500 Y-9.317 F5400.000
G1 X-8.653 Y-7.491 F5400.000
G1 X-7.491 Y-8.653 E137.68535 F2035.830
G1 X-1.938 Y-8.653 E137.98129
G1 X-8.653 Y-1.938 E138.48737
